examples/lut/ColorTransform.CUBE
#Created by: Adobe Photoshop Export Color Lookup Plugin
TITLE "CustomPreset.jpg"
#LUT size
LUT_3D_SIZE 5
#data domain
#LUT data points
DOMAIN_MIN 0.000000 0.000000 0.000000
DOMAIN_MAX 0.903226 0.903226 0.903226
0.137787 0.193817 0.235046
0.331207 0.230255 0.281281
0.486481 0.246429 0.283234
0.587341 0.255035 0.283234
0.651825 0.260498 0.283234
0.200470 0.405579 0.283234
0.424500 0.426605 0.283234
0.587158 0.446503 0.283264
0.690125 0.462311 0.283234
0.758820 0.473175 0.283234
0.276611 0.565826 0.283142
0.507233 0.600800 0.283234
0.672913 0.629364 0.283234
0.778870 0.647125 0.283234
0.850555 0.657806 0.283234
0.327972 0.679779 0.283234
0.562256 0.721436 0.283234
0.720062 0.749725 0.283234
0.821014 0.766968 0.293793
0.890533 0.778137 0.305328
0.363312 0.759003 0.283234
0.591156 0.802582 0.283234
0.740753 0.832214 0.299683
0.837036 0.851166 0.320374
0.904785 0.863068 0.335510
0.144501 0.207703 0.408234
0.345001 0.238373 0.437164
0.504120 0.252838 0.437164
0.605835 0.261475 0.437164
0.670776 0.267426 0.437164
0.217194 0.412201 0.437164
0.442963 0.434967 0.437164
0.606049 0.458069 0.437164
0.710602 0.475098 0.437164
0.780762 0.486542 0.437164
0.293732 0.576019 0.437164
0.527435 0.613922 0.437164
0.691437 0.642578 0.437164
0.796051 0.659637 0.437164
0.867004 0.669647 0.438141
0.347809 0.693146 0.437164
0.579315 0.735046 0.437164
0.732666 0.762451 0.444122
0.830963 0.780029 0.462524
0.899323 0.790955 0.476837
0.382263 0.773621 0.437164
0.603851 0.816010 0.440521
0.748535 0.846375 0.469940
0.842957 0.865112 0.494354
0.910339 0.876617 0.510681
0.151489 0.217896 0.551147
0.357697 0.244202 0.566040
0.519318 0.258087 0.566040
0.621094 0.267151 0.566040
0.686157 0.273682 0.566040
0.231628 0.417725 0.566040
0.457764 0.443024 0.566101
0.622162 0.468323 0.566040
0.727844 0.486115 0.566040
0.798706 0.497650 0.566040
0.308929 0.585510 0.566040
0.543732 0.624939 0.566040
0.705444 0.653168 0.566040
0.808228 0.669250 0.566803
0.879028 0.679657 0.575226
0.363770 0.704407 0.566040
0.591492 0.745667 0.566040
0.740906 0.773163 0.583191
0.837158 0.790558 0.604584
0.904968 0.801331 0.620026
0.396667 0.785400 0.566040
0.612488 0.827515 0.578491
0.753448 0.857880 0.612732
0.846771 0.876068 0.637787
0.914276 0.887115 0.653778
0.156952 0.223816 0.641266
0.366608 0.247772 0.649445
0.529236 0.261536 0.649445
0.631073 0.271149 0.649445
0.696106 0.278290 0.649384
0.241180 0.421448 0.649445
0.467560 0.448822 0.649445
0.632935 0.475311 0.649445
0.739075 0.493408 0.649445
0.810364 0.504944 0.649445
0.319000 0.591919 0.649445
0.553955 0.632172 0.649445
0.713745 0.659821 0.649445
0.815582 0.675842 0.655212
0.885620 0.686279 0.665680
0.374023 0.711853 0.649445
0.598480 0.752258 0.649445
0.745361 0.780121 0.674896
0.840546 0.797363 0.698456
0.908020 0.807922 0.714905
0.405457 0.793030 0.649445
0.617126 0.835114 0.669525
0.756042 0.865204 0.707062
0.849060 0.883087 0.733429
0.916870 0.893677 0.749786
0.160675 0.227081 0.698944
0.372498 0.250000 0.703949
0.535828 0.263885 0.703949
0.637360 0.273865 0.703949
0.702362 0.281433 0.703857
0.247284 0.423950 0.703949
0.474060 0.452728 0.703949
0.639832 0.479858 0.703949
0.746155 0.498077 0.703949
0.817657 0.509583 0.703949
0.325867 0.596344 0.703949
0.560272 0.636719 0.703949
0.718597 0.663879 0.703949
0.819733 0.680054 0.713867
0.889343 0.690430 0.725800
0.380402 0.716583 0.703949
0.602631 0.756592 0.706421
0.747864 0.784576 0.735962
0.842407 0.801636 0.761414
0.909821 0.812012 0.778961
0.410706 0.797821 0.703949
0.619781 0.839935 0.730042
0.757599 0.869965 0.770752
0.850464 0.887421 0.798462
0.918579 0.897766 0.815613
