examples/lut/ColorTransform.CUBE
#Created by: Adobe Photoshop Export Color Lookup Plugin
TITLE "CustomPreset.jpg"
#LUT size
LUT_3D_SIZE 32
#data domain
DOMAIN_MIN 0.0 0.0 0.0
DOMAIN_MAX 1.0 1.0 1.0
#LUT data points
0.137787 0.193817 0.235046
0.146179 0.195923 0.238312
0.170776 0.201721 0.246979
0.204132 0.209045 0.257416
0.239899 0.216156 0.266754
0.273987 0.222198 0.273743
0.304169 0.226624 0.278137
0.331207 0.230255 0.281281
0.356506 0.233337 0.283234
0.380920 0.236145 0.283234
0.404144 0.238617 0.283234
0.426453 0.240875 0.283234
0.447632 0.242920 0.283234
0.467560 0.244751 0.283234
0.486481 0.246429 0.283234
0.504089 0.247986 0.283234
0.520599 0.249390 0.283234
0.535858 0.250671 0.283234
0.550171 0.251923 0.283234
0.563385 0.252991 0.283234
0.575897 0.254089 0.283234
0.587341 0.255035 0.283234
0.598236 0.255981 0.283234
0.608368 0.256775 0.283234
0.617859 0.257599 0.283234
0.627014 0.258392 0.283234
0.635529 0.259094 0.283234
0.643768 0.259796 0.283234
0.651825 0.260498 0.283234
0.659576 0.261169 0.283234
0.667206 0.261841 0.283234
0.674683 0.262482 0.283234
0.139130 0.203186 0.239990
0.147552 0.205139 0.242950
0.172394 0.210938 0.251465
0.206024 0.218109 0.261322
0.242096 0.224945 0.269928
0.276367 0.230591 0.276001
0.306824 0.234924 0.279999
0.334137 0.238403 0.282776
0.359619 0.241425 0.283234
0.384094 0.244080 0.283234
0.407593 0.246490 0.283234
0.430023 0.248718 0.283234
0.451233 0.250641 0.283234
0.471375 0.252472 0.283234
0.490234 0.254120 0.283234
0.507904 0.255646 0.283234
0.524567 0.257080 0.283234
0.539886 0.258362 0.283234
0.554077 0.259552 0.283234
0.567474 0.260681 0.283234
0.579834 0.261719 0.283234
0.591461 0.262726 0.283234
0.602386 0.263641 0.283234
0.612518 0.264496 0.283234
0.622009 0.265289 0.283234
0.631195 0.266113 0.283234
0.639709 0.266815 0.283234
0.648010 0.267517 0.283234
0.656067 0.268280 0.283234
0.663788 0.268951 0.283234
0.671509 0.269623 0.283234
0.678986 0.270264 0.283234
0.143738 0.231232 0.253662
0.152405 0.233185 0.256439
0.177826 0.238525 0.263489
0.212341 0.244995 0.271362
0.249329 0.250885 0.277466
0.284454 0.255768 0.281647
0.315582 0.259583 0.283234
0.343536 0.262695 0.283234
0.369568 0.265442 0.283234
0.394684 0.267944 0.283234
0.418640 0.270203 0.283234
0.441345 0.272247 0.283234
0.462982 0.274139 0.283234
0.483215 0.275818 0.283234
0.502411 0.277496 0.283234
0.520203 0.278961 0.283234
0.536804 0.280334 0.283234
0.552185 0.281647 0.283234
0.566620 0.282898 0.283234
0.580048 0.284058 0.283234
0.592468 0.285126 0.283234
0.604126 0.286163 0.283234
0.614929 0.287079 0.283234
0.625092 0.287994 0.283234
0.634796 0.288879 0.283234
0.643860 0.289673 0.283234
0.652588 0.290497 0.283234
0.660919 0.291260 0.283234
0.668854 0.291992 0.283234
0.676636 0.292725 0.283234
0.684357 0.293457 0.283234
0.692017 0.294220 0.283234
0.151794 0.269562 0.269287
0.160828 0.271301 0.271301
0.187195 0.275757 0.275940
0.222839 0.280914 0.280579
0.261047 0.285797 0.283234
0.297394 0.290009 0.283234
0.329498 0.293335 0.283234
0.358215 0.296173 0.283234
0.384918 0.298645 0.283234
0.410614 0.300934 0.283234
0.434906 0.303009 0.283234
0.458191 0.305023 0.283234
0.480103 0.306854 0.283234
0.500580 0.308563 0.283234
0.519897 0.310211 0.283234
0.537720 0.311768 0.283234
0.554382 0.313232 0.283234
0.569763 0.314606 0.283234
0.584229 0.315948 0.283234
0.597534 0.317139 0.283234
0.610107 0.318359 0.283234
0.621674 0.319458 0.283234
0.632660 0.320526 0.283234
0.642822 0.321533 0.283234
0.652435 0.322510 0.283234
0.661652 0.323486 0.283234
0.670258 0.324341 0.283234
0.678619 0.325226 0.283234
0.686737 0.326111 0.283234
0.694550 0.326996 0.283234
0.702271 0.327850 0.283234
0.709839 0.328644 0.283234
0.162811 0.309357 0.280060
0.172058 0.310608 0.281097
0.199371 0.314209 0.283234
0.236481 0.318665 0.283234
0.276001 0.322906 0.283234
0.313293 0.326569 0.283234
0.346375 0.329681 0.283234
0.375763 0.332275 0.283234
0.403046 0.334625 0.283234
0.429047 0.336853 0.283234
0.453888 0.338989 0.283234
0.477295 0.341003 0.283234
0.499359 0.342926 0.283234
0.520050 0.344788 0.283234
0.539185 0.346558 0.283234
0.556946 0.348267 0.283234
0.573700 0.349945 0.283234
0.589020 0.351471 0.283234
0.603333 0.352966 0.283234
0.616760 0.354401 0.283234
0.629150 0.355774 0.283234
0.640808 0.357086 0.283234
0.651764 0.358398 0.283234
0.661957 0.359589 0.283203
0.671509 0.360748 0.283173
0.680695 0.361908 0.283142
0.689331 0.362946 0.283142
0.697632 0.364014 0.283173
0.705750 0.365082 0.283234
0.713562 0.366089 0.283264
0.721161 0.367065 0.283295
0.728943 0.368103 0.283295
0.175446 0.345825 0.283234
0.184967 0.346893 0.283234
0.213165 0.350037 0.283234
0.251282 0.353943 0.283234
0.291931 0.357880 0.283234
0.330017 0.361328 0.283234
0.363708 0.364319 0.283234
0.393555 0.366913 0.283234
0.421234 0.369354 0.283234
0.447510 0.371674 0.283234
0.472565 0.373962 0.283234
0.496002 0.376160 0.283234
0.518036 0.378326 0.283234
0.538544 0.380402 0.283234
0.557556 0.382446 0.283234
0.575226 0.384399 0.283234
0.591675 0.386292 0.283234
0.607056 0.388184 0.283203
0.621246 0.389954 0.283142
0.634552 0.391663 0.283173
0.646881 0.393280 0.283203
0.658478 0.394867 0.283264
0.669312 0.396332 0.283295
0.679688 0.397827 0.283295
0.689392 0.399139 0.283264
0.698608 0.400452 0.283234
0.707520 0.401733 0.283234
0.716034 0.402985 0.283234
0.724274 0.404144 0.283234
0.732330 0.405304 0.283234
0.740387 0.406464 0.283234
0.748444 0.407654 0.283234
0.188049 0.377472 0.283234
0.197998 0.378540 0.283234
0.226837 0.381409 0.283234
0.265686 0.385071 0.283234
0.306946 0.388794 0.283234
0.345734 0.392303 0.283234
0.379669 0.395325 0.283234
0.409790 0.398102 0.283234
0.437622 0.400726 0.283234
0.464172 0.403351 0.283234
0.489014 0.405823 0.283234
0.512543 0.408386 0.283234
0.534363 0.410828 0.283234
0.554535 0.413208 0.283234
0.573456 0.415619 0.283142
0.590942 0.417938 0.283173
0.607239 0.420166 0.283264
0.622467 0.422272 0.283295
0.636841 0.424377 0.283264
0.650208 0.426300 0.283234
0.662903 0.428223 0.283234
0.674622 0.429901 0.283234
0.685883 0.431641 0.283234
0.696350 0.433197 0.283234
0.706268 0.434662 0.283234
0.715881 0.436188 0.283234
0.724854 0.437500 0.283234
0.733612 0.438873 0.283234
0.742218 0.440216 0.283234
0.750488 0.441467 0.283234
0.758759 0.442780 0.283234
0.766876 0.443970 0.283234
0.200470 0.405579 0.283234
0.210449 0.406494 0.283234
0.239777 0.409271 0.283234
0.279205 0.412842 0.283234
0.320984 0.416718 0.283234
0.359985 0.420319 0.283234
0.394165 0.423553 0.283234
0.424500 0.426605 0.283234
0.452362 0.429535 0.283234
0.478729 0.432434 0.283234
0.503632 0.435303 0.283234
0.526733 0.438141 0.283142
0.548279 0.440979 0.283173
0.568390 0.443817 0.283295
0.587158 0.446503 0.283264
0.604797 0.449097 0.283234
0.621399 0.451538 0.283234
0.636871 0.453888 0.283234
0.651520 0.456207 0.283234
0.665283 0.458374 0.283234
0.678040 0.460358 0.283234
0.690125 0.462311 0.283234
0.701447 0.464050 0.283234
0.712250 0.465820 0.283234
0.722351 0.467407 0.283234
0.731964 0.468933 0.283234
0.741272 0.470398 0.283234
0.750244 0.471832 0.283234
0.758820 0.473175 0.283234
0.767273 0.474457 0.283234
0.775726 0.475800 0.283234
0.784149 0.477173 0.283234
0.212524 0.431549 0.283234
0.222626 0.432465 0.283234
0.252289 0.435242 0.283234
0.292236 0.438965 0.283234
0.334198 0.442993 0.283234
0.373352 0.446869 0.283234
0.407745 0.450470 0.283234
0.437958 0.453827 0.283234
0.465759 0.457123 0.283234
0.491943 0.460388 0.283142
0.516571 0.463654 0.283264
0.539520 0.466888 0.283295
0.561218 0.470062 0.283234
0.581604 0.473175 0.283234
0.600647 0.476074 0.283234
0.618500 0.478851 0.283234
0.635468 0.481628 0.283234
0.651184 0.484131 0.283234
0.665833 0.486481 0.283234
0.679749 0.488739 0.283234
0.692719 0.490875 0.283234
0.704926 0.492889 0.283234
0.716370 0.494690 0.283234
0.727356 0.496552 0.283234
0.737640 0.498199 0.283234
0.747375 0.499756 0.283234
0.756836 0.501312 0.283234
0.765900 0.502777 0.283234
0.774597 0.504120 0.283234
0.783356 0.505585 0.283234
0.791809 0.506866 0.283234
0.800385 0.508209 0.283234
0.224518 0.456482 0.283234
0.234711 0.457428 0.283234
0.264587 0.460266 0.283234
0.304779 0.464203 0.283234
0.346893 0.468536 0.283234
0.386108 0.472778 0.283234
0.420441 0.476807 0.283234
0.450562 0.480591 0.283142
0.478180 0.484283 0.283264
0.504333 0.487915 0.283295
0.529175 0.491547 0.283234
0.552368 0.495056 0.283234
0.574310 0.498474 0.283234
0.594879 0.501801 0.283234
0.614105 0.504883 0.283234
0.632141 0.507843 0.283234
0.649109 0.510620 0.283234
0.665100 0.513306 0.283234
0.679901 0.515778 0.283234
0.693939 0.518097 0.283234
0.707031 0.520264 0.283234
0.719391 0.522339 0.283234
0.730927 0.524200 0.283234
0.742035 0.526093 0.283234
0.752380 0.527740 0.283234
0.762268 0.529327 0.283234
0.771820 0.530884 0.283234
0.781006 0.532349 0.283234
0.789856 0.533722 0.283234
0.798553 0.535065 0.283234
0.807251 0.536438 0.283234
0.816040 0.537781 0.283234
0.236053 0.480347 0.283234
0.246429 0.481384 0.283234
0.276489 0.484406 0.283234
0.316650 0.488586 0.283234
0.358795 0.493286 0.283234
0.398071 0.498077 0.283173
0.432098 0.502533 0.283203
0.462250 0.506744 0.283295
0.490143 0.510773 0.283234
0.516785 0.514801 0.283234
0.541779 0.518677 0.283234
0.565186 0.522369 0.283234
0.587219 0.525970 0.283234
0.607788 0.529297 0.283234
0.627289 0.532593 0.283234
0.645416 0.535614 0.283234
0.662506 0.538452 0.283234
0.678436 0.541138 0.283234
0.693481 0.543732 0.283234
0.707642 0.546112 0.283234
0.720764 0.548279 0.283234
0.733063 0.550262 0.283234
0.744873 0.552246 0.283234
0.755890 0.554016 0.283234
0.766479 0.555817 0.283234
0.776459 0.557373 0.283234
0.786102 0.558899 0.283234
0.795380 0.560394 0.283234
0.804321 0.561768 0.283234
0.813141 0.563110 0.283234
0.821930 0.564453 0.283234
0.830811 0.565796 0.283234
0.247284 0.503296 0.283234
0.257568 0.504364 0.283234
0.287720 0.507568 0.283234
0.327850 0.512146 0.283234
0.369934 0.517303 0.283142
0.409027 0.522644 0.283264
0.443329 0.527466 0.283264
0.474060 0.532043 0.283234
0.502319 0.536316 0.283234
0.528931 0.540466 0.283234
0.554047 0.544525 0.283234
0.577515 0.548370 0.283234
0.599640 0.552063 0.283234
0.620453 0.555573 0.283234
0.639832 0.558838 0.283234
0.658020 0.561920 0.283234
0.675140 0.564819 0.283234
0.691162 0.567505 0.283234
0.706238 0.570129 0.283234
0.720428 0.572510 0.283234
0.733643 0.574707 0.283234
0.746155 0.576782 0.283234
0.757874 0.578705 0.283234
0.769104 0.580566 0.283234
0.779602 0.582214 0.283234
0.789581 0.583771 0.283234
0.799316 0.585327 0.283234
0.808655 0.586792 0.283234
0.817657 0.588104 0.283234
0.826538 0.589447 0.283234
0.835449 0.590759 0.283234
0.844360 0.592102 0.283234
0.257690 0.525116 0.283234
0.268127 0.526276 0.283234
0.298248 0.529785 0.283234
0.338318 0.534760 0.283142
0.380219 0.540466 0.283295
0.419739 0.546204 0.283234
0.454559 0.551361 0.283234
0.485413 0.556091 0.283234
0.513885 0.560577 0.283234
0.540710 0.564972 0.283234
0.565704 0.569031 0.283234
0.589386 0.573090 0.283234
0.611511 0.576874 0.283234
0.632172 0.580353 0.283234
0.651733 0.583771 0.283234
0.669952 0.586884 0.283234
0.687073 0.589813 0.283234
0.703064 0.592529 0.283234
0.718201 0.595093 0.283234
0.732239 0.597412 0.283234
0.745636 0.599701 0.283234
0.758026 0.601654 0.283234
0.769897 0.603607 0.283234
0.781006 0.605377 0.283234
0.791687 0.607117 0.283234
0.801727 0.608643 0.283234
0.811462 0.610199 0.283234
0.820892 0.611603 0.283234
0.829926 0.612915 0.283234
0.838837 0.614227 0.283234
0.847778 0.615540 0.283234
0.856659 0.616730 0.283234
0.267456 0.545837 0.283234
0.277863 0.547150 0.283234
0.307892 0.550934 0.283142
0.347870 0.556396 0.283295
0.390198 0.562561 0.283234
0.430298 0.568604 0.283234
0.465454 0.574036 0.283234
0.496674 0.579041 0.283234
0.524994 0.583588 0.283234
0.551819 0.588104 0.283234
0.576965 0.592407 0.283234
0.600433 0.596405 0.283234
0.622589 0.600220 0.283234
0.643188 0.603760 0.283234
0.662750 0.607178 0.283234
0.680908 0.610321 0.283234
0.698029 0.613251 0.283234
0.714020 0.615967 0.283234
0.729095 0.618530 0.283234
0.743317 0.620911 0.283234
0.756531 0.623077 0.283234
0.769073 0.625122 0.283234
0.780762 0.626984 0.283234
0.791870 0.628693 0.283234
0.802521 0.630402 0.283234
0.812592 0.631897 0.283234
0.822357 0.633423 0.283234
0.831757 0.634796 0.283234
0.840820 0.636108 0.283234
0.849792 0.637360 0.283234
0.858765 0.638641 0.283234
0.867798 0.639893 0.283234
0.276611 0.565826 0.283142
0.286865 0.567139 0.283142
0.316833 0.571289 0.283264
0.357147 0.577179 0.283234
0.400055 0.583649 0.283234
0.440552 0.590027 0.283234
0.475922 0.595642 0.283234
0.507233 0.600800 0.283234
0.535675 0.605591 0.283234
0.562286 0.610077 0.283234
0.587372 0.614410 0.283234
0.610779 0.618469 0.283234
0.632874 0.622345 0.283234
0.653595 0.626007 0.283234
0.672913 0.629364 0.283234
0.691071 0.632477 0.283234
0.708099 0.635376 0.283234
0.724030 0.638062 0.283234
0.739075 0.640625 0.283234
0.753204 0.642975 0.283234
0.766388 0.645111 0.283234
0.778870 0.647125 0.283234
0.790558 0.648926 0.283234
0.801788 0.650726 0.283234
0.812317 0.652283 0.283234
0.822357 0.653778 0.283234
0.832062 0.655212 0.283234
0.841461 0.656586 0.283234
0.850555 0.657806 0.283234
0.859497 0.659058 0.283234
0.868500 0.660278 0.283234
0.877533 0.661530 0.283234
0.284790 0.584686 0.283264
0.295197 0.586212 0.283295
0.325470 0.590637 0.283234
0.366302 0.596863 0.283234
0.409637 0.603638 0.283234
0.450378 0.610260 0.283234
0.485901 0.616058 0.283234
0.517059 0.621246 0.283234
0.545410 0.626068 0.283234
0.572052 0.630768 0.283234
0.596863 0.635040 0.283234
0.620392 0.639221 0.283234
0.642334 0.643097 0.283234
0.662811 0.646667 0.283234
0.682037 0.649994 0.283234
0.700226 0.653198 0.283234
0.717194 0.656097 0.283234
0.733093 0.658752 0.283234
0.747894 0.661194 0.283234
0.761932 0.663483 0.283234
0.775208 0.665680 0.283234
0.787506 0.667572 0.283234
0.799255 0.669434 0.283234
0.810272 0.671051 0.283234
0.820740 0.672607 0.283234
0.830902 0.674133 0.283234
0.840424 0.675476 0.283234
0.849792 0.676758 0.283234
0.858978 0.678040 0.283234
0.867889 0.679260 0.283234
0.876892 0.680450 0.283234
0.885773 0.681519 0.283234
0.292786 0.602814 0.283264
0.303162 0.604340 0.283234
0.333893 0.609131 0.283234
0.375122 0.615601 0.283234
0.418793 0.622650 0.283234
0.459564 0.629333 0.283234
0.495270 0.635376 0.283234
0.526337 0.640625 0.283234
0.554565 0.645538 0.283234
0.580933 0.650177 0.283234
0.605774 0.654602 0.283234
0.629120 0.658783 0.283234
0.650848 0.662567 0.283234
0.671326 0.666229 0.283234
0.690460 0.669556 0.283234
0.708405 0.672607 0.283234
0.725372 0.675568 0.283234
0.741119 0.678162 0.283234
0.755859 0.680573 0.283234
0.769836 0.682861 0.283234
0.782837 0.684875 0.283234
0.795197 0.686798 0.283234
0.806885 0.688629 0.283234
0.817810 0.690216 0.283234
0.828217 0.691711 0.283234
0.838287 0.693176 0.283234
0.847778 0.694489 0.283234
0.857086 0.695740 0.283234
0.866180 0.696991 0.283783
0.875153 0.698212 0.284607
0.884216 0.699432 0.285400
0.893219 0.700623 0.286255
0.300476 0.619965 0.283234
0.311005 0.621582 0.283234
0.341858 0.626465 0.283234
0.383545 0.633270 0.283234
0.427368 0.640533 0.283234
0.468292 0.647369 0.283234
0.503967 0.653503 0.283234
0.534882 0.658844 0.283234
0.562927 0.663818 0.283234
0.589142 0.668488 0.283234
0.613861 0.672913 0.283234
0.636932 0.677002 0.283234
0.658630 0.680847 0.283234
0.678986 0.684479 0.283234
0.697968 0.687775 0.283234
0.715729 0.690796 0.283234
0.732574 0.693695 0.283234
0.748199 0.696289 0.283234
0.762817 0.698639 0.283234
0.776703 0.700836 0.283234
0.789581 0.702850 0.283234
0.801849 0.704742 0.283234
0.813293 0.706390 0.283234
0.824280 0.708038 0.283234
0.834564 0.709473 0.283630
0.844666 0.710968 0.284607
0.854218 0.712341 0.285461
0.863586 0.713715 0.286438
0.872803 0.715057 0.287476
0.881775 0.716339 0.288483
0.890686 0.717529 0.289429
0.899750 0.718811 0.290527
0.307892 0.636200 0.283234
0.318451 0.637848 0.283234
0.349701 0.643005 0.283234
0.391418 0.649933 0.283234
0.435425 0.657379 0.283234
0.476379 0.664368 0.283234
0.511932 0.670563 0.283234
0.542664 0.675964 0.283234
0.570557 0.680939 0.283234
0.596588 0.685608 0.283234
0.621155 0.690033 0.283234
0.644165 0.694244 0.283234
0.665558 0.697968 0.283234
0.685730 0.701569 0.283234
0.704590 0.704803 0.283234
0.722198 0.707825 0.283234
0.738922 0.710663 0.283234
0.754395 0.713196 0.283234
0.768860 0.715454 0.283234
0.782593 0.717621 0.283234
0.795380 0.719574 0.283234
0.807465 0.721375 0.283600
0.819061 0.723175 0.284698
0.829956 0.724884 0.285828
0.840363 0.726440 0.286957
0.850403 0.728027 0.288147
0.859924 0.729401 0.289276
0.869232 0.730804 0.290436
0.878357 0.732178 0.291626
0.887268 0.733459 0.292786
0.896301 0.734741 0.293976
0.905243 0.735931 0.295105
0.314972 0.651581 0.283234
0.325623 0.653290 0.283234
0.356903 0.658539 0.283234
0.398926 0.665710 0.283234
0.443024 0.673279 0.283234
0.483887 0.680389 0.283234
0.519318 0.686646 0.283234
0.549866 0.692108 0.283234
0.577545 0.697113 0.283234
0.603394 0.701782 0.283234
0.627747 0.706207 0.283234
0.650452 0.710266 0.283234
0.671814 0.714050 0.283234
0.691803 0.717590 0.283234
0.710449 0.720795 0.283234
0.727936 0.723724 0.283234
0.744446 0.726562 0.283234
0.759796 0.729004 0.283234
0.774109 0.731262 0.283234
0.787689 0.733368 0.283966
0.800537 0.735443 0.285309
0.812683 0.737396 0.286652
0.824249 0.739319 0.288055
0.835083 0.740997 0.289429
0.845367 0.742615 0.290771
0.855347 0.744202 0.292145
0.864777 0.745605 0.293427
0.874054 0.746979 0.294739
0.883087 0.748383 0.296112
0.891998 0.749695 0.297394
0.900879 0.750885 0.298645
0.909912 0.752167 0.299988
0.321594 0.666016 0.283234
0.332428 0.667908 0.283234
0.363800 0.673248 0.283234
0.405792 0.680511 0.283234
0.449921 0.688202 0.283234
0.490906 0.695465 0.283234
0.525970 0.701691 0.283234
0.556427 0.707275 0.283234
0.583740 0.712189 0.283234
0.609558 0.716949 0.283234
0.633698 0.721344 0.283234
0.656219 0.725372 0.283234
0.677368 0.729126 0.283234
0.697083 0.732544 0.283234
0.715637 0.735779 0.283234
0.732971 0.738678 0.283234
0.749207 0.741302 0.283234
0.764343 0.743744 0.283783
0.778809 0.746185 0.285339
0.792450 0.748505 0.286957
0.805176 0.750610 0.288544
0.817230 0.752655 0.290161
0.828583 0.754456 0.291687
0.839294 0.756165 0.293243
0.849640 0.757874 0.294830
0.859467 0.759369 0.296295
0.868927 0.760895 0.297791
0.878143 0.762299 0.299255
0.887085 0.763611 0.300659
0.895966 0.764923 0.302063
0.904877 0.766235 0.303497
0.913879 0.767548 0.304993
0.327972 0.679779 0.283234
0.338715 0.681610 0.283234
0.370331 0.687164 0.283234
0.412384 0.694550 0.283234
0.456482 0.702332 0.283234
0.497131 0.709564 0.283234
0.532135 0.715942 0.283234
0.562256 0.721436 0.283234
0.589508 0.726440 0.283234
0.614960 0.731079 0.283234
0.638885 0.735474 0.283234
0.661346 0.739532 0.283234
0.682281 0.743256 0.283234
0.701782 0.746643 0.283234
0.720062 0.749725 0.283234
0.737274 0.752686 0.283234
0.753448 0.755341 0.284760
0.768707 0.757996 0.286530
0.782959 0.760437 0.288330
0.796478 0.762756 0.290161
0.809082 0.764893 0.291992
0.821014 0.766968 0.293793
0.832336 0.768860 0.295624
0.843018 0.770599 0.297302
0.853180 0.772217 0.298950
0.863007 0.773865 0.300659
0.872375 0.775299 0.302155
0.881561 0.776733 0.303711
0.890533 0.778137 0.305328
0.899384 0.779449 0.306824
0.908264 0.780731 0.308380
0.917145 0.781952 0.309814
0.333954 0.692780 0.283234
0.344727 0.694641 0.283234
0.376373 0.700287 0.283234
0.418427 0.707794 0.283234
0.462463 0.715668 0.283234
0.502991 0.722961 0.283234
0.537750 0.729370 0.283234
0.567596 0.734863 0.283234
0.594635 0.739868 0.283234
0.619904 0.744476 0.283234
0.643616 0.748840 0.283234
0.665833 0.752899 0.283234
0.686584 0.756531 0.283234
0.705902 0.759857 0.283234
0.724030 0.762909 0.283600
0.741211 0.765991 0.285461
0.757355 0.768860 0.287476
0.772461 0.771515 0.289520
0.786591 0.773987 0.291534
0.799957 0.776367 0.293610
0.812469 0.778534 0.295624
0.824341 0.780579 0.297607
0.835602 0.782532 0.299591
0.846191 0.784271 0.301392
0.856293 0.785889 0.303162
0.866089 0.787567 0.304993
0.875397 0.789001 0.306610
0.884521 0.790436 0.308258
0.893494 0.791840 0.309937
0.902283 0.793182 0.311523
0.911133 0.794495 0.313171
0.920074 0.795715 0.314667
0.339661 0.705078 0.283234
0.350433 0.707001 0.283234
0.381958 0.712677 0.283234
0.423981 0.720245 0.283234
0.468109 0.728333 0.283234
0.508423 0.735657 0.283234
0.542786 0.741974 0.283234
0.572540 0.747559 0.283234
0.599365 0.752563 0.283234
0.624390 0.757141 0.283234
0.647888 0.761475 0.283234
0.669800 0.765350 0.283234
0.690338 0.768951 0.283234
0.709534 0.772339 0.283844
0.727692 0.775574 0.285889
0.744690 0.778717 0.288055
0.760712 0.781616 0.290344
0.775757 0.784393 0.292694
0.789764 0.786926 0.294922
0.803040 0.789307 0.297180
0.815460 0.791504 0.299347
0.827240 0.793549 0.301514
0.838348 0.795441 0.303497
0.848938 0.797302 0.305542
0.858978 0.798950 0.307434
0.868683 0.800507 0.309235
0.878021 0.802063 0.311005
0.887115 0.803528 0.312775
0.895996 0.804840 0.314423
0.904755 0.806152 0.316071
0.913635 0.807495 0.317749
0.922607 0.808838 0.319458
0.344849 0.716736 0.283234
0.355652 0.718689 0.283234
0.387177 0.724457 0.283234
0.429352 0.732178 0.283234
0.473206 0.740234 0.283234
0.513306 0.747620 0.283234
0.547546 0.754028 0.283234
0.576935 0.759491 0.283234
0.603516 0.764496 0.283234
0.628357 0.769073 0.283234
0.651611 0.773315 0.283234
0.673401 0.777283 0.283234
0.693665 0.780731 0.283783
0.712952 0.784332 0.286041
0.730927 0.787720 0.288391
0.747803 0.790863 0.290863
0.763733 0.793915 0.293427
0.778564 0.796631 0.295898
0.792419 0.799194 0.298309
0.805634 0.801575 0.300751
0.817963 0.803802 0.303040
0.829681 0.805908 0.305328
0.840790 0.807861 0.307556
0.851257 0.809631 0.309570
0.861298 0.811310 0.311523
0.871002 0.813019 0.313538
0.880280 0.814453 0.315308
0.889282 0.815918 0.317108
0.898224 0.817383 0.318939
0.907013 0.818726 0.320618
0.915802 0.820068 0.322357
0.924744 0.821289 0.324005
0.349945 0.727966 0.283234
0.360718 0.729950 0.283234
0.392242 0.735779 0.283234
0.434204 0.743500 0.283234
0.477875 0.751617 0.283234
0.517914 0.759094 0.283234
0.551758 0.765381 0.283234
0.581024 0.770996 0.283234
0.607422 0.775940 0.283234
0.631989 0.780487 0.283234
0.655029 0.784698 0.283234
0.676544 0.788513 0.283600
0.696899 0.792328 0.285889
0.716003 0.796021 0.288483
0.733856 0.799438 0.291107
0.750549 0.802643 0.293793
0.766296 0.805603 0.296509
0.781006 0.808380 0.299164
0.794861 0.811005 0.301819
0.807983 0.813477 0.304413
0.820221 0.815735 0.306824
0.831848 0.817810 0.309235
0.842896 0.819702 0.311401
0.853394 0.821625 0.313660
0.863342 0.823303 0.315674
0.872955 0.824890 0.317627
0.882263 0.826477 0.319550
0.891296 0.827911 0.321442
0.900146 0.829254 0.323151
0.908905 0.830658 0.324951
0.917725 0.832001 0.326721
0.926697 0.833344 0.328491
0.354523 0.738617 0.283234
0.365479 0.740692 0.283234
0.396973 0.746582 0.283234
0.438843 0.754364 0.283234
0.482330 0.762512 0.283234
0.522125 0.770050 0.283234
0.555695 0.776367 0.283234
0.584625 0.781799 0.283234
0.610779 0.786743 0.283234
0.635254 0.791351 0.283234
0.658081 0.795532 0.283234
0.679535 0.799530 0.285461
0.699768 0.803497 0.288147
0.718628 0.807129 0.290955
0.736420 0.810669 0.293884
0.752991 0.813904 0.296783
0.768585 0.816895 0.299683
0.783203 0.819672 0.302490
0.797028 0.822388 0.305328
0.809998 0.824860 0.308014
0.822205 0.827118 0.310547
0.833740 0.829163 0.312897
0.844757 0.831207 0.315308
0.855164 0.833038 0.317474
0.865204 0.834808 0.319702
0.874695 0.836395 0.321716
0.883972 0.837982 0.323730
0.893036 0.839447 0.325623
0.901855 0.840820 0.327393
0.910645 0.842194 0.329193
0.919464 0.843567 0.330994
0.928406 0.844910 0.332825
0.359100 0.749023 0.283234
0.369843 0.751007 0.283234
0.401306 0.756958 0.283234
0.443237 0.764923 0.283234
0.486572 0.773132 0.283234
0.525970 0.780548 0.283234
0.559418 0.786987 0.283234
0.588074 0.792389 0.283234
0.614014 0.797302 0.283234
0.638123 0.801788 0.283234
0.660858 0.806030 0.284851
0.682251 0.810211 0.287567
0.702332 0.814240 0.290527
0.721100 0.818024 0.293610
0.738647 0.821533 0.296692
0.755096 0.824799 0.299774
0.770691 0.827942 0.302917
0.785187 0.830750 0.305878
