examples/lut/ColorTransform.CUBE
#Created by: Adobe Photoshop Export Color Lookup Plugin
TITLE "CustomPreset.jpg"
#LUT size
LUT_3D_SIZE 8
#data domain
#LUT data points
DOMAIN_MIN 0.000000 0.000000 0.000000
DOMAIN_MAX 0.903226 0.903226 0.903226
0.137787 0.193817 0.235046
0.239899 0.216156 0.266754
0.356506 0.233337 0.283234
0.447632 0.242920 0.283234
0.520599 0.249390 0.283234
0.575897 0.254089 0.283234
0.617859 0.257599 0.283234
0.651825 0.260498 0.283234
0.162811 0.309357 0.280060
0.276001 0.322906 0.283234
0.403046 0.334625 0.283234
0.499359 0.342926 0.283234
0.573700 0.349945 0.283234
0.629150 0.355774 0.283234
0.671509 0.360748 0.283173
0.705750 0.365082 0.283234
0.212524 0.431549 0.283234
0.334198 0.442993 0.283234
0.465759 0.457123 0.283234
0.561218 0.470062 0.283234
0.635468 0.481628 0.283234
0.692719 0.490875 0.283234
0.737640 0.498199 0.283234
0.774597 0.504120 0.283234
0.257690 0.525116 0.283234
0.380219 0.540466 0.283295
0.513885 0.560577 0.283234
0.611511 0.576874 0.283234
0.687073 0.589813 0.283234
0.745636 0.599701 0.283234
0.791687 0.607117 0.283234
0.829926 0.612915 0.283234
0.292786 0.602814 0.283264
0.418793 0.622650 0.283234
0.554565 0.645538 0.283234
0.650848 0.662567 0.283234
0.725372 0.675568 0.283234
0.782837 0.684875 0.283234
0.828217 0.691711 0.283234
0.866180 0.696991 0.283783
0.321594 0.666016 0.283234
0.449921 0.688202 0.283234
0.583740 0.712189 0.283234
0.677368 0.729126 0.283234
0.749207 0.741302 0.283234
0.805176 0.750610 0.288544
0.849640 0.757874 0.294830
0.887085 0.763611 0.300659
0.344849 0.716736 0.283234
0.473206 0.740234 0.283234
0.603516 0.764496 0.283234
0.693665 0.780731 0.283783
0.763733 0.793915 0.293427
0.817963 0.803802 0.303040
0.861298 0.811310 0.311523
0.898224 0.817383 0.318939
0.363312 0.759003 0.283234
0.490448 0.783295 0.283234
0.616852 0.807434 0.283234
0.704712 0.824860 0.293030
0.772522 0.838654 0.306122
0.825592 0.849060 0.317871
0.868225 0.856934 0.327545
0.904785 0.863068 0.335510
0.141052 0.201202 0.324005
0.245148 0.222107 0.352112
0.363861 0.237488 0.361908
0.456238 0.246368 0.361908
0.529724 0.252655 0.361908
0.585266 0.257355 0.361908
0.627533 0.260956 0.361908
0.661499 0.263947 0.361908
0.169128 0.313873 0.361908
0.284119 0.326538 0.361908
0.412445 0.337982 0.361908
0.509247 0.346558 0.361908
0.583160 0.353973 0.361908
0.638611 0.360352 0.361847
0.680817 0.365784 0.361938
0.715210 0.370422 0.361969
0.221405 0.434967 0.361908
0.343628 0.446808 0.361908
0.475037 0.462097 0.361877
0.571014 0.476074 0.361908
0.645660 0.488037 0.361908
0.703461 0.497681 0.361908
0.748718 0.505157 0.361908
0.786072 0.511139 0.361908
0.266907 0.529449 0.361908
0.389648 0.546112 0.361908
0.524353 0.567139 0.361908
0.621796 0.583649 0.361908
0.697266 0.596680 0.361908
0.755768 0.606506 0.361908
0.801819 0.613831 0.361908
0.840088 0.619507 0.361908
0.302216 0.608673 0.361908
0.429108 0.629242 0.361908
0.564728 0.652588 0.361908
0.660278 0.669556 0.361908
0.734009 0.682129 0.361908
0.791016 0.691254 0.361908
0.835938 0.697815 0.363037
0.874054 0.703339 0.367126
0.331818 0.672729 0.361908
0.460327 0.695343 0.361908
0.592834 0.719238 0.361908
0.684967 0.735687 0.361908
0.756012 0.747803 0.365204
0.811279 0.757263 0.373169
0.855194 0.764526 0.380707
0.892426 0.770355 0.387512
0.354980 0.723907 0.361908
0.482788 0.747467 0.361908
0.611115 0.771301 0.361908
0.700043 0.787720 0.367157
0.768799 0.800842 0.379059
0.822418 0.810822 0.390198
0.865356 0.818298 0.399628
0.902008 0.824188 0.407501
0.373291 0.766571 0.361908
0.499237 0.790741 0.361908
0.623291 0.814331 0.364166
0.709595 0.832092 0.378601
0.776398 0.845886 0.393524
0.828888 0.856293 0.406372
0.871307 0.864014 0.416687
0.907776 0.870056 0.425018
0.145538 0.209442 0.431854
0.252014 0.228058 0.454468
0.373230 0.242004 0.458405
0.467102 0.250458 0.458405
0.541077 0.256592 0.458405
0.596771 0.261383 0.458405
0.639038 0.265137 0.458405
0.673248 0.268372 0.458405
0.177429 0.318909 0.458405
0.294403 0.330688 0.458405
0.423981 0.342102 0.458405
0.520813 0.351105 0.458405
0.594452 0.359283 0.458405
0.649475 0.366333 0.458466
0.692169 0.372314 0.458405
0.727356 0.377380 0.458405
0.232330 0.439148 0.458405
0.354980 0.451782 0.458405
0.486237 0.468689 0.458466
0.582916 0.483551 0.458405
0.658081 0.496033 0.458405
0.716248 0.505890 0.458405
0.761841 0.513489 0.458405
0.799561 0.519501 0.458405
0.277557 0.535065 0.458313
0.401245 0.553192 0.458405
0.536804 0.575134 0.458405
0.634064 0.591980 0.458405
0.709259 0.604950 0.458405
0.767548 0.614624 0.458405
0.813416 0.621765 0.458405
0.851624 0.627197 0.458405
0.313782 0.615997 0.458405
0.441742 0.637421 0.458405
0.576385 0.660889 0.458405
0.670776 0.677582 0.458405
0.743561 0.689850 0.458405
0.799652 0.698486 0.460052
0.844574 0.705475 0.465607
0.882385 0.711121 0.471069
0.343933 0.680908 0.458405
0.472321 0.703857 0.458405
0.602814 0.727417 0.458405
0.693176 0.743256 0.458740
0.763214 0.755768 0.468506
0.817627 0.765289 0.478577
0.860962 0.772522 0.487335
0.897888 0.778168 0.494843
0.367065 0.732666 0.458405
0.493805 0.756195 0.458405
0.619263 0.779236 0.458405
0.706573 0.796021 0.471069
0.774048 0.809265 0.485413
0.826843 0.819031 0.497864
0.869385 0.826416 0.508026
0.905975 0.832245 0.516510
0.384705 0.775513 0.458405
0.508850 0.799286 0.458405
0.630219 0.822968 0.467102
0.714600 0.840942 0.484955
0.780365 0.854675 0.501617
0.832306 0.864899 0.515320
0.874451 0.872375 0.525818
0.910980 0.878357 0.534363
0.149628 0.215485 0.516174
0.257996 0.232300 0.533905
0.381042 0.245331 0.534271
0.475677 0.253448 0.534271
0.550018 0.259705 0.534271
0.605621 0.264587 0.534271
0.648071 0.268585 0.534271
0.682343 0.272064 0.534271
0.184418 0.322510 0.534271
0.302704 0.333801 0.534271
0.433075 0.345398 0.534271
0.529785 0.354980 0.534271
0.602875 0.363739 0.534210
0.658234 0.371429 0.534271
0.701477 0.377747 0.534271
0.737000 0.382965 0.534271
0.240906 0.442566 0.534271
0.363678 0.455963 0.534271
0.495331 0.474152 0.534271
0.592529 0.489655 0.534271
0.667877 0.502472 0.534271
0.726257 0.512421 0.534271
0.772095 0.520020 0.534271
0.809998 0.526031 0.534271
0.285736 0.539917 0.534332
0.410706 0.559021 0.534271
0.546478 0.581512 0.534271
0.643372 0.598450 0.534271
0.718201 0.611298 0.534271
0.776001 0.620667 0.534271
0.821655 0.627594 0.534271
0.859894 0.632935 0.534271
0.323120 0.621979 0.534271
0.451477 0.643860 0.534271
0.585144 0.667358 0.534271
0.678436 0.683716 0.534271
0.750214 0.695557 0.534271
0.806061 0.704529 0.540527
0.850433 0.711517 0.547180
0.887939 0.717102 0.553406
0.353455 0.687469 0.534271
0.481354 0.710480 0.534271
0.609985 0.733612 0.534271
0.699158 0.749420 0.538818
0.768066 0.761993 0.550537
0.821777 0.771515 0.561584
0.864777 0.778656 0.570923
0.901489 0.784210 0.578735
0.376221 0.739471 0.534271
0.501770 0.762787 0.534271
0.625153 0.785522 0.537994
0.710938 0.802521 0.553406
0.777496 0.815735 0.568909
0.829803 0.825409 0.581818
0.872131 0.832611 0.592163
0.908600 0.838257 0.600464
0.393219 0.782532 0.534271
0.515625 0.805817 0.534271
0.634827 0.829773 0.548950
0.717896 0.847748 0.568390
0.782959 0.861359 0.585663
0.834595 0.871338 0.599304
0.876740 0.878784 0.609833
0.913330 0.884583 0.618256
0.153229 0.219940 0.581573
0.263062 0.235413 0.593933
0.387451 0.247833 0.593933
0.482849 0.255890 0.593933
0.557129 0.262207 0.593933
0.612885 0.267365 0.593933
0.655365 0.271545 0.593933
0.689453 0.275177 0.593933
0.190216 0.325226 0.593933
0.309418 0.336304 0.593933
0.440247 0.348114 0.593933
0.536774 0.358246 0.593933
0.609711 0.367737 0.594025
0.665436 0.375671 0.593933
0.709076 0.382263 0.593933
0.745148 0.387756 0.593933
0.247681 0.445374 0.593933
0.370453 0.459564 0.593872
0.502747 0.478699 0.593933
0.600098 0.494598 0.593933
0.675781 0.507690 0.593933
0.734100 0.517609 0.593933
0.780060 0.525177 0.593933
0.818298 0.531219 0.593933
0.292358 0.543976 0.593964
0.418304 0.563812 0.593933
0.554077 0.586578 0.593933
0.650543 0.603516 0.593933
0.724976 0.616211 0.593933
0.782593 0.625488 0.593933
0.827972 0.632202 0.593933
0.865814 0.637268 0.594360
0.330597 0.626831 0.593933
0.459106 0.649017 0.593933
0.591797 0.672394 0.593933
0.684204 0.688538 0.593933
0.755219 0.700134 0.596680
0.810608 0.709259 0.604553
0.854584 0.716217 0.611969
0.891846 0.721802 0.618713
0.361053 0.692780 0.593933
0.488251 0.715668 0.593933
0.615356 0.738495 0.593933
0.703430 0.754333 0.602600
0.771484 0.766937 0.615631
0.824677 0.776398 0.627472
0.867432 0.783447 0.637238
0.904022 0.788971 0.645325
0.383270 0.744873 0.593933
0.507690 0.767914 0.593933
0.629425 0.790649 0.601624
0.714050 0.807770 0.618866
0.779877 0.820770 0.635162
0.831909 0.830353 0.648560
0.874115 0.837494 0.659119
0.910645 0.843079 0.667725
0.399689 0.787964 0.593933
0.520477 0.810760 0.594086
0.638062 0.835205 0.613922
0.720215 0.853088 0.634613
0.784790 0.866608 0.652466
0.836304 0.876495 0.666534
0.878448 0.883789 0.677155
0.915100 0.889374 0.685425
0.156311 0.223145 0.630951
0.267242 0.237732 0.639740
0.392548 0.249756 0.639740
0.488373 0.257782 0.639740
0.562653 0.264221 0.639740
0.618256 0.269470 0.639740
0.660675 0.273865 0.639740
0.694946 0.277710 0.639740
0.194824 0.327271 0.639740
0.314667 0.338196 0.639740
0.445831 0.350342 0.639740
0.542084 0.360931 0.639679
0.615051 0.370850 0.639771
0.671143 0.379120 0.639740
0.715088 0.385834 0.639740
0.751251 0.391357 0.639740
0.252960 0.447632 0.639740
0.375610 0.462463 0.639709
0.508575 0.482269 0.639740
0.606049 0.498505 0.639740
0.681610 0.511597 0.639740
0.740143 0.521606 0.639740
0.786163 0.529144 0.639740
0.824310 0.535034 0.639740
0.297668 0.547241 0.639740
0.424225 0.567535 0.639740
0.559906 0.590515 0.639740
0.655945 0.607452 0.639740
0.730042 0.619995 0.639740
0.787354 0.629089 0.639740
0.832306 0.635529 0.639740
0.870483 0.640808 0.642670
0.336395 0.630646 0.639740
0.464935 0.653015 0.639740
0.596710 0.676270 0.639740
0.688171 0.691986 0.639740
0.758911 0.703827 0.645447
0.813782 0.712952 0.654266
0.857483 0.719879 0.662354
0.894623 0.725433 0.669556
0.366608 0.696747 0.639740
0.493378 0.719666 0.639740
0.618988 0.741974 0.639740
0.706421 0.758179 0.652100
0.773865 0.770721 0.666260
0.826752 0.780121 0.678802
0.869263 0.787109 0.689026
0.905823 0.792572 0.697418
0.388580 0.749054 0.639740
0.511993 0.771820 0.639740
0.632385 0.794647 0.651031
0.716095 0.811676 0.669556
0.781586 0.824677 0.686859
0.833405 0.834137 0.700745
0.875519 0.841187 0.711639
0.912079 0.846680 0.720459
0.404449 0.792175 0.639740
0.524109 0.814758 0.642303
0.640350 0.839417 0.664398
0.721802 0.857269 0.686279
0.786102 0.870575 0.704834
0.837555 0.880402 0.719238
0.879730 0.887421 0.729919
0.916534 0.892944 0.738403
0.158722 0.225372 0.668579
0.270477 0.239410 0.675171
0.396515 0.251190 0.675171
0.492615 0.259216 0.675171
0.566864 0.265778 0.675171
0.622437 0.271210 0.675171
0.664825 0.275787 0.675171
0.699127 0.279755 0.675079
0.198456 0.328766 0.675171
0.318756 0.339691 0.675171
0.450073 0.352112 0.675171
0.546112 0.363098 0.675079
0.619049 0.373230 0.675171
0.675568 0.381805 0.675171
0.719757 0.388641 0.675171
0.756104 0.394226 0.675171
0.257019 0.449402 0.675171
0.379547 0.464813 0.675232
0.513123 0.485107 0.675171
0.610565 0.501526 0.675171
0.686157 0.514648 0.675171
0.744690 0.524658 0.675171
0.790741 0.532135 0.675171
0.828949 0.537964 0.675171
0.301788 0.549835 0.675171
0.428802 0.570435 0.675171
0.564301 0.593567 0.675171
0.660004 0.610413 0.675171
0.733734 0.622803 0.675171
0.790649 0.631653 0.675171
0.835571 0.638031 0.676117
0.873810 0.643555 0.680359
0.340881 0.633606 0.675171
0.469330 0.656067 0.675171
0.600372 0.679199 0.675171
0.691132 0.694672 0.675171
0.761505 0.706635 0.683441
0.816071 0.715729 0.693024
0.859528 0.722656 0.701691
0.896545 0.728180 0.709290
0.370941 0.699860 0.675171
0.497192 0.722687 0.675171
0.621735 0.744690 0.676392
0.708527 0.761078 0.690735
0.775543 0.773621 0.705811
0.828186 0.782959 0.718964
0.870605 0.789917 0.729675
0.907135 0.795288 0.738373
0.392548 0.752167 0.675171
0.515076 0.774719 0.675171
0.634491 0.797699 0.689545
0.717621 0.814667 0.709290
0.782745 0.827606 0.727386
0.834442 0.837006 0.741821
0.876526 0.843994 0.753052
0.913147 0.849396 0.762085
0.407990 0.795319 0.675171
0.526794 0.817932 0.679932
0.641968 0.842590 0.703857
0.722931 0.860413 0.726776
0.787079 0.873627 0.746002
0.838440 0.883179 0.760712
0.880707 0.890228 0.771820
0.917694 0.895691 0.780457
0.160675 0.227081 0.698944
0.273163 0.240753 0.703949
0.399689 0.252319 0.703949
0.496002 0.260406 0.703949
0.570221 0.267090 0.703949
0.625854 0.272675 0.703949
0.668274 0.277374 0.703949
0.702362 0.281433 0.703857
0.201355 0.329956 0.703949
0.321991 0.340881 0.703949
0.453430 0.353516 0.703949
0.549255 0.364838 0.703918
0.622589 0.375336 0.703949
0.679138 0.383942 0.703949
0.723480 0.390900 0.703949
0.760162 0.396637 0.703949
0.260193 0.450867 0.703949
0.382721 0.466736 0.704041
0.516693 0.487366 0.703949
0.614166 0.503906 0.703949
0.689880 0.517151 0.703949
0.748291 0.527039 0.703949
0.794342 0.534515 0.703949
0.832733 0.540405 0.703949
0.305115 0.551910 0.703949
0.432434 0.572784 0.703949
0.567719 0.595947 0.703949
0.663147 0.612701 0.703949
0.736603 0.625000 0.703949
0.793396 0.633820 0.703949
0.838379 0.640320 0.706573
0.876343 0.645721 0.711182
0.344391 0.635986 0.703949
0.472748 0.658478 0.703949
0.603180 0.681458 0.703949
0.693451 0.696808 0.704437
0.763458 0.708862 0.714539
0.817749 0.717957 0.724823
0.861115 0.724884 0.733917
0.898041 0.730347 0.741913
0.374481 0.702454 0.703949
0.500183 0.725067 0.703949
0.624054 0.747101 0.706848
0.710144 0.763397 0.722321
0.776825 0.775879 0.738281
0.829254 0.785187 0.752045
0.871643 0.792084 0.763153
0.908112 0.797394 0.772186
0.395599 0.754700 0.703949
0.517456 0.776978 0.703949
0.636078 0.800110 0.721100
0.718781 0.817169 0.742065
0.783661 0.829926 0.760803
0.835266 0.839233 0.775757
0.877380 0.846100 0.787384
0.914001 0.851532 0.796692
0.410706 0.797821 0.703949
0.528778 0.820465 0.710724
0.643158 0.845123 0.736237
0.723816 0.862885 0.760162
0.787781 0.876007 0.780090
0.839203 0.885559 0.795441
0.881531 0.892487 0.806854
0.918579 0.897766 0.815613
