examples/luts/Bourbon 64.CUBE
#Created by: Adobe Photoshop Export Color Lookup Plugin
#Copyright: (C) Copyright 2017 RocketStock
TITLE "Warm"
#LUT size
LUT_3D_SIZE 32
#data domain
DOMAIN_MIN 0.0 0.0 0.0
DOMAIN_MAX 1.0 1.0 1.0
#LUT data points
0.038818 0.000000 0.065033
0.060364 0.000610 0.064850
0.082916 0.001251 0.064636
0.106476 0.001923 0.064484
0.131226 0.002625 0.064270
0.157196 0.003326 0.063995
0.184662 0.004120 0.063812
0.213654 0.004883 0.063538
0.244507 0.005676 0.063232
0.277344 0.006561 0.062897
0.312256 0.007416 0.062592
0.349243 0.008331 0.062256
0.388153 0.009247 0.061920
0.428619 0.010193 0.061554
0.470520 0.011200 0.061157
0.513611 0.012177 0.060791
0.557220 0.013214 0.060364
0.599731 0.014252 0.059998
0.640564 0.015320 0.059540
0.679230 0.016449 0.059082
0.715546 0.017548 0.058624
0.749054 0.018707 0.058197
0.779694 0.019867 0.057709
0.807495 0.021088 0.057220
0.832703 0.022247 0.056763
0.855652 0.023468 0.056274
0.876495 0.024780 0.055756
0.895508 0.026001 0.055237
0.912781 0.027313 0.054718
0.928528 0.028595 0.054230
0.942902 0.029938 0.053711
0.955872 0.031281 0.053162
0.040009 0.020721 0.064636
0.061707 0.021454 0.064484
0.084320 0.022125 0.064301
0.108063 0.022919 0.064026
0.132904 0.023682 0.063812
0.159088 0.024536 0.063538
0.186707 0.025330 0.063263
0.215942 0.026245 0.062927
0.246979 0.027161 0.062622
0.280060 0.028076 0.062256
0.315247 0.029022 0.061920
0.352417 0.030029 0.061554
0.391541 0.031036 0.061157
0.432251 0.032074 0.060791
0.474365 0.033142 0.060364
0.517517 0.034210 0.060028
0.561279 0.035339 0.059570
0.603729 0.036499 0.059082
0.644348 0.037628 0.058655
0.682953 0.038849 0.058228
0.719025 0.040070 0.057709
0.752319 0.041260 0.057251
0.782715 0.042511 0.056793
0.810272 0.043823 0.056274
0.835266 0.045105 0.055786
0.858002 0.046448 0.055267
0.878693 0.047791 0.054718
0.897522 0.049133 0.054230
0.914673 0.050507 0.053711
0.930237 0.051910 0.053162
0.944458 0.053314 0.052673
0.957306 0.054749 0.052094
0.041290 0.042450 0.064301
0.063141 0.043243 0.064026
0.085876 0.044037 0.063812
0.109711 0.044891 0.063538
0.134735 0.045776 0.063263
0.161072 0.046661 0.062927
0.188904 0.047638 0.062622
0.218323 0.048584 0.062286
0.249573 0.049591 0.061951
0.282867 0.050629 0.061554
0.318298 0.051666 0.061188
0.355774 0.052734 0.060822
0.395172 0.053833 0.060394
0.436035 0.054962 0.060028
0.478363 0.056152 0.059570
0.521759 0.057281 0.059113
0.565491 0.058502 0.058655
0.607849 0.059753 0.058228
0.648438 0.061005 0.057739
0.686737 0.062286 0.057251
0.722656 0.063629 0.056793
0.755707 0.064941 0.056305
0.785797 0.066284 0.055786
0.813141 0.067688 0.055267
0.837891 0.069061 0.054749
0.860413 0.070465 0.054260
0.880890 0.071899 0.053741
0.899506 0.073364 0.053162
0.916534 0.074860 0.052673
0.931976 0.076355 0.052124
0.945984 0.077820 0.051605
0.958710 0.079376 0.051056
0.042725 0.065186 0.063812
0.064636 0.066101 0.063538
0.087555 0.066986 0.063263
0.111511 0.067932 0.062958
0.136719 0.068878 0.062653
0.163208 0.069885 0.062317
0.191193 0.070923 0.061951
0.220825 0.072021 0.061584
0.252380 0.073120 0.061188
0.285950 0.074249 0.060822
0.321655 0.075378 0.060394
0.359314 0.076569 0.060028
0.398895 0.077759 0.059570
0.440002 0.078979 0.059143
0.482513 0.080261 0.058685
0.526031 0.081512 0.058258
0.569794 0.082855 0.057770
0.612122 0.084198 0.057281
0.652466 0.085541 0.056824
0.690674 0.086945 0.056305
0.726318 0.088379 0.055817
0.759094 0.089752 0.055298
0.788910 0.091248 0.054749
0.815979 0.092712 0.054260
0.840515 0.094177 0.053772
0.862823 0.095703 0.053192
0.883087 0.097229 0.052704
0.901581 0.098816 0.052124
0.918396 0.100403 0.051605
0.933716 0.101990 0.051086
0.947601 0.103607 0.050507
0.960175 0.105255 0.049957
0.044312 0.089050 0.063263
0.066284 0.090057 0.062958
0.089355 0.091064 0.062653
0.113495 0.092133 0.062317
0.138824 0.093201 0.061981
0.165497 0.094299 0.061584
0.193695 0.095459 0.061218
0.223541 0.096619 0.060852
0.255249 0.097839 0.060425
0.289154 0.099091 0.060059
0.325043 0.100311 0.059601
0.363037 0.101624 0.059143
0.402771 0.102905 0.058716
0.444183 0.104248 0.058258
0.486908 0.105652 0.057770
0.530548 0.106995 0.057312
0.574219 0.108459 0.056824
0.616425 0.109924 0.056305
0.656677 0.111359 0.055847
0.694702 0.112854 0.055328
0.730072 0.114380 0.054749
0.762543 0.115906 0.054291
0.792084 0.117493 0.053772
0.818878 0.119080 0.053223
0.843170 0.120667 0.052704
0.865265 0.122345 0.052124
0.885315 0.123962 0.051636
0.903625 0.125641 0.051086
0.920288 0.127350 0.050537
0.935425 0.129028 0.049988
0.949188 0.130798 0.049408
0.961609 0.132538 0.048920
0.045929 0.114288 0.062653
0.068085 0.115326 0.062347
0.091309 0.116455 0.061981
0.115540 0.117615 0.061615
0.141022 0.118805 0.061218
0.167908 0.120026 0.060852
0.196289 0.121307 0.060425
0.226349 0.122589 0.060059
0.258362 0.123932 0.059631
0.292450 0.125275 0.059174
0.328644 0.126648 0.058716
0.366882 0.128021 0.058258
0.406891 0.129456 0.057800
0.448486 0.130920 0.057312
0.491364 0.132416 0.056824
0.535217 0.133911 0.056335
0.578796 0.135468 0.055847
0.620911 0.137054 0.055328
0.660980 0.138611 0.054779
0.698700 0.140228 0.054321
0.733856 0.141876 0.053772
0.766022 0.143524 0.053223
0.795319 0.145233 0.052704
0.821808 0.146912 0.052155
0.845886 0.148682 0.051666
0.867737 0.150421 0.051117
0.887604 0.152191 0.050568
0.905701 0.153992 0.050018
0.922180 0.155853 0.049438
0.937134 0.157654 0.048920
0.950745 0.159485 0.048370
0.963043 0.161407 0.047821
0.047729 0.140839 0.061981
0.069977 0.142029 0.061615
0.093323 0.143250 0.061249
0.117737 0.144562 0.060883
0.143341 0.145874 0.060455
0.170441 0.147217 0.060089
0.199005 0.148621 0.059631
0.229340 0.150024 0.059174
0.261536 0.151459 0.058746
0.295898 0.152924 0.058289
0.332428 0.154419 0.057831
0.370880 0.156006 0.057343
0.411102 0.157532 0.056854
0.452911 0.159149 0.056366
0.496063 0.160736 0.055847
0.539978 0.162354 0.055359
0.583527 0.164062 0.054810
0.625458 0.165802 0.054321
0.665314 0.167450 0.053802
0.702850 0.169220 0.053253
0.737640 0.170990 0.052734
0.769531 0.172791 0.052185
0.798523 0.174652 0.051666
0.824738 0.176422 0.051147
0.848572 0.178345 0.050568
0.870209 0.180237 0.050018
0.889862 0.182129 0.049469
0.907806 0.184082 0.048920
0.924072 0.186035 0.048370
0.938904 0.187988 0.047852
0.952332 0.189972 0.047302
0.964447 0.191986 0.046753
0.049591 0.168976 0.061249
0.071991 0.170319 0.060883
0.095428 0.171692 0.060486
0.120026 0.173126 0.060089
0.145844 0.174591 0.059662
0.173065 0.176056 0.059204
0.201904 0.177582 0.058746
0.232391 0.179108 0.058289
0.264893 0.180695 0.057831
0.299561 0.182281 0.057373
0.336334 0.183960 0.056885
0.375092 0.185638 0.056366
0.415497 0.187317 0.055878
0.457581 0.189087 0.055389
0.500824 0.190857 0.054810
0.544861 0.192596 0.054352
0.588318 0.194458 0.053802
0.630127 0.196289 0.053253
0.669739 0.198120 0.052734
0.707062 0.200043 0.052185
0.741486 0.201935 0.051697
0.773102 0.203918 0.051147
0.801788 0.205872 0.050598
0.827698 0.207855 0.050049
0.851257 0.209930 0.049500
0.872711 0.211945 0.048950
0.892120 0.213959 0.048401
0.909882 0.216125 0.047882
0.925995 0.218201 0.047302
0.940643 0.220276 0.046753
0.953918 0.222443 0.046265
0.965881 0.224579 0.045715
0.051544 0.198914 0.060486
0.074066 0.200378 0.060120
0.097687 0.201904 0.059662
0.122437 0.203491 0.059204
0.148407 0.205109 0.058777
0.175842 0.206757 0.058319
0.204865 0.208374 0.057861
0.235626 0.210083 0.057373
0.268402 0.211823 0.056885
0.303314 0.213562 0.056396
0.340363 0.215393 0.055878
0.379364 0.217255 0.055389
0.420044 0.219055 0.054840
0.462311 0.220947 0.054382
0.505737 0.222900 0.053833
0.549805 0.224792 0.053284
0.593201 0.226837 0.052734
0.634796 0.228851 0.052216
0.674194 0.230835 0.051727
0.711212 0.232910 0.051147
0.745392 0.234955 0.050629
0.776703 0.237122 0.050049
0.805054 0.239258 0.049500
0.830688 0.241364 0.048981
0.854004 0.243591 0.048431
0.875183 0.245789 0.047882
0.894409 0.248016 0.047333
0.911926 0.250275 0.046783
0.927887 0.252563 0.046265
0.942352 0.254822 0.045715
0.955475 0.257141 0.045166
0.967285 0.259430 0.044647
0.053589 0.230835 0.059662
0.076324 0.232483 0.059235
0.100037 0.234192 0.058807
0.124939 0.235931 0.058319
0.151123 0.237671 0.057861
0.178741 0.239471 0.057404
0.207947 0.241302 0.056915
0.238983 0.243164 0.056427
0.272003 0.245087 0.055908
0.307190 0.246979 0.055389
0.344543 0.248962 0.054871
0.383820 0.251007 0.054382
0.424744 0.252991 0.053833
0.467163 0.255066 0.053314
0.510773 0.257172 0.052765
0.554932 0.259308 0.052246
0.598175 0.261475 0.051727
0.639496 0.263611 0.051147
0.678741 0.265839 0.050629
0.715454 0.268097 0.050079
0.749359 0.270325 0.049530
0.780273 0.272644 0.048981
0.808289 0.274963 0.048431
0.833649 0.277252 0.047913
0.856689 0.279663 0.047333
0.877686 0.282104 0.046783
0.896667 0.284454 0.046295
0.914001 0.286957 0.045715
0.929779 0.289307 0.045197
0.944092 0.291779 0.044647
0.957031 0.294342 0.044128
0.968689 0.296814 0.043640
0.055756 0.265015 0.058807
0.078583 0.266815 0.058319
0.102509 0.268707 0.057861
0.127533 0.270599 0.057434
0.153900 0.272491 0.056915
0.181732 0.274567 0.056427
0.211151 0.276550 0.055939
0.242462 0.278595 0.055420
0.275787 0.280731 0.054871
0.311279 0.282776 0.054382
0.348846 0.285004 0.053864
0.388367 0.287231 0.053314
0.429504 0.289398 0.052795
0.472137 0.291687 0.052246
0.515808 0.293945 0.051758
0.560089 0.296295 0.051178
0.603119 0.298615 0.050659
0.644287 0.300964 0.050110
0.683319 0.303375 0.049561
0.719696 0.305847 0.049011
0.753265 0.308228 0.048462
0.783875 0.310730 0.047913
0.811584 0.313293 0.047333
0.836639 0.315765 0.046814
0.859436 0.318298 0.046326
0.880127 0.320892 0.045746
0.898926 0.323456 0.045227
0.916077 0.326080 0.044647
0.931641 0.328674 0.044159
0.945801 0.331329 0.043640
0.958557 0.334015 0.043091
0.970062 0.336639 0.042603
0.058014 0.301666 0.057892
0.080963 0.303650 0.057434
0.105042 0.305725 0.056946
0.130219 0.307800 0.056458
0.156799 0.309967 0.055939
0.184845 0.312164 0.055420
0.214508 0.314331 0.054901
0.246002 0.316589 0.054413
0.279663 0.318909 0.053864
0.315430 0.321136 0.053345
0.353271 0.323578 0.052795
0.393005 0.325958 0.052277
0.434387 0.328308 0.051758
0.477203 0.330750 0.051178
0.521088 0.333221 0.050690
0.565247 0.335724 0.050110
0.608185 0.338318 0.049591
0.649109 0.340790 0.049042
0.687866 0.343414 0.048462
0.723969 0.346039 0.047913
0.757172 0.348602 0.047363
0.787415 0.351288 0.046844
0.814819 0.354004 0.046326
0.839569 0.356628 0.045776
0.862122 0.359375 0.045227
0.882568 0.362061 0.044678
0.901184 0.364807 0.044159
0.918121 0.367615 0.043671
0.933502 0.370331 0.043091
0.947479 0.373199 0.042633
0.960114 0.376007 0.042114
0.971466 0.378815 0.041595
0.060303 0.340729 0.056976
0.083435 0.342957 0.056488
0.107635 0.345215 0.055969
0.132996 0.347473 0.055450
0.159760 0.349792 0.054932
0.188049 0.352203 0.054413
0.217926 0.354523 0.053894
0.249725 0.356995 0.053375
0.283630 0.359467 0.052826
0.319641 0.361908 0.052307
0.357788 0.364441 0.051788
0.397736 0.367004 0.051208
0.439392 0.369598 0.050690
0.482422 0.372253 0.050110
0.526367 0.374817 0.049622
0.570557 0.377533 0.049072
0.613281 0.380249 0.048492
0.653992 0.382935 0.047943
0.692444 0.385681 0.047363
0.728241 0.388489 0.046875
0.761078 0.391235 0.046326
0.790985 0.394073 0.045776
0.818054 0.396942 0.045258
0.842529 0.399750 0.044678
0.864807 0.402588 0.044189
0.885010 0.405457 0.043701
0.903412 0.408356 0.043121
0.920166 0.411285 0.042633
0.935333 0.414154 0.042114
0.949158 0.417114 0.041626
0.961609 0.420135 0.041107
0.972809 0.422943 0.040649
0.062744 0.382050 0.056000
0.085999 0.384491 0.055481
0.110382 0.386932 0.054932
0.135925 0.389343 0.054443
0.162872 0.391876 0.053925
0.191315 0.394440 0.053375
0.221466 0.396973 0.052856
0.253540 0.399597 0.052338
0.287720 0.402222 0.051788
0.324036 0.404816 0.051239
0.362427 0.407562 0.050690
0.402649 0.410217 0.050140
0.444519 0.412994 0.049622
0.487671 0.415771 0.049072
0.531799 0.418579 0.048523
0.575806 0.421387 0.047974
0.618378 0.424255 0.047394
0.658905 0.427094 0.046906
0.697083 0.430023 0.046356
0.732513 0.432922 0.045776
0.765015 0.435822 0.045288
0.794525 0.438782 0.044678
0.821228 0.441711 0.044220
0.845459 0.444733 0.043732
0.867462 0.447693 0.043152
0.887421 0.450653 0.042633
0.905609 0.453705 0.042145
0.922180 0.456757 0.041656
0.937164 0.459747 0.041138
0.950806 0.462799 0.040649
0.963104 0.465820 0.040192
0.974121 0.468903 0.039734
0.065216 0.425537 0.054962
0.088623 0.428040 0.054474
0.113159 0.430664 0.053925
0.138916 0.433258 0.053406
0.166046 0.435944 0.052856
0.194733 0.438629 0.052338
0.225098 0.441284 0.051819
0.257385 0.444092 0.051239
0.291809 0.446808 0.050720
0.328491 0.449615 0.050140
0.367188 0.452484 0.049652
0.407623 0.455292 0.049103
0.449707 0.458221 0.048523
0.493073 0.461151 0.047974
0.537323 0.464050 0.047424
0.581207 0.467010 0.046906
0.623596 0.470001 0.046356
0.663757 0.472961 0.045807
0.701660 0.476013 0.045288
0.736755 0.479034 0.044708
0.768860 0.482025 0.044220
0.798035 0.485046 0.043732
0.824402 0.488129 0.043182
0.848358 0.491241 0.042664
0.870117 0.494324 0.042145
0.889832 0.497375 0.041656
0.907806 0.500458 0.041138
0.924133 0.503662 0.040680
0.938995 0.506683 0.040222
0.952423 0.509796 0.039734
0.964569 0.513000 0.039276
0.975433 0.516022 0.038849
0.067780 0.470642 0.053955
0.091339 0.473389 0.053406
0.116058 0.476135 0.052887
0.141968 0.478851 0.052368
0.169281 0.481628 0.051819
0.198181 0.484497 0.051270
0.228790 0.487274 0.050720
0.261414 0.490173 0.050171
0.296143 0.493042 0.049683
0.333069 0.495972 0.049133
0.372040 0.498932 0.048553
0.412720 0.501862 0.048004
0.454956 0.504913 0.047455
0.498474 0.507935 0.046906
0.542816 0.510925 0.046387
0.586548 0.513947 0.045837
0.628723 0.517120 0.045319
0.668640 0.520142 0.044739
0.706207 0.523224 0.044250
0.740906 0.526337 0.043732
0.772736 0.529449 0.043182
0.801514 0.532593 0.042664
0.827576 0.535706 0.042175
0.851227 0.538879 0.041687
0.872711 0.541992 0.041168
0.892212 0.545135 0.040710
0.909973 0.548218 0.040222
0.926086 0.551392 0.039734
0.940765 0.554443 0.039307
0.954010 0.557587 0.038849
0.965973 0.560577 0.038391
0.976715 0.563690 0.037994
0.070404 0.517181 0.052917
0.094116 0.520050 0.052399
0.118988 0.522919 0.051819
0.145111 0.525757 0.051300
0.172607 0.528625 0.050720
0.201721 0.531586 0.050201
0.232605 0.534515 0.049683
0.265472 0.537537 0.049133
0.300507 0.540405 0.048584
0.337738 0.543457 0.048004
0.376923 0.546478 0.047455
0.417816 0.549438 0.046936
0.460266 0.552521 0.046417
0.503937 0.555573 0.045837
0.548340 0.558533 0.045319
0.591949 0.561646 0.044769
0.633850 0.564697 0.044250
0.673523 0.567719 0.043762
0.710754 0.570831 0.043213
0.745148 0.573883 0.042694
0.776550 0.576843 0.042206
0.804962 0.579956 0.041687
0.830688 0.582916 0.041199
0.854034 0.585999 0.040710
0.875275 0.589020 0.040253
0.894562 0.592041 0.039764
0.912048 0.595032 0.039307
0.928009 0.598083 0.038849
0.942474 0.600983 0.038422
0.955597 0.603973 0.037994
0.967407 0.606964 0.037567
0.977966 0.609863 0.037170
0.073120 0.564270 0.051849
0.096985 0.567139 0.051331
0.122009 0.569977 0.050751
0.148254 0.572754 0.050232
0.176025 0.575684 0.049713
0.205414 0.578552 0.049133
0.236511 0.581421 0.048615
0.269684 0.584320 0.048035
0.304962 0.587250 0.047485
0.342438 0.590179 0.046936
0.381958 0.593109 0.046448
0.423035 0.596039 0.045868
0.465668 0.598999 0.045319
0.509521 0.601959 0.044769
0.553894 0.604828 0.044281
0.597351 0.607819 0.043762
0.639008 0.610779 0.043213
0.678406 0.613678 0.042694
0.715271 0.616669 0.042206
0.749237 0.619537 0.041748
0.780273 0.622467 0.041199
0.808380 0.625427 0.040710
0.833771 0.628265 0.040283
0.856842 0.631165 0.039795
0.877838 0.634094 0.039337
0.896851 0.636902 0.038879
0.914154 0.639771 0.038422
0.929932 0.642609 0.037994
0.944183 0.645386 0.037598
0.957153 0.648254 0.037170
0.968781 0.650940 0.036804
0.979187 0.653687 0.036469
0.075897 0.609924 0.050781
0.099915 0.612732 0.050232
0.125122 0.615479 0.049713
0.151550 0.618195 0.049133
0.179504 0.621063 0.048615
0.209045 0.623749 0.048065
0.240448 0.626556 0.047516
0.273895 0.629486 0.046967
0.309540 0.632141 0.046448
0.347290 0.635010 0.045898
0.386993 0.637817 0.045319
0.428314 0.640656 0.044800
0.471130 0.643433 0.044312
0.515106 0.646301 0.043762
0.559418 0.649017 0.043243
0.602692 0.651825 0.042694
0.644135 0.654694 0.042236
0.683197 0.657440 0.041748
0.719757 0.660217 0.041229
0.753326 0.662933 0.040741
0.783997 0.665710 0.040283
0.811737 0.668457 0.039795
0.836853 0.671143 0.039337
0.859619 0.673889 0.038879
0.880310 0.676605 0.038422
0.899109 0.679230 0.038025
0.916260 0.681946 0.037598
0.931763 0.684540 0.037170
0.945862 0.687164 0.036835
0.958618 0.689758 0.036469
0.970093 0.692291 0.036469
0.980377 0.694885 0.036469
0.078674 0.653503 0.049744
0.102875 0.656189 0.049164
0.128265 0.658844 0.048645
0.154877 0.661469 0.048065
0.183044 0.664154 0.047516
0.212830 0.666748 0.046997
0.244476 0.669403 0.046448
0.278229 0.672150 0.045898
0.314087 0.674744 0.045349
0.352142 0.677368 0.044830
0.392029 0.680084 0.044312
0.433624 0.682678 0.043793
0.476654 0.685364 0.043274
0.520752 0.688019 0.042725
0.565002 0.690582 0.042267
0.608032 0.693237 0.041748
0.649109 0.695801 0.041260
0.687927 0.698395 0.040741
0.724121 0.701019 0.040314
0.757416 0.703522 0.039825
0.787659 0.706116 0.039337
0.815002 0.708679 0.038910
0.839813 0.711182 0.038452
0.862305 0.713654 0.038055
0.882782 0.716156 0.037598
0.901337 0.718597 0.037201
0.918213 0.721069 0.036835
0.933563 0.723419 0.036469
0.947540 0.725830 0.036469
0.960144 0.728241 0.036469
0.971436 0.730560 0.036469
0.981537 0.732910 0.036469
0.081573 0.694519 0.048676
0.105896 0.697083 0.048096
0.131409 0.699493 0.047577
0.158295 0.701965 0.046997
0.186676 0.704529 0.046478
0.216644 0.706970 0.045929
0.248596 0.709473 0.045380
0.282593 0.711945 0.044830
0.318787 0.714417 0.044342
0.357117 0.716919 0.043793
0.397247 0.719421 0.043274
0.438965 0.721802 0.042755
0.482117 0.724274 0.042267
0.526306 0.726654 0.041748
0.570557 0.729156 0.041260
0.613373 0.731567 0.040771
0.654175 0.733887 0.040344
0.692719 0.736298 0.039825
0.728485 0.738678 0.039368
0.761353 0.740997 0.038940
0.791229 0.743347 0.038483
0.818268 0.745636 0.038055
0.842743 0.747925 0.037628
0.864990 0.750214 0.037231
0.885162 0.752472 0.036835
0.903503 0.754669 0.036469
0.920197 0.756897 0.036469
0.935364 0.759064 0.036469
0.949158 0.761169 0.036469
0.961548 0.763336 0.036469
0.972717 0.765442 0.036469
0.982666 0.767517 0.036469
0.084503 0.732544 0.047577
0.108978 0.734863 0.047028
0.134644 0.737152 0.046509
0.161743 0.739471 0.045929
0.190338 0.741821 0.045380
0.220581 0.744019 0.044861
0.252777 0.746368 0.044342
0.287048 0.748627 0.043823
0.323547 0.750885 0.043304
0.362061 0.753143 0.042786
0.402405 0.755402 0.042297
0.444366 0.757660 0.041779
0.487671 0.759857 0.041290
0.531952 0.762054 0.040802
0.576080 0.764252 0.040344
0.618683 0.766449 0.039856
0.659210 0.768616 0.039398
0.697357 0.770782 0.038940
0.732819 0.772919 0.038483
0.765289 0.774963 0.038086
0.794769 0.777100 0.037659
0.821472 0.779175 0.037231
0.845612 0.781189 0.036835
0.867584 0.783264 0.036469
0.887543 0.785217 0.036469
0.905640 0.787262 0.036469
0.922150 0.789215 0.036469
0.937103 0.791138 0.036469
0.950714 0.793030 0.036469
0.962952 0.794983 0.036469
0.973969 0.796783 0.036469
0.983765 0.798676 0.036469
0.087463 0.767242 0.046509
0.112152 0.769379 0.045959
0.137970 0.771454 0.045441
0.165222 0.773590 0.044891
0.194031 0.775665 0.044373
0.224518 0.777710 0.043854
0.256958 0.779785 0.043304
0.291534 0.781891 0.042786
0.328247 0.783905 0.042328
0.367035 0.785980 0.041779
0.407623 0.787964 0.041290
0.449799 0.789978 0.040802
0.493256 0.791992 0.040344
0.537567 0.793945 0.039886
0.581543 0.795959 0.039398
0.623901 0.797913 0.038940
0.664154 0.799835 0.038513
0.701935 0.801788 0.038116
0.737061 0.803680 0.037659
0.769135 0.805542 0.037262
0.798248 0.807404 0.036865
0.824585 0.809265 0.036469
0.848450 0.811127 0.036469
0.870117 0.812927 0.036469
0.889801 0.814667 0.036469
0.907715 0.816437 0.036469
0.924011 0.818207 0.036469
0.938812 0.819916 0.036469
0.952209 0.821655 0.036469
0.964325 0.823334 0.036469
0.975159 0.824951 0.036469
0.984802 0.826599 0.036469
0.090485 0.798523 0.045441
0.115295 0.800476 0.044891
0.141296 0.802338 0.044403
0.168732 0.804260 0.043854
0.197784 0.806152 0.043304
0.228485 0.808014 0.042816
0.261169 0.809875 0.042328
0.296082 0.811798 0.041809
0.333069 0.813568 0.041290
0.372101 0.815460 0.040833
0.412903 0.817230 0.040375
0.455231 0.819061 0.039886
0.498779 0.820862 0.039429
0.543182 0.822601 0.038971
0.586945 0.824402 0.038544
0.629059 0.826141 0.038116
0.668976 0.827850 0.037689
0.706482 0.829620 0.037262
0.741211 0.831329 0.036865
0.772858 0.833008 0.036499
0.801636 0.834686 0.036469
0.827606 0.836273 0.036469
0.851166 0.837952 0.036469
0.872589 0.839569 0.036469
0.892029 0.841125 0.036469
0.909760 0.842712 0.036469
0.925842 0.844330 0.036469
0.940430 0.845825 0.036469
0.953705 0.847351 0.036469
0.965637 0.848877 0.036469
0.976318 0.850281 0.036469
0.985840 0.851746 0.036469
0.093536 0.826691 0.044403
0.118500 0.828430 0.043884
0.144684 0.830170 0.043304
0.172333 0.831848 0.042847
0.201569 0.833588 0.042328
0.232513 0.835236 0.041840
0.265472 0.836945 0.041290
0.300659 0.838623 0.040833
0.337921 0.840271 0.040375
0.377167 0.841919 0.039917
0.418121 0.843567 0.039459
0.460632 0.845215 0.038971
0.504364 0.846832 0.038544
0.548767 0.848389 0.038147
0.592346 0.850006 0.037689
0.634155 0.851593 0.037292
0.673828 0.853149 0.036896
0.710938 0.854675 0.036499
0.745270 0.856232 0.036469
0.776581 0.857697 0.036469
0.804962 0.859192 0.036469
0.830597 0.860657 0.036469
0.853882 0.862122 0.036469
0.875061 0.863586 0.036469
0.894257 0.864990 0.036469
0.911743 0.866364 0.036469
0.927643 0.867798 0.036469
0.942047 0.869110 0.036469
0.955139 0.870483 0.036469
0.966919 0.871826 0.036469
0.977448 0.873108 0.036469
0.986816 0.874390 0.036469
0.096619 0.852051 0.043335
0.121735 0.853607 0.042847
0.148132 0.855194 0.042358
0.175934 0.856720 0.041870
0.205414 0.858276 0.041290
0.236572 0.859772 0.040863
0.269836 0.861328 0.040405
0.305206 0.862793 0.039948
0.342773 0.864349 0.039459
0.382233 0.865814 0.038971
0.423401 0.867249 0.038544
0.466095 0.868744 0.038147
0.509918 0.870209 0.037720
0.554260 0.871643 0.037323
0.597595 0.873077 0.036896
0.639221 0.874481 0.036499
0.678528 0.875885 0.036469
0.715302 0.877258 0.036469
0.749207 0.878601 0.036469
0.780182 0.879974 0.036469
0.808197 0.881287 0.036469
0.833496 0.882568 0.036469
0.856537 0.883881 0.036469
0.877380 0.885193 0.036469
0.896393 0.886444 0.036469
0.913635 0.887726 0.036469
0.929352 0.888947 0.036469
0.943604 0.890137 0.036469
0.956512 0.891327 0.036469
0.968109 0.892517 0.036469
0.978546 0.893677 0.036469
0.987762 0.894806 0.036469
0.099762 0.874908 0.042358
0.125031 0.876373 0.041870
0.151520 0.877747 0.041321
0.179565 0.879150 0.040894
0.209229 0.880554 0.040405
0.240662 0.881927 0.039948
0.274139 0.883301 0.039459
0.309845 0.884644 0.039001
0.347656 0.886017 0.038544
0.387329 0.887390 0.038177
0.428711 0.888702 0.037720
0.471527 0.890015 0.037323
0.515442 0.891296 0.036926
0.559723 0.892609 0.036530
0.602905 0.893860 0.036469
0.644165 0.895142 0.036469
0.683167 0.896393 0.036469
0.719604 0.897614 0.036469
0.753082 0.898834 0.036469
0.783661 0.900055 0.036469
0.811310 0.901245 0.036469
0.836304 0.902374 0.036469
0.859039 0.903564 0.036469
0.879700 0.904724 0.036469
0.898438 0.905823 0.036469
0.915527 0.906952 0.036469
0.931030 0.908051 0.036469
0.945099 0.909119 0.036469
0.957855 0.910187 0.036469
0.969299 0.911194 0.036469
0.979584 0.912201 0.036469
0.988678 0.913239 0.036469
0.102875 0.895599 0.041351
0.128326 0.896881 0.040894
0.154999 0.898163 0.040405
0.183228 0.899414 0.039948
0.213043 0.900665 0.039490
0.244751 0.901917 0.039032
0.278564 0.903168 0.038574
0.314453 0.904388 0.038177
0.352509 0.905579 0.037720
0.392395 0.906830 0.037323
0.433929 0.907990 0.036957
0.476898 0.909180 0.036530
0.520905 0.910370 0.036469
0.565125 0.911469 0.036469
0.608002 0.912659 0.036469
0.648956 0.913727 0.036469
0.687683 0.914886 0.036469
