examples/luts/Bourbon 64.CUBE
#Created by: Adobe Photoshop Export Color Lookup Plugin
#Copyright: (C) Copyright 2017 RocketStock
TITLE "Warm"
#LUT size
LUT_3D_SIZE 8
#data domain
#LUT data points
DOMAIN_MIN 0.000000 0.000000 0.000000
DOMAIN_MAX 0.903226 0.903226 0.903226
0.038818 0.000000 0.065033
0.131226 0.002625 0.064270
0.244507 0.005676 0.063232
0.388153 0.009247 0.061920
0.557220 0.013214 0.060364
0.715546 0.017548 0.058624
0.832703 0.022247 0.056763
0.912781 0.027313 0.054718
0.044312 0.089050 0.063263
0.138824 0.093201 0.061981
0.255249 0.097839 0.060425
0.402771 0.102905 0.058716
0.574219 0.108459 0.056824
0.730072 0.114380 0.054749
0.843170 0.120667 0.052704
0.920288 0.127350 0.050537
0.051544 0.198914 0.060486
0.148407 0.205109 0.058777
0.268402 0.211823 0.056885
0.420044 0.219055 0.054840
0.593201 0.226837 0.052734
0.745392 0.234955 0.050629
0.854004 0.243591 0.048431
0.927887 0.252563 0.046265
0.060303 0.340729 0.056976
0.159760 0.349792 0.054932
0.283630 0.359467 0.052826
0.439392 0.369598 0.050690
0.613281 0.380249 0.048492
0.761078 0.391235 0.046326
0.864807 0.402588 0.044189
0.935333 0.414154 0.042114
0.070404 0.517181 0.052917
0.172607 0.528625 0.050720
0.300507 0.540405 0.048584
0.460266 0.552521 0.046417
0.633850 0.564697 0.044250
0.776550 0.576843 0.042206
0.875275 0.589020 0.040253
0.942474 0.600983 0.038422
0.081573 0.694519 0.048676
0.186676 0.704529 0.046478
0.318787 0.714417 0.044342
0.482117 0.724274 0.042267
0.654175 0.733887 0.040344
0.791229 0.743347 0.038483
0.885162 0.752472 0.036835
0.949158 0.761169 0.036469
0.093536 0.826691 0.044403
0.201569 0.833588 0.042328
0.337921 0.840271 0.040375
0.504364 0.846832 0.038544
0.673828 0.853149 0.036896
0.804962 0.859192 0.036469
0.894257 0.864990 0.036469
0.955139 0.870483 0.036469
0.105988 0.914276 0.040405
0.216949 0.918823 0.038605
0.357391 0.923248 0.036957
0.526306 0.927521 0.036469
0.692078 0.931549 0.036469
0.817322 0.935455 0.036469
0.902374 0.939056 0.036469
0.960388 0.942444 0.036469
0.039673 0.000885 0.159149
0.132446 0.003723 0.158112
0.246277 0.006958 0.156769
0.390625 0.010620 0.155060
0.560211 0.014740 0.153168
0.718140 0.019226 0.151001
0.834625 0.024078 0.148682
0.914185 0.029205 0.146179
0.045502 0.090546 0.156799
0.140503 0.094849 0.155121
0.257538 0.099640 0.153229
0.405853 0.104919 0.151093
0.577637 0.110596 0.148773
0.732880 0.116638 0.146301
0.845184 0.123077 0.143768
0.921722 0.129883 0.141174
0.053070 0.201111 0.153290
0.150391 0.207458 0.151184
0.271088 0.214447 0.148834
0.423523 0.221832 0.146393
0.596832 0.229797 0.143860
0.748383 0.238129 0.141266
0.856018 0.246826 0.138672
0.929321 0.255920 0.136047
0.062134 0.343994 0.148926
0.162109 0.353271 0.146484
0.286621 0.363159 0.143921
0.443176 0.373474 0.141357
0.617096 0.384247 0.138763
0.763977 0.395386 0.136169
0.866791 0.406830 0.133667
0.936707 0.418457 0.131287
0.072449 0.521362 0.144012
0.175171 0.532959 0.141418
0.303864 0.544922 0.138824
0.464294 0.556946 0.136261
0.637665 0.569183 0.133728
0.779327 0.581299 0.131348
0.877167 0.593475 0.129089
0.943787 0.605316 0.127014
0.083740 0.698181 0.138947
0.189362 0.708160 0.136353
0.322296 0.718048 0.133850
0.486237 0.727844 0.131439
0.657959 0.737427 0.129150
0.793915 0.746704 0.127075
0.886932 0.755737 0.125427
0.950287 0.764313 0.125427
0.095825 0.829224 0.133911
0.204407 0.836060 0.131500
0.341461 0.842682 0.129242
0.508484 0.849152 0.127136
0.677307 0.855377 0.125427
0.807343 0.861359 0.125427
0.895813 0.867004 0.125427
0.956177 0.872437 0.125427
0.108368 0.915985 0.129303
0.219879 0.920502 0.127197
0.360992 0.924866 0.125427
0.530304 0.929047 0.125427
0.695374 0.933014 0.125427
0.819458 0.936798 0.125427
0.903778 0.940308 0.125427
0.961273 0.943634 0.125427
0.040619 0.001862 0.274414
0.133789 0.004852 0.272949
0.248260 0.008240 0.271149
0.393250 0.012115 0.268890
0.563293 0.016357 0.266357
0.720764 0.020996 0.263611
0.836578 0.025909 0.260651
0.915588 0.031189 0.257538
0.046783 0.092072 0.271179
0.142212 0.096588 0.268982
0.259888 0.101532 0.266479
0.408966 0.106903 0.263702
0.581116 0.112732 0.260773
0.735687 0.118988 0.257629
0.847198 0.125519 0.254486
0.923126 0.132385 0.251221
0.054626 0.203369 0.266571
0.152466 0.209961 0.263794
0.273834 0.217102 0.260834
0.427094 0.224731 0.257751
0.600555 0.232758 0.254547
0.751251 0.241272 0.251282
0.858032 0.250092 0.248108
0.930695 0.259338 0.244965
0.063934 0.347351 0.260956
0.164398 0.356812 0.257874
0.289764 0.366882 0.254639
0.447052 0.377319 0.251465
0.620911 0.388245 0.248260
0.766907 0.399536 0.245056
0.868744 0.411072 0.242004
0.938049 0.422852 0.239075
0.074463 0.525574 0.254761
0.177704 0.537292 0.251526
0.307220 0.549286 0.248322
0.468323 0.561432 0.245148
0.641479 0.573639 0.242096
0.782104 0.585754 0.239197
0.879028 0.597809 0.236481
0.945007 0.609619 0.234009
0.085938 0.701843 0.248474
0.192108 0.711792 0.245239
0.325897 0.721710 0.242157
0.490417 0.731384 0.239258
0.661682 0.740875 0.236542
0.796478 0.750031 0.234070
0.888672 0.758942 0.232880
0.951447 0.767365 0.232880
0.098145 0.831726 0.242310
0.207245 0.838531 0.239380
0.345123 0.845062 0.236633
0.512604 0.851471 0.234131
0.680878 0.857635 0.232880
0.809723 0.863464 0.232880
0.897430 0.869049 0.232880
0.957184 0.874298 0.232880
0.110748 0.917633 0.236694
0.222778 0.922119 0.234192
0.364563 0.926392 0.232880
0.534241 0.930511 0.232880
0.698486 0.934418 0.232880
0.821594 0.938110 0.232880
0.905121 0.941559 0.232880
0.962158 0.944763 0.232880
0.041626 0.002899 0.417694
0.135193 0.006073 0.415771
0.250183 0.009613 0.413361
0.395966 0.013641 0.410492
0.566498 0.018036 0.407349
0.723480 0.022766 0.403870
0.838531 0.027863 0.400208
0.916962 0.033203 0.396332
0.048096 0.093628 0.413452
0.143982 0.098358 0.410645
0.262329 0.103455 0.407501
0.412201 0.109009 0.404022
0.584625 0.114960 0.400360
0.738556 0.121338 0.396484
0.849213 0.128021 0.392517
0.924530 0.135010 0.388519
0.056274 0.205750 0.407562
0.154633 0.212555 0.404083
0.276672 0.219818 0.400452
0.430664 0.227600 0.396637
0.604279 0.235809 0.392609
0.754181 0.244476 0.388672
0.860046 0.253418 0.384735
0.932098 0.262756 0.380859
0.065826 0.350769 0.400574
0.166779 0.360443 0.396759
0.292877 0.370667 0.392761
0.450958 0.381317 0.388794
0.624725 0.392365 0.384888
0.769806 0.403809 0.380951
0.870728 0.415375 0.377289
0.939392 0.427216 0.373779
0.076569 0.529877 0.392914
0.180298 0.541595 0.388947
0.310638 0.553711 0.384979
0.472382 0.565857 0.381104
0.645294 0.578094 0.377441
0.784912 0.590271 0.373840
0.880890 0.602173 0.370575
0.946289 0.613922 0.367615
0.088226 0.705566 0.385101
0.194916 0.715424 0.381256
0.329468 0.725281 0.377502
0.494507 0.734833 0.373993
0.665314 0.744232 0.370697
0.799011 0.753326 0.367737
0.890350 0.762054 0.367371
0.952545 0.770325 0.367371
0.100464 0.834198 0.377655
0.210114 0.840912 0.374054
0.348846 0.847473 0.370789
0.516724 0.853760 0.367859
0.684265 0.859802 0.367371
0.812042 0.865570 0.367371
0.898926 0.871002 0.367371
0.958130 0.876160 0.367371
0.113098 0.919250 0.370941
0.225708 0.923706 0.367920
0.368164 0.927948 0.367371
0.538177 0.931976 0.367371
0.701599 0.935760 0.367371
0.823608 0.939423 0.367371
0.906464 0.942810 0.367371
0.962952 0.945892 0.367371
0.042694 0.003998 0.580231
0.136658 0.007294 0.578064
0.252350 0.011047 0.575348
0.398804 0.015198 0.572266
0.569733 0.019714 0.568787
0.726196 0.024567 0.565002
0.840485 0.029755 0.561005
0.918335 0.035248 0.556915
0.049530 0.095306 0.575470
0.145813 0.100159 0.572388
0.264832 0.105438 0.568939
0.415436 0.111145 0.565186
0.588257 0.117279 0.561127
0.741455 0.123749 0.556976
0.851227 0.130585 0.552704
0.925934 0.137604 0.548370
0.057953 0.208160 0.569031
0.156769 0.215149 0.565247
0.279541 0.222626 0.561310
0.434326 0.230591 0.557129
0.608032 0.238922 0.552856
0.757141 0.247681 0.548553
0.862061 0.256805 0.544250
0.933472 0.266235 0.540009
0.067749 0.354218 0.561432
0.169250 0.364166 0.557281
0.296082 0.374481 0.553009
0.454895 0.385315 0.548706
0.628571 0.396515 0.544403
0.772675 0.407990 0.540192
0.872650 0.419647 0.536102
0.940735 0.431488 0.532318
0.078644 0.534088 0.553162
0.182983 0.545990 0.548859
0.314056 0.558167 0.544495
0.476532 0.570404 0.540344
0.649048 0.582550 0.536255
0.787598 0.594666 0.532410
0.882690 0.606506 0.528900
0.947510 0.618164 0.526550
0.090424 0.709167 0.544647
0.197662 0.719025 0.540497
0.333038 0.728821 0.536377
0.498688 0.738312 0.532562
0.668945 0.747620 0.528992
0.801514 0.756592 0.526550
0.891998 0.765137 0.526550
0.953674 0.773315 0.526550
0.102844 0.836731 0.536499
0.213013 0.843353 0.532654
0.352448 0.849792 0.529114
0.520752 0.856018 0.526550
0.687592 0.861938 0.526550
0.814301 0.867584 0.526550
0.900421 0.872925 0.526550
0.959106 0.877930 0.526550
0.115448 0.920898 0.529266
0.228577 0.925262 0.526550
0.371704 0.929443 0.526550
0.541992 0.933411 0.526550
0.704681 0.937164 0.526550
0.825562 0.940674 0.526550
0.907745 0.943970 0.526550
0.963745 0.946960 0.526550
0.043854 0.005157 0.726715
0.138245 0.008606 0.724792
0.254486 0.012543 0.722534
0.401733 0.016785 0.719879
0.573059 0.021454 0.717010
0.728973 0.026428 0.713898
0.842468 0.031738 0.710602
0.919739 0.037323 0.707153
0.050964 0.097015 0.722595
0.147736 0.102051 0.720001
0.267487 0.107513 0.717102
0.418823 0.113373 0.713989
0.591858 0.119598 0.710693
0.744385 0.126160 0.707275
0.853271 0.133087 0.703705
0.927368 0.140289 0.700165
0.059662 0.210663 0.717194
0.158966 0.217804 0.714142
0.282501 0.225464 0.710815
0.438080 0.233643 0.707336
0.611908 0.242157 0.703796
0.760040 0.251007 0.700256
0.864075 0.260284 0.696747
0.934845 0.269745 0.693268
0.069702 0.357788 0.710907
0.171722 0.367920 0.707428
0.299347 0.378418 0.703979
0.458832 0.389404 0.700378
0.632416 0.400665 0.696869
0.775513 0.412231 0.693390
0.874542 0.423981 0.690094
0.942017 0.435852 0.686920
0.080811 0.538452 0.704102
0.185669 0.550537 0.700500
0.317505 0.562622 0.696991
0.480652 0.574890 0.693451
0.652832 0.586945 0.690186
0.790283 0.599060 0.687012
0.884491 0.610779 0.684143
0.948700 0.622375 0.683167
0.092712 0.712830 0.697083
0.200470 0.722595 0.693604
0.336609 0.732330 0.690247
0.502838 0.741821 0.687164
0.672516 0.750916 0.684204
0.804077 0.759827 0.683167
0.893646 0.768188 0.683167
0.954712 0.776215 0.683167
0.105164 0.839203 0.690369
0.215912 0.845703 0.687225
0.356049 0.852112 0.684357
0.524780 0.858185 0.683167
0.690918 0.864044 0.683167
0.816498 0.869568 0.683167
0.901855 0.874817 0.683167
0.960052 0.879730 0.683167
0.117828 0.922577 0.684387
0.231445 0.926819 0.683167
0.375305 0.930939 0.683167
0.545807 0.934784 0.683167
0.707611 0.938477 0.683167
0.827515 0.941925 0.683167
0.908966 0.945068 0.683167
0.964508 0.947998 0.683167
0.045105 0.006378 0.835022
0.139862 0.009979 0.833588
0.256683 0.014069 0.831909
0.404694 0.018433 0.830017
0.576447 0.023224 0.827911
0.731812 0.028381 0.825684
0.844452 0.033752 0.823334
0.921173 0.039459 0.820862
0.052521 0.098846 0.831970
0.149658 0.103973 0.830109
0.270111 0.109589 0.828003
0.422272 0.115601 0.825745
0.595490 0.122009 0.823395
0.747284 0.128693 0.820953
0.855255 0.135712 0.818481
0.928772 0.142975 0.815979
0.061462 0.213226 0.828094
0.161224 0.220612 0.825867
0.285553 0.228455 0.823486
0.441772 0.236664 0.821014
0.615723 0.245331 0.818542
0.762939 0.254364 0.816040
0.866058 0.263702 0.813568
0.936218 0.273254 0.811157
0.071686 0.361420 0.823578
0.174225 0.371704 0.821136
0.302643 0.382385 0.818634
0.462860 0.393494 0.816132
0.636261 0.404877 0.813629
0.778320 0.416534 0.811218
0.876465 0.428345 0.808929
0.943298 0.440216 0.806763
0.082947 0.542877 0.818726
0.188385 0.554962 0.816193
0.321014 0.567047 0.813721
0.484802 0.579346 0.811279
0.656555 0.591431 0.808990
0.792969 0.603394 0.806824
0.886261 0.615021 0.804840
0.949890 0.626434 0.804840
0.095001 0.716400 0.813782
0.203339 0.726227 0.811371
0.340210 0.735809 0.809052
0.506989 0.745209 0.806885
0.676056 0.754242 0.804901
0.806458 0.762909 0.804840
0.895264 0.771149 0.804840
0.955780 0.778992 0.804840
0.107513 0.841644 0.809113
0.218781 0.848083 0.806976
0.359650 0.854370 0.804962
0.528778 0.860382 0.804840
0.694183 0.866089 0.804840
0.818726 0.871552 0.804840
0.903259 0.876617 0.804840
0.960938 0.881409 0.804840
0.120178 0.924133 0.804993
0.234314 0.928314 0.804840
0.378815 0.932373 0.804840
0.549500 0.936157 0.804840
0.710510 0.939758 0.804840
0.829346 0.943115 0.804840
0.910156 0.946198 0.804840
0.965271 0.949005 0.804840
0.046326 0.007690 0.910400
0.141541 0.011414 0.909363
0.259033 0.015625 0.908112
0.407867 0.020172 0.906738
0.579834 0.025055 0.905212
0.734680 0.030334 0.903595
0.846436 0.035797 0.901947
0.922638 0.041565 0.900238
0.054047 0.100677 0.908142
0.151703 0.105988 0.906769
0.272827 0.111755 0.905273
0.425781 0.117889 0.903687
0.599213 0.124420 0.902008
0.750183 0.131226 0.900269
0.857300 0.138367 0.898529
0.930206 0.145721 0.896759
0.063293 0.215912 0.905334
0.163574 0.223389 0.903717
0.288605 0.231415 0.902039
0.445618 0.239807 0.900330
0.619568 0.248627 0.898590
0.765869 0.257751 0.896851
0.868042 0.267212 0.895111
0.937561 0.276855 0.893463
0.073700 0.365143 0.902130
0.176788 0.375549 0.900421
0.306000 0.386383 0.898651
0.466888 0.397583 0.896881
0.640106 0.409149 0.895203
0.781097 0.420807 0.893524
0.878357 0.432739 0.891907
0.944580 0.444580 0.890472
0.085114 0.547272 0.898712
0.191101 0.559387 0.896942
0.324524 0.571564 0.895233
0.488922 0.583740 0.893585
0.660370 0.595856 0.891968
0.795532 0.607697 0.890503
0.888031 0.619354 0.889679
0.951019 0.630493 0.889679
0.097290 0.720001 0.895294
0.206207 0.729797 0.893646
0.343811 0.739288 0.892029
0.511108 0.748505 0.890564
0.679535 0.757446 0.889679
0.808868 0.765991 0.889679
0.896820 0.774078 0.889679
0.956818 0.781769 0.889679
0.109863 0.843994 0.892090
0.221680 0.850403 0.890625
0.363281 0.856598 0.889679
0.532837 0.862518 0.889679
0.697357 0.868134 0.889679
0.820801 0.873444 0.889679
0.904633 0.878418 0.889679
0.961823 0.883057 0.889679
0.122559 0.925720 0.889679
0.237183 0.929840 0.889679
0.382324 0.933807 0.889679
0.553223 0.937531 0.889679
0.713287 0.941040 0.889679
0.831207 0.944275 0.889679
0.911285 0.947266 0.889679
0.965973 0.949982 0.889679
