examples/luts/Bourbon 64.CUBE
#Created by: Adobe Photoshop Export Color Lookup Plugin
#Copyright: (C) Copyright 2017 RocketStock
TITLE "Warm"
#LUT size
LUT_3D_SIZE 5
#data domain
#LUT data points
DOMAIN_MIN 0.000000 0.000000 0.000000
DOMAIN_MAX 0.903226 0.903226 0.903226
0.038818 0.000000 0.065033
0.213654 0.004883 0.063538
0.470520 0.011200 0.061157
0.749054 0.018707 0.058197
0.912781 0.027313 0.054718
0.049591 0.168976 0.061249
0.232391 0.179108 0.058289
0.500824 0.190857 0.054810
0.773102 0.203918 0.051147
0.925995 0.218201 0.047302
0.065216 0.425537 0.054962
0.257385 0.444092 0.051239
0.537323 0.464050 0.047424
0.798035 0.485046 0.043732
0.938995 0.506683 0.040222
0.084503 0.732544 0.047577
0.287048 0.748627 0.043823
0.576080 0.764252 0.040344
0.821472 0.779175 0.037231
0.950714 0.793030 0.036469
0.105988 0.914276 0.040405
0.319122 0.922180 0.037354
0.613068 0.929596 0.036469
0.841736 0.936371 0.036469
0.960388 0.942444 0.036469
0.040405 0.001648 0.243073
0.216644 0.007050 0.240540
0.475586 0.013824 0.236847
0.753326 0.021729 0.232391
0.915253 0.030731 0.227356
0.052124 0.172485 0.236969
0.236633 0.183228 0.232544
0.507172 0.195465 0.227509
0.777802 0.209015 0.222260
0.928436 0.223663 0.216980
0.068573 0.432159 0.227692
0.262665 0.451294 0.222412
0.544495 0.471680 0.217133
0.802612 0.493042 0.212006
0.941284 0.514709 0.207367
0.088379 0.738464 0.217285
0.292877 0.754395 0.212189
0.583221 0.769836 0.207520
0.825470 0.784393 0.203857
0.952667 0.797821 0.203857
0.110138 0.917267 0.207672
0.325165 0.924988 0.203857
0.619537 0.932159 0.203857
0.845093 0.938690 0.203857
0.961884 0.944489 0.203857
0.042145 0.003418 0.497894
0.219849 0.009369 0.493835
0.480835 0.016571 0.488403
0.757751 0.024933 0.481934
0.917664 0.034210 0.474823
0.054871 0.176239 0.488586
0.241119 0.187592 0.482117
0.513855 0.200287 0.475037
0.782471 0.214294 0.467712
0.930908 0.229309 0.460388
0.072083 0.438995 0.475311
0.267975 0.458618 0.467957
0.551758 0.479431 0.460602
0.807037 0.500854 0.453674
0.943542 0.522766 0.447418
0.092377 0.744385 0.460846
0.298828 0.760162 0.453888
0.590302 0.775299 0.447632
0.829468 0.789459 0.444611
0.954529 0.802490 0.444611
0.114288 0.920074 0.447815
0.331207 0.927673 0.444611
0.625702 0.934601 0.444611
0.848297 0.940918 0.444611
0.963379 0.946442 0.444611
0.044128 0.005463 0.757568
0.223267 0.011902 0.754181
0.486481 0.019501 0.749939
0.762238 0.028198 0.744904
0.920105 0.037842 0.739380
0.057800 0.180237 0.750061
0.245697 0.192078 0.745056
0.520721 0.205292 0.739563
0.787109 0.219635 0.733826
0.933350 0.234955 0.728088
0.075653 0.446075 0.739777
0.273529 0.466095 0.734009
0.558960 0.487213 0.728271
0.811432 0.508881 0.722870
0.945740 0.530640 0.718109
0.096344 0.750214 0.728455
0.304840 0.765839 0.723053
0.597168 0.780579 0.718201
0.833313 0.794403 0.717377
0.956390 0.806976 0.717377
0.118408 0.922943 0.718353
0.337158 0.930298 0.717377
0.631744 0.937012 0.717377
0.851288 0.942993 0.717377
0.964691 0.948273 0.717377
0.046326 0.007690 0.910400
0.226959 0.014526 0.908417
0.492371 0.022614 0.905975
0.766785 0.031677 0.903229
0.922638 0.041565 0.900238
0.060852 0.184418 0.906067
0.250549 0.196777 0.903320
0.527649 0.210449 0.900330
0.791748 0.225159 0.897278
0.935730 0.240753 0.894287
0.079315 0.453217 0.900421
0.279175 0.473785 0.897369
0.566254 0.495117 0.894409
0.815765 0.516907 0.891571
0.947876 0.538574 0.889679
0.100403 0.756012 0.894470
0.310913 0.771362 0.891663
0.604004 0.785797 0.889679
0.836945 0.799103 0.889679
0.958130 0.811218 0.889679
0.122559 0.925720 0.889679
0.342987 0.932831 0.889679
0.637573 0.939301 0.889679
0.854156 0.945007 0.889679
0.965973 0.949982 0.889679
