examples/luts/Chemical 168.CUBE
#Created by: Adobe Photoshop Export Color Lookup Plugin
#Copyright: (C) Copyright 2017 RocketStock
TITLE "Untitled"
#LUT size
LUT_3D_SIZE 8
#data domain
#LUT data points
DOMAIN_MIN 0.000000 0.000000 0.000000
DOMAIN_MAX 0.903226 0.903226 0.903226
0.030975 0.000000 0.042267
0.100555 0.002167 0.043304
0.204193 0.004761 0.044525
0.353241 0.007782 0.045959
0.529175 0.011139 0.047546
0.675140 0.014893 0.049347
0.787201 0.018921 0.051239
0.884186 0.023315 0.053314
0.033875 0.070770 0.035919
0.104706 0.074188 0.037231
0.210358 0.078033 0.038788
0.360657 0.082336 0.040497
0.535522 0.087097 0.042297
0.678894 0.092255 0.044250
0.789276 0.097778 0.046326
0.885040 0.103760 0.048492
0.037750 0.174744 0.026154
0.109985 0.180389 0.027649
0.217834 0.186615 0.029297
0.369293 0.193390 0.031036
0.542633 0.200684 0.032867
0.683014 0.208374 0.034821
0.791473 0.216583 0.036804
0.885956 0.225159 0.038940
0.042511 0.335266 0.009888
0.116302 0.342926 0.011536
0.226532 0.351074 0.013275
0.378937 0.359619 0.015045
0.550171 0.368591 0.016968
0.687317 0.377747 0.018982
0.793823 0.387238 0.021027
0.886963 0.396790 0.023132
0.047974 0.534241 0.000000
0.123474 0.541290 0.000000
0.236084 0.548462 0.000000
0.389313 0.555756 0.000000
0.558014 0.563141 0.000000
0.691742 0.570312 0.000488
0.796143 0.577606 0.002991
0.887939 0.584656 0.005463
0.054077 0.699860 0.000000
0.131378 0.703888 0.000000
0.246338 0.707947 0.000000
0.400085 0.712006 0.000000
0.565826 0.716003 0.000000
0.696106 0.720001 0.000000
0.798492 0.723907 0.000000
0.888855 0.727722 0.000000
0.060638 0.821381 0.000000
0.139893 0.823517 0.000000
0.257050 0.825653 0.000000
0.410950 0.827759 0.000000
0.573456 0.829834 0.000000
0.700317 0.831879 0.000000
0.800720 0.833832 0.000000
0.889771 0.835724 0.000000
0.067596 0.922882 0.000000
0.148712 0.923737 0.000000
0.267853 0.924591 0.000000
0.421692 0.925476 0.000000
0.580658 0.926270 0.000000
0.704285 0.927063 0.000000
0.802704 0.927795 0.000000
0.890564 0.928528 0.000000
0.031433 0.000732 0.115662
0.101257 0.003052 0.117096
0.205200 0.005798 0.118774
0.354492 0.008972 0.120697
0.530273 0.012451 0.122864
0.675781 0.016327 0.125275
0.787598 0.020508 0.127808
0.884338 0.025024 0.130554
0.034515 0.071991 0.110107
0.105652 0.075562 0.111938
0.211609 0.079559 0.114044
0.362213 0.084015 0.116364
0.536774 0.088898 0.118835
0.679657 0.094238 0.121490
0.789673 0.099884 0.124268
0.885223 0.105988 0.127258
0.038574 0.176758 0.101349
0.111084 0.182617 0.103455
0.219391 0.189026 0.105743
0.371033 0.195984 0.108154
0.544006 0.203430 0.110718
0.683777 0.211365 0.113434
0.791931 0.219666 0.116241
0.886200 0.228394 0.119202
0.043518 0.338043 0.086273
0.117554 0.345795 0.088562
0.228210 0.354187 0.091034
0.380859 0.362854 0.093628
0.551605 0.371918 0.096375
0.688141 0.381226 0.099213
0.794250 0.390747 0.102142
0.887146 0.400330 0.105133
0.049103 0.536835 0.067169
0.124908 0.543915 0.069977
0.238007 0.551147 0.072906
0.391327 0.558441 0.076050
0.559479 0.565765 0.079254
0.692535 0.572998 0.082581
0.796600 0.580170 0.086029
0.888092 0.587128 0.089447
0.055298 0.701294 0.053314
0.132935 0.705383 0.056854
0.248383 0.709412 0.060486
0.402069 0.713501 0.064178
0.567291 0.717499 0.068024
0.696930 0.721436 0.071899
0.798889 0.725311 0.075745
0.889038 0.729034 0.079590
0.061951 0.822144 0.045715
0.141510 0.824280 0.049652
0.259033 0.826416 0.053741
0.412994 0.828522 0.057831
0.574829 0.830566 0.061920
0.701111 0.832581 0.066040
0.801056 0.834503 0.070038
0.889923 0.836365 0.073975
0.068878 0.923218 0.041046
0.150360 0.924072 0.045258
0.269806 0.924927 0.049561
0.423584 0.925781 0.053802
0.581940 0.926575 0.057922
0.704987 0.927368 0.062012
0.803070 0.928070 0.065918
0.890747 0.928772 0.069672
0.031921 0.001556 0.224823
0.101929 0.004028 0.226929
0.206268 0.006927 0.229279
0.355835 0.010193 0.231995
0.531403 0.013824 0.234955
0.676483 0.017822 0.238220
0.787933 0.022125 0.241760
0.884491 0.026733 0.245453
0.035217 0.073242 0.220581
0.106537 0.076965 0.223175
0.212982 0.081116 0.226135
0.363770 0.085785 0.229309
0.538116 0.090790 0.232666
0.680389 0.096252 0.236267
0.790100 0.102051 0.240082
0.885437 0.108307 0.243958
0.039429 0.178833 0.213318
0.112213 0.184875 0.216248
0.220947 0.191498 0.219482
0.372833 0.198700 0.222809
0.545410 0.206268 0.226379
0.684601 0.214386 0.230042
0.792358 0.222809 0.233826
0.886383 0.231628 0.237732
0.044464 0.340851 0.199921
0.118896 0.348846 0.203125
0.230011 0.357300 0.206604
0.382751 0.366119 0.210144
0.553070 0.375305 0.213867
0.688965 0.384644 0.217651
0.794708 0.394287 0.221558
0.887329 0.403931 0.225464
0.050201 0.539398 0.182800
0.126373 0.546539 0.186554
0.239868 0.553802 0.190521
0.393280 0.561096 0.194580
0.560974 0.568420 0.198792
0.693359 0.575653 0.202972
0.797058 0.582764 0.207245
0.888275 0.589752 0.211517
0.056519 0.702789 0.170990
0.134521 0.706818 0.175507
0.250336 0.710968 0.180115
0.404175 0.714996 0.184723
0.568726 0.718964 0.189392
0.697693 0.722870 0.194061
0.799316 0.726715 0.198761
0.889221 0.730377 0.203308
0.063232 0.822937 0.165375
0.143127 0.825073 0.170258
0.261108 0.827209 0.175140
0.415009 0.829285 0.180115
0.576202 0.831329 0.185028
0.701843 0.833313 0.189728
0.801514 0.835205 0.194427
0.890076 0.837036 0.198914
0.070221 0.923523 0.162476
0.152069 0.924408 0.167603
0.271820 0.925232 0.172577
0.425476 0.926056 0.177582
0.583221 0.926880 0.182343
0.705658 0.927612 0.187042
0.803436 0.928314 0.191376
0.890839 0.929016 0.195557
0.032471 0.002411 0.378571
0.102722 0.005035 0.380890
0.207397 0.008057 0.383606
0.357208 0.011505 0.386627
0.532623 0.015289 0.389893
0.677155 0.019379 0.393433
0.788361 0.023773 0.397125
0.884674 0.028473 0.401093
0.035919 0.074554 0.374817
0.107544 0.078461 0.377747
0.214325 0.082794 0.380951
0.365387 0.087555 0.384399
0.539398 0.092743 0.388031
0.681152 0.098358 0.391876
0.790527 0.104340 0.395844
0.885620 0.110687 0.399902
0.040314 0.180969 0.368103
0.113403 0.187286 0.371338
0.222534 0.194092 0.374695
0.374634 0.201447 0.378357
0.546783 0.209229 0.382019
0.685425 0.217438 0.385834
0.792786 0.225983 0.389771
0.886536 0.234955 0.393738
0.045532 0.343719 0.355133
0.120239 0.351929 0.358582
0.231750 0.360504 0.362244
0.384644 0.369507 0.365936
0.554535 0.378723 0.369781
0.689819 0.388184 0.373688
0.795135 0.397736 0.377563
0.887512 0.407440 0.381500
0.051361 0.541992 0.338501
0.127808 0.549194 0.342438
0.241760 0.556519 0.346527
0.395325 0.563751 0.350708
0.562378 0.571075 0.354950
0.694214 0.578278 0.359131
0.797455 0.585297 0.363434
0.888489 0.592224 0.367584
0.057739 0.704315 0.327179
0.136078 0.708344 0.331726
0.252319 0.712433 0.336426
0.406189 0.716431 0.341003
0.570129 0.720398 0.345703
0.698486 0.724274 0.350281
0.799713 0.728058 0.354797
0.889374 0.731659 0.359222
0.064484 0.823730 0.321747
0.144745 0.825867 0.326660
0.263092 0.827972 0.331573
0.416962 0.830017 0.336395
0.577545 0.832092 0.341125
0.702576 0.834015 0.345703
0.801849 0.835907 0.350189
0.890228 0.837677 0.354462
0.071503 0.923859 0.318878
0.153717 0.924744 0.323944
0.273804 0.925568 0.328796
0.427368 0.926361 0.333557
0.584442 0.927124 0.338196
0.706360 0.927917 0.342621
0.803772 0.928589 0.346741
0.890930 0.929291 0.350586
0.033051 0.003357 0.557159
0.103546 0.006104 0.559021
0.208649 0.009308 0.561066
0.358612 0.012817 0.563354
0.533813 0.016754 0.565796
0.677917 0.020935 0.568359
0.788727 0.025482 0.571075
0.884857 0.030273 0.573853
0.036682 0.075928 0.552307
0.108551 0.079987 0.554504
0.215790 0.084503 0.556854
0.367004 0.089417 0.559326
0.540802 0.094757 0.561981
0.681946 0.100494 0.564636
0.790924 0.106598 0.567352
0.885742 0.113068 0.570129
0.041260 0.183228 0.543945
0.114594 0.189728 0.546265
0.224213 0.196716 0.548645
0.376434 0.204224 0.551086
0.548218 0.212158 0.553528
0.686218 0.220551 0.556061
0.793243 0.229248 0.558533
0.886719 0.238281 0.561035
0.046509 0.346649 0.529053
0.121582 0.355072 0.531372
0.233551 0.363770 0.533722
0.386658 0.372864 0.536194
0.556000 0.382172 0.538574
0.690582 0.391693 0.541016
0.795593 0.401276 0.543396
0.887726 0.411011 0.545807
0.052490 0.544647 0.510132
0.129303 0.551880 0.512756
0.243683 0.559174 0.515442
0.397308 0.566498 0.518158
0.563843 0.573761 0.520905
0.695007 0.580872 0.523590
0.797882 0.587891 0.526245
0.888672 0.594696 0.528778
0.058960 0.705780 0.496307
0.137695 0.709808 0.499420
0.254333 0.713867 0.502563
0.408173 0.717896 0.505676
0.571594 0.721863 0.508728
0.699280 0.725677 0.511658
0.800140 0.729401 0.514587
0.889557 0.733002 0.517303
0.065796 0.824493 0.488068
0.146454 0.826630 0.491394
0.265167 0.828735 0.494720
0.418915 0.830780 0.497864
0.578857 0.832794 0.501007
0.703308 0.834686 0.503967
0.802246 0.836578 0.506897
0.890350 0.838318 0.509521
0.072815 0.924164 0.482178
0.155396 0.925018 0.485565
0.275757 0.925842 0.488831
0.429230 0.926666 0.491943
0.585663 0.927429 0.494995
0.706970 0.928131 0.497803
0.804108 0.928833 0.500427
0.891083 0.929474 0.502838
0.033630 0.004303 0.704895
0.104370 0.007233 0.705780
0.209869 0.010559 0.706787
0.360077 0.014221 0.707886
0.535065 0.018250 0.709045
0.678650 0.022552 0.710297
0.789124 0.027191 0.711578
0.884979 0.032104 0.712830
0.037476 0.077332 0.698059
0.109589 0.081604 0.699097
0.217316 0.086273 0.700165
0.368683 0.091339 0.701263
0.542114 0.096832 0.702484
0.682709 0.102692 0.703613
0.791321 0.108948 0.704803
0.885925 0.115479 0.706024
0.042145 0.185547 0.687195
0.115845 0.192230 0.688141
0.225830 0.199402 0.689056
0.378296 0.207062 0.690002
0.549683 0.215210 0.690948
0.687042 0.223694 0.691895
0.793671 0.232544 0.692780
0.886902 0.241638 0.693665
0.047607 0.349670 0.669495
0.122986 0.358154 0.670319
0.235413 0.367035 0.671173
0.388611 0.376251 0.672028
0.557434 0.385620 0.672821
0.691437 0.395203 0.673645
0.795990 0.404907 0.674438
0.887878 0.414551 0.675262
0.053680 0.547302 0.647705
0.130859 0.554596 0.648804
0.245667 0.561829 0.649872
0.399353 0.569183 0.651001
0.565277 0.576385 0.652100
0.695831 0.583435 0.653259
0.798340 0.590363 0.654327
0.888824 0.597076 0.655457
0.060211 0.707275 0.630920
0.139282 0.711304 0.632477
0.256317 0.715363 0.633972
0.410217 0.719330 0.635559
0.572968 0.723267 0.637024
0.700043 0.727051 0.638519
0.800537 0.730743 0.639893
0.889709 0.734253 0.641266
0.067139 0.825287 0.619659
0.148102 0.827423 0.621399
0.267120 0.829468 0.623169
0.420929 0.831543 0.624878
0.580200 0.833496 0.626526
0.704041 0.835388 0.628082
0.802582 0.837219 0.629578
0.890533 0.838928 0.631012
0.074158 0.924469 0.610748
0.157013 0.925293 0.612640
0.277710 0.926117 0.614410
0.431152 0.926941 0.616119
0.586853 0.927704 0.617798
0.707611 0.928436 0.619324
0.804413 0.929077 0.620758
0.891235 0.929657 0.622070
0.034302 0.005310 0.819672
0.105255 0.008392 0.820007
0.211151 0.011841 0.820343
0.361572 0.015656 0.820648
0.536316 0.019806 0.821045
0.679352 0.024261 0.821472
0.789490 0.028961 0.821838
0.885132 0.033997 0.822205
0.038300 0.078857 0.811584
0.110718 0.083252 0.811859
0.218811 0.088074 0.812134
0.370392 0.093292 0.812408
0.543488 0.098907 0.812683
0.683502 0.104950 0.812958
0.791809 0.111298 0.813171
0.886108 0.118011 0.813446
0.043121 0.187897 0.799133
0.117126 0.194763 0.799194
0.227600 0.202179 0.799255
0.380157 0.210022 0.799286
0.551117 0.218292 0.799286
0.687836 0.226898 0.799255
0.794098 0.235840 0.799164
0.887085 0.245026 0.799072
0.048676 0.352692 0.779663
0.124390 0.361420 0.779602
0.237244 0.370331 0.779510
0.390564 0.379639 0.779388
0.558929 0.389069 0.779266
0.692261 0.398712 0.779083
0.796417 0.408478 0.778961
0.888031 0.418091 0.778778
0.054871 0.549927 0.756134
0.132385 0.557220 0.756287
0.247650 0.564514 0.756378
0.401367 0.571777 0.756622
0.566711 0.578979 0.756775
0.696625 0.586029 0.756897
0.798767 0.592896 0.757111
0.888977 0.599487 0.757324
0.061462 0.708771 0.737610
0.140930 0.712799 0.738220
0.258301 0.716827 0.738831
0.412292 0.720825 0.739380
0.574280 0.724670 0.739990
0.700836 0.728424 0.740540
0.800934 0.732025 0.741089
0.889862 0.735504 0.741608
0.068390 0.826080 0.724609
0.149750 0.828186 0.725403
0.269135 0.830231 0.726257
0.422852 0.832245 0.727020
0.581482 0.834229 0.727783
0.704773 0.836090 0.728516
0.802948 0.837860 0.729187
0.890656 0.839508 0.729858
0.075500 0.924805 0.713898
0.158691 0.925629 0.714874
0.279663 0.926422 0.715759
0.432922 0.927216 0.716644
0.587982 0.927979 0.717499
0.708221 0.928619 0.718262
0.804749 0.929321 0.718964
0.891357 0.929901 0.719604
0.034943 0.006409 0.920044
0.106201 0.009644 0.919891
0.212494 0.013184 0.919800
0.363159 0.017151 0.919647
0.537567 0.021362 0.919434
0.680115 0.025940 0.919281
0.789917 0.030792 0.919067
0.885345 0.035858 0.918823
0.039124 0.080444 0.911072
0.111786 0.084961 0.910797
0.220367 0.089935 0.910522
0.372131 0.095337 0.910217
0.544891 0.101105 0.909882
0.684296 0.107208 0.909546
0.792206 0.113739 0.909119
0.886292 0.120544 0.908691
0.044159 0.190399 0.897461
0.118378 0.197449 0.896973
0.229370 0.204987 0.896393
0.382050 0.213013 0.895782
0.552551 0.221436 0.895142
0.688660 0.230133 0.894470
0.794525 0.239197 0.893768
0.887238 0.248413 0.893005
0.049774 0.355804 0.876770
0.125824 0.364624 0.876068
0.239136 0.373688 0.875366
0.392548 0.383087 0.874573
0.560425 0.392670 0.873810
0.693115 0.402252 0.873016
0.796906 0.411957 0.872253
0.888214 0.421631 0.871368
0.056000 0.552582 0.852081
0.133942 0.559906 0.851593
0.249603 0.567200 0.851105
0.403442 0.574432 0.850616
0.568207 0.581573 0.850220
0.697449 0.588562 0.849670
0.799164 0.595398 0.849274
0.889130 0.601837 0.848846
0.062775 0.710266 0.832520
0.142548 0.714325 0.832428
0.260345 0.718292 0.832397
0.414276 0.722229 0.832306
0.575684 0.726044 0.832275
0.701569 0.729767 0.832214
0.801300 0.733307 0.832184
0.890015 0.736664 0.832123
0.069733 0.826843 0.818268
0.151428 0.828949 0.818451
0.271088 0.830994 0.818634
0.424774 0.832977 0.818817
0.582733 0.834930 0.819000
0.705414 0.836731 0.819122
0.803314 0.838470 0.819244
0.890808 0.840088 0.819427
0.076813 0.925079 0.806427
0.160309 0.925934 0.806702
0.281555 0.926727 0.807037
0.434692 0.927490 0.807343
0.589111 0.928223 0.807587
0.708832 0.928894 0.807892
0.805023 0.929535 0.808105
0.891449 0.930115 0.808350
