examples/luts/Chemical 168.CUBE
#Created by: Adobe Photoshop Export Color Lookup Plugin
#Copyright: (C) Copyright 2017 RocketStock
TITLE "Untitled"
#LUT size
LUT_3D_SIZE 5
#data domain
#LUT data points
DOMAIN_MIN 0.000000 0.000000 0.000000
DOMAIN_MAX 0.903226 0.903226 0.903226
0.030975 0.000000 0.042267
0.173859 0.004028 0.044220
0.440552 0.009430 0.046722
0.705536 0.015869 0.049774
0.884186 0.023315 0.053314
0.036713 0.143982 0.029114
0.184631 0.153015 0.031860
0.454254 0.163727 0.034912
0.711456 0.175964 0.038300
0.885742 0.189575 0.041931
0.045166 0.432770 0.000000
0.199066 0.446899 0.002930
0.470612 0.462006 0.006378
0.717987 0.477661 0.010040
0.887451 0.493469 0.013916
0.055725 0.733307 0.000000
0.216095 0.739349 0.000000
0.488098 0.745483 0.000000
0.724548 0.751404 0.000000
0.889099 0.757080 0.000000
0.067596 0.922882 0.000000
0.234283 0.924408 0.000000
0.504791 0.925873 0.000000
0.730621 0.927216 0.000000
0.890564 0.928528 0.000000
0.031830 0.001343 0.193146
0.175537 0.005859 0.196686
0.442841 0.011658 0.201141
0.706543 0.018494 0.206482
0.884460 0.026306 0.212524
0.038086 0.147064 0.183380
0.187042 0.156738 0.188324
0.457184 0.168030 0.193848
0.712616 0.180786 0.199951
0.886047 0.194824 0.206360
0.046967 0.437775 0.158569
0.202087 0.452362 0.164398
0.473846 0.467651 0.170685
0.719208 0.483490 0.177246
0.887787 0.499237 0.184052
0.057831 0.735535 0.135620
0.219391 0.741608 0.143463
0.491333 0.747650 0.151489
0.725739 0.753510 0.159546
0.889374 0.759064 0.167480
0.069885 0.923431 0.128357
0.237671 0.924957 0.137054
0.507721 0.926392 0.145477
0.731659 0.927734 0.153503
0.890808 0.928955 0.160828
0.032715 0.002869 0.467682
0.177399 0.007874 0.471832
0.445251 0.014038 0.476929
0.707642 0.021271 0.482727
0.884766 0.029388 0.489044
0.039551 0.150452 0.458984
0.189606 0.160736 0.464355
0.460114 0.172546 0.470184
0.713837 0.185822 0.476318
0.886414 0.200256 0.482605
0.048859 0.443024 0.434784
0.205139 0.457886 0.440674
0.477081 0.473419 0.446838
0.720459 0.489258 0.452911
0.888062 0.505005 0.458893
0.060028 0.737732 0.412231
0.222809 0.743835 0.419586
0.494446 0.749847 0.426910
0.726929 0.755615 0.433807
0.889648 0.761017 0.440399
0.072144 0.924011 0.403992
0.241089 0.925507 0.411530
0.510498 0.926910 0.418640
0.732666 0.928192 0.425110
0.891022 0.929382 0.430847
0.033783 0.004517 0.735901
0.179382 0.010010 0.737213
0.447815 0.016571 0.738739
0.708710 0.024139 0.740448
0.885040 0.032593 0.742249
0.041168 0.153992 0.720825
0.192261 0.164825 0.722107
0.463165 0.177246 0.723389
0.715057 0.190948 0.724609
0.886719 0.205841 0.725800
0.050842 0.448395 0.688080
0.208313 0.463562 0.689117
0.480347 0.479187 0.690186
0.721710 0.495087 0.691254
0.888367 0.510620 0.692261
0.062225 0.739990 0.656219
0.226166 0.746063 0.658569
0.497589 0.752014 0.660797
0.728058 0.757660 0.663025
0.889954 0.762909 0.665039
0.074493 0.924561 0.638306
0.244415 0.926025 0.641083
0.513275 0.927399 0.643585
0.733582 0.928619 0.645935
0.891266 0.929749 0.647980
0.034943 0.006409 0.920044
0.181458 0.012299 0.919800
0.450470 0.019226 0.919525
0.709839 0.027130 0.919220
0.885345 0.035858 0.918823
0.042786 0.157806 0.901489
0.195099 0.169250 0.900726
0.466339 0.182159 0.899811
0.716309 0.196289 0.898773
0.887024 0.211426 0.897552
0.052856 0.453796 0.864502
0.211578 0.469269 0.863281
0.483612 0.484985 0.862030
0.722931 0.500885 0.860779
0.888702 0.516113 0.859558
0.064484 0.742218 0.828583
0.229614 0.748260 0.828613
0.500671 0.754089 0.828644
0.729126 0.759583 0.828674
0.890228 0.764679 0.828705
0.076813 0.925079 0.806427
0.247681 0.926575 0.806915
0.515869 0.927887 0.807495
0.734528 0.929077 0.807953
0.891449 0.930115 0.808350
