examples/luts/Chemical 168.CUBE
#Created by: Adobe Photoshop Export Color Lookup Plugin
#Copyright: (C) Copyright 2017 RocketStock
TITLE "Untitled"
#LUT size
LUT_3D_SIZE 32
#data domain
DOMAIN_MIN 0.0 0.0 0.0
DOMAIN_MAX 1.0 1.0 1.0
#LUT data points
0.030975 0.000000 0.042267
0.046356 0.000519 0.042511
0.062866 0.001007 0.042755
0.080841 0.001587 0.043030
0.100555 0.002167 0.043304
0.122345 0.002777 0.043579
0.146667 0.003418 0.043854
0.173859 0.004028 0.044220
0.204193 0.004761 0.044525
0.237457 0.005463 0.044861
0.273529 0.006195 0.045227
0.312256 0.006989 0.045563
0.353241 0.007782 0.045959
0.396088 0.008575 0.046326
0.440552 0.009430 0.046722
0.485718 0.010254 0.047119
0.529175 0.011139 0.047546
0.569794 0.012054 0.048004
0.607635 0.012970 0.048431
0.642609 0.013916 0.048828
0.675140 0.014893 0.049347
0.705536 0.015869 0.049774
0.734161 0.016876 0.050232
0.761292 0.017914 0.050751
0.787201 0.018921 0.051239
0.812164 0.020020 0.051758
0.836487 0.021118 0.052246
0.860352 0.022217 0.052734
0.884186 0.023315 0.053314
0.908325 0.024475 0.053833
0.933258 0.025635 0.054382
0.959961 0.026825 0.054932
0.031555 0.015991 0.040802
0.047028 0.016602 0.041077
0.063599 0.017151 0.041351
0.081665 0.017792 0.041626
0.101440 0.018402 0.041931
0.123413 0.019073 0.042236
0.147797 0.019775 0.042572
0.175110 0.020508 0.042877
0.205536 0.021240 0.043243
0.238953 0.022003 0.043579
0.275146 0.022797 0.043976
0.313904 0.023651 0.044342
0.354950 0.024506 0.044769
0.397827 0.025360 0.045135
0.442291 0.026245 0.045563
0.487335 0.027130 0.046021
0.530670 0.028107 0.046417
0.571136 0.029053 0.046844
0.608795 0.030029 0.047333
0.643616 0.031036 0.047791
0.676056 0.032104 0.048248
0.706329 0.033142 0.048737
0.734833 0.034180 0.049255
0.761902 0.035309 0.049774
0.787659 0.036377 0.050232
0.812592 0.037567 0.050751
0.836792 0.038727 0.051300
0.860687 0.039886 0.051819
0.884369 0.041077 0.052368
0.908417 0.042267 0.052856
0.933319 0.043488 0.053467
0.959961 0.044769 0.053986
0.032318 0.032898 0.039307
0.047791 0.033569 0.039581
0.064423 0.034180 0.039856
0.082581 0.034882 0.040161
0.102448 0.035583 0.040527
0.124512 0.036346 0.040802
0.149017 0.037109 0.041168
0.176483 0.037872 0.041504
0.207031 0.038727 0.041901
0.240570 0.039581 0.042297
0.276917 0.040436 0.042664
0.315704 0.041321 0.043060
0.356750 0.042267 0.043457
0.399689 0.043182 0.043884
0.444092 0.044159 0.044312
0.489075 0.045135 0.044769
0.532257 0.046173 0.045197
0.572540 0.047211 0.045685
0.610016 0.048279 0.046112
0.644745 0.049347 0.046600
0.677002 0.050446 0.047119
0.707123 0.051605 0.047577
0.735535 0.052734 0.048126
0.762482 0.053955 0.048615
0.788239 0.055115 0.049103
0.813049 0.056335 0.049652
0.837158 0.057587 0.050201
0.860931 0.058838 0.050720
0.884644 0.060120 0.051270
0.908600 0.061432 0.051819
0.933441 0.062744 0.052368
0.959961 0.064117 0.052948
0.033081 0.051056 0.037659
0.048615 0.051788 0.037964
0.065338 0.052490 0.038300
0.083557 0.053253 0.038605
0.103546 0.054077 0.038971
0.125671 0.054871 0.039276
0.150360 0.055756 0.039673
0.177948 0.056610 0.040039
0.208649 0.057526 0.040405
0.242279 0.058411 0.040833
0.278656 0.059418 0.041199
0.317566 0.060364 0.041626
0.358673 0.061401 0.042084
0.401611 0.062408 0.042480
0.446014 0.063507 0.042938
0.490875 0.064575 0.043396
0.533813 0.065674 0.043823
0.573975 0.066833 0.044312
0.611267 0.067993 0.044800
0.645813 0.069153 0.045319
0.677948 0.070404 0.045776
0.707916 0.071625 0.046295
0.736267 0.072876 0.046814
0.763062 0.074158 0.047333
0.788727 0.075439 0.047852
0.813446 0.076782 0.048340
0.837524 0.078094 0.048920
0.861237 0.079468 0.049469
0.884888 0.080872 0.050018
0.908783 0.082275 0.050568
0.933502 0.083710 0.051117
0.959961 0.085175 0.051666
0.033875 0.070770 0.035919
0.049469 0.071625 0.036194
0.066254 0.072418 0.036591
0.084564 0.073303 0.036896
0.104706 0.074188 0.037231
0.126953 0.075104 0.037628
0.151794 0.076050 0.037964
0.179504 0.077026 0.038391
0.210358 0.078033 0.038788
0.244080 0.079071 0.039185
0.280518 0.080139 0.039612
0.319519 0.081207 0.040009
0.360657 0.082336 0.040497
0.403595 0.083496 0.040924
0.447968 0.084656 0.041351
0.492737 0.085846 0.041840
0.535522 0.087097 0.042297
0.575470 0.088379 0.042816
0.612579 0.089600 0.043243
0.646973 0.090912 0.043762
0.678894 0.092255 0.044250
0.708771 0.093567 0.044800
0.736969 0.094971 0.045288
0.763672 0.096344 0.045776
0.789276 0.097778 0.046326
0.813965 0.099243 0.046875
0.837891 0.100677 0.047394
0.861542 0.102203 0.047943
0.885040 0.103760 0.048492
0.908936 0.105225 0.049042
0.933594 0.106812 0.049622
0.959961 0.108459 0.050201
0.034760 0.092529 0.033936
0.050415 0.093445 0.034241
0.067322 0.094391 0.034607
0.085693 0.095367 0.034973
0.105927 0.096375 0.035339
0.128296 0.097412 0.035736
0.153259 0.098511 0.036102
0.181122 0.099579 0.036530
0.212097 0.100708 0.036896
0.245972 0.101898 0.037323
0.282501 0.103058 0.037750
0.321533 0.104279 0.038208
0.362640 0.105499 0.038635
0.405701 0.106750 0.039093
0.450043 0.108093 0.039581
0.494629 0.109406 0.040039
0.537231 0.110779 0.040497
0.576965 0.112152 0.041016
0.613892 0.113556 0.041473
0.648132 0.115021 0.041962
0.679932 0.116486 0.042480
0.709625 0.117981 0.042969
0.737732 0.119507 0.043457
0.764343 0.121033 0.043976
0.789795 0.122589 0.044495
0.814392 0.124207 0.045074
0.838287 0.125793 0.045624
0.861847 0.127441 0.046143
0.885284 0.129150 0.046692
0.909088 0.130798 0.047272
0.933655 0.132538 0.047821
0.959961 0.134277 0.048401
0.035706 0.116760 0.031708
0.051453 0.117767 0.032043
0.068390 0.118866 0.032410
0.086884 0.119965 0.032776
0.107208 0.121124 0.033142
0.129730 0.122314 0.033539
0.154785 0.123535 0.033936
0.182831 0.124756 0.034332
0.213928 0.126007 0.034760
0.247894 0.127319 0.035187
0.284515 0.128632 0.035614
0.323639 0.130005 0.036072
0.364807 0.131348 0.036499
0.407837 0.132782 0.036987
0.452087 0.134277 0.037445
0.496582 0.135742 0.037872
0.538971 0.137238 0.038391
0.578522 0.138794 0.038849
0.615234 0.140350 0.039337
0.649292 0.141968 0.039825
0.680878 0.143555 0.040314
0.710541 0.145233 0.040833
0.738495 0.146973 0.041321
0.764984 0.148621 0.041840
0.790375 0.150391 0.042389
0.814819 0.152161 0.042908
0.838684 0.153900 0.043457
0.862122 0.155731 0.044006
0.885529 0.157562 0.044556
0.909210 0.159424 0.045044
0.933746 0.161316 0.045624
0.959961 0.163208 0.046204
0.036713 0.143982 0.029114
0.052490 0.145142 0.029480
0.069550 0.146393 0.029846
0.088135 0.147644 0.030243
0.108551 0.148895 0.030609
0.131195 0.150269 0.030975
0.156403 0.151642 0.031433
0.184631 0.153015 0.031860
0.215851 0.154480 0.032257
0.249878 0.155914 0.032654
0.286682 0.157410 0.033081
0.325806 0.158936 0.033600
0.367035 0.160492 0.033966
0.410004 0.162079 0.034454
0.454254 0.163727 0.034912
0.498627 0.165344 0.035400
0.540802 0.167053 0.035858
0.580109 0.168823 0.036285
0.616608 0.170502 0.036804
0.650452 0.172302 0.037323
0.681946 0.174103 0.037781
0.711456 0.175964 0.038300
0.739288 0.177795 0.038788
0.765656 0.179657 0.039276
0.790924 0.181610 0.039825
0.815338 0.183563 0.040375
0.839050 0.185516 0.040863
0.862457 0.187531 0.041412
0.885742 0.189575 0.041931
0.909393 0.191589 0.042480
0.933838 0.193665 0.043030
0.959961 0.195709 0.043549
0.037750 0.174744 0.026154
0.053650 0.176086 0.026520
0.070740 0.177490 0.026886
0.089478 0.178955 0.027252
0.109985 0.180389 0.027649
0.132751 0.181915 0.028076
0.158112 0.183411 0.028412
0.186493 0.185028 0.028870
0.217834 0.186615 0.029297
0.252045 0.188232 0.029724
0.288849 0.189911 0.030151
0.328033 0.191650 0.030609
0.369293 0.193390 0.031036
0.412292 0.195190 0.031494
0.456451 0.196960 0.031982
0.500702 0.198792 0.032410
0.542633 0.200684 0.032867
0.581726 0.202576 0.033356
0.618011 0.204468 0.033813
0.651672 0.206451 0.034302
0.683014 0.208374 0.034821
0.712341 0.210419 0.035278
0.740082 0.212463 0.035828
0.766357 0.214508 0.036316
0.791473 0.216583 0.036804
0.815796 0.218719 0.037323
0.839447 0.220795 0.037811
0.862762 0.222961 0.038391
0.885956 0.225159 0.038940
0.909576 0.227325 0.039429
0.933960 0.229553 0.039948
0.959961 0.231750 0.040497
0.038879 0.209534 0.022705
0.054810 0.210999 0.023071
0.072052 0.212585 0.023468
0.090820 0.214172 0.023834
0.111481 0.215790 0.024231
0.134369 0.217468 0.024628
0.159882 0.219177 0.025055
0.188416 0.220917 0.025482
0.219910 0.222687 0.025848
0.254211 0.224457 0.026306
0.291077 0.226288 0.026733
0.330383 0.228180 0.027191
0.371643 0.230072 0.027649
0.414581 0.232025 0.028076
0.458771 0.233978 0.028534
0.502808 0.235962 0.028961
0.544495 0.237946 0.029449
0.583313 0.239960 0.029907
0.619446 0.242096 0.030396
0.652924 0.244202 0.030914
0.684052 0.246277 0.031403
0.713287 0.248413 0.031891
0.740814 0.250610 0.032379
0.767029 0.252808 0.032837
0.792053 0.255005 0.033386
0.816254 0.257263 0.033905
0.839844 0.259491 0.034424
0.863068 0.261810 0.034912
0.886261 0.264038 0.035461
0.909729 0.266357 0.035980
0.933990 0.268738 0.036469
0.959961 0.271027 0.037018
0.040009 0.248047 0.018829
0.056000 0.249756 0.019226
0.073364 0.251465 0.019592
0.092255 0.253143 0.019989
0.113007 0.254913 0.020386
0.136078 0.256744 0.020813
0.161743 0.258575 0.021179
0.190399 0.260437 0.021606
0.222076 0.262390 0.022034
0.256439 0.264252 0.022461
0.293427 0.266235 0.022919
0.332764 0.268280 0.023315
0.373993 0.270264 0.023773
0.416962 0.272339 0.024231
0.461060 0.274384 0.024658
0.504944 0.276520 0.025146
0.546326 0.278656 0.025604
0.584991 0.280762 0.026093
0.620880 0.282990 0.026581
0.654175 0.285217 0.027069
0.685150 0.287415 0.027557
0.714233 0.289673 0.028046
0.741638 0.291992 0.028534
0.767700 0.294220 0.029083
0.792633 0.296570 0.029572
0.816772 0.298920 0.030090
0.840240 0.301178 0.030609
0.863403 0.303558 0.031128
0.886475 0.305908 0.031616
0.909851 0.308319 0.032135
0.934082 0.310760 0.032684
0.959961 0.313141 0.033173
0.041290 0.290131 0.014526
0.057312 0.291870 0.014923
0.074768 0.293732 0.015320
0.093750 0.295563 0.015717
0.114624 0.297424 0.016113
0.137817 0.299377 0.016541
0.163605 0.301331 0.016968
0.192474 0.303284 0.017395
0.224243 0.305328 0.017822
0.258728 0.307343 0.018219
0.295807 0.309418 0.018677
0.335205 0.311523 0.019135
0.376495 0.313599 0.019562
0.419373 0.315765 0.020050
0.463348 0.317902 0.020477
0.507080 0.320129 0.020966
0.548248 0.322357 0.021454
0.586670 0.324554 0.021942
0.622345 0.326843 0.022430
0.655426 0.329163 0.022919
0.686218 0.331360 0.023407
0.715149 0.333740 0.023926
0.742432 0.336090 0.024445
0.768372 0.338379 0.024902
0.793274 0.340790 0.025452
0.817230 0.343079 0.025940
0.840668 0.345551 0.026459
0.863739 0.347961 0.026978
0.886719 0.350281 0.027527
0.910004 0.352753 0.028046
0.934174 0.355225 0.028564
0.959961 0.357605 0.029083
0.042511 0.335266 0.009888
0.058655 0.337097 0.010284
0.076172 0.338989 0.010681
0.095245 0.340942 0.011108
0.116302 0.342926 0.011536
0.139648 0.344940 0.011963
0.165649 0.346954 0.012360
0.194611 0.348999 0.012787
0.226532 0.351074 0.013275
0.261139 0.353149 0.013672
0.298248 0.355316 0.014130
0.337677 0.357452 0.014587
0.378937 0.359619 0.015045
0.421844 0.361816 0.015533
0.465729 0.364014 0.015991
0.509247 0.366272 0.016479
0.550171 0.368591 0.016968
0.588348 0.370819 0.017456
0.623810 0.373138 0.017944
0.656708 0.375458 0.018494
0.687317 0.377747 0.018982
0.716095 0.380127 0.019440
0.743256 0.382507 0.019989
0.769073 0.384827 0.020508
0.793823 0.387238 0.021027
0.817719 0.389557 0.021515
0.841064 0.391998 0.022095
0.864044 0.394440 0.022583
0.886963 0.396790 0.023132
0.910217 0.399231 0.023651
0.934296 0.401672 0.024200
0.959961 0.404022 0.024750
0.043793 0.382996 0.004944
0.060028 0.384918 0.005371
0.077637 0.386871 0.005798
0.096832 0.388855 0.006226
0.118042 0.390869 0.006653
0.141510 0.392944 0.007080
0.167664 0.394958 0.007507
0.196838 0.397064 0.007965
0.228851 0.399200 0.008392
0.263550 0.401276 0.008881
0.300781 0.403442 0.009338
0.340179 0.405609 0.009796
0.381500 0.407806 0.010284
0.424377 0.410034 0.010773
0.468201 0.412231 0.011292
0.511444 0.414520 0.011749
0.552094 0.416809 0.012268
0.590088 0.419037 0.012756
0.625275 0.421356 0.013306
0.657990 0.423645 0.013794
0.688416 0.425934 0.014313
0.717010 0.428284 0.014832
0.744049 0.430664 0.015289
0.769775 0.432953 0.015869
0.794403 0.435333 0.016418
0.818237 0.437683 0.016937
0.841461 0.440033 0.017487
0.864380 0.442444 0.018036
0.887207 0.444763 0.018585
0.910400 0.447144 0.019135
0.934357 0.449585 0.019684
0.959961 0.451874 0.020233
0.045166 0.432770 0.000000
0.061493 0.434723 0.000244
0.079193 0.436737 0.000671
0.098450 0.438690 0.001099
0.119781 0.440735 0.001526
0.143402 0.442780 0.002014
0.169769 0.444824 0.002472
0.199066 0.446899 0.002930
0.231171 0.448975 0.003387
0.266022 0.451111 0.003876
0.303284 0.453308 0.004395
0.342773 0.455414 0.004883
0.384064 0.457581 0.005371
0.426941 0.459808 0.005859
0.470612 0.462006 0.006378
0.513641 0.464233 0.006866
0.554077 0.466400 0.007416
0.591766 0.468658 0.007904
0.626770 0.470886 0.008453
0.659241 0.473175 0.008972
0.689545 0.475403 0.009491
0.717987 0.477661 0.010040
0.744843 0.479889 0.010620
0.770477 0.482178 0.011139
0.795013 0.484436 0.011688
0.818726 0.486664 0.012238
0.841858 0.488953 0.012787
0.864655 0.491272 0.013367
0.887451 0.493469 0.013916
0.910553 0.495728 0.014496
0.934448 0.498016 0.015076
0.959961 0.500183 0.015625
0.046539 0.483826 0.000000
0.062958 0.485779 0.000000
0.080780 0.487732 0.000000
0.100159 0.489624 0.000000
0.121582 0.491608 0.000000
0.145355 0.493622 0.000000
0.171906 0.495605 0.000000
0.201355 0.497650 0.000000
0.233643 0.499664 0.000000
0.268555 0.501678 0.000000
0.305908 0.503784 0.000000
0.345337 0.505829 0.000000
0.386688 0.507874 0.000336
0.429443 0.509979 0.000916
0.473053 0.512024 0.001465
0.515839 0.514099 0.001984
0.556030 0.516144 0.002533
0.593445 0.518188 0.003113
0.628235 0.520294 0.003662
0.660492 0.522339 0.004211
0.690674 0.524445 0.004791
0.718903 0.526520 0.005371
0.745697 0.528534 0.005951
0.771149 0.530579 0.006500
0.795593 0.532684 0.007111
0.819214 0.534698 0.007690
0.842285 0.536743 0.008301
0.865021 0.538757 0.008881
0.887726 0.540741 0.009491
0.910675 0.542786 0.010101
0.934509 0.544739 0.010681
0.959961 0.546753 0.011292
0.047974 0.534241 0.000000
0.064484 0.535980 0.000000
0.082336 0.537811 0.000000
0.101929 0.539490 0.000000
0.123474 0.541290 0.000000
0.147430 0.543060 0.000000
0.174072 0.544861 0.000000
0.203705 0.546661 0.000000
0.236084 0.548462 0.000000
0.271088 0.550262 0.000000
0.308502 0.552124 0.000000
0.347992 0.553894 0.000000
0.389313 0.555756 0.000000
0.432068 0.557587 0.000000
0.475555 0.559387 0.000000
0.518097 0.561249 0.000000
0.558014 0.563141 0.000000
0.595184 0.564880 0.000000
0.629730 0.566772 0.000000
0.661804 0.568604 0.000000
0.691742 0.570312 0.000488
0.719879 0.572174 0.001068
0.746521 0.573944 0.001678
0.771820 0.575775 0.002350
0.796143 0.577606 0.002991
0.819702 0.579315 0.003571
0.842651 0.581146 0.004211
0.865295 0.582886 0.004852
0.887939 0.584656 0.005463
0.910889 0.586395 0.006134
0.934601 0.588135 0.006744
0.959961 0.589844 0.007416
0.049469 0.581024 0.000000
0.066040 0.582611 0.000000
0.083984 0.584198 0.000000
0.103699 0.585724 0.000000
0.125427 0.587250 0.000000
0.149536 0.588867 0.000000
0.176331 0.590393 0.000000
0.206055 0.592041 0.000000
0.238617 0.593567 0.000000
0.273712 0.595215 0.000000
0.311188 0.596802 0.000000
0.350708 0.598358 0.000000
0.391968 0.599976 0.000000
0.434692 0.601593 0.000000
0.478058 0.603149 0.000000
0.520294 0.604767 0.000000
0.559998 0.606415 0.000000
0.596924 0.607941 0.000000
0.631195 0.609558 0.000000
0.663086 0.611145 0.000000
0.692841 0.612671 0.000000
0.720825 0.614258 0.000000
0.747345 0.615784 0.000000
0.772552 0.617371 0.000000
0.796783 0.618927 0.000000
0.820190 0.620483 0.000000
0.843079 0.622009 0.000610
0.865631 0.623566 0.001282
0.888153 0.625031 0.001923
0.911011 0.626587 0.002594
0.934723 0.628021 0.003235
0.959961 0.629486 0.003937
0.050964 0.624176 0.000000
0.067657 0.625519 0.000000
0.085724 0.626862 0.000000
0.105499 0.628235 0.000000
0.127350 0.629608 0.000000
0.151611 0.630951 0.000000
0.178619 0.632355 0.000000
0.208557 0.633728 0.000000
0.241150 0.635040 0.000000
0.276367 0.636475 0.000000
0.313873 0.637878 0.000000
0.353394 0.639221 0.000000
0.394653 0.640625 0.000000
0.437286 0.641998 0.000000
0.480530 0.643372 0.000000
0.522552 0.644745 0.000000
0.561981 0.646118 0.000000
0.598633 0.647430 0.000000
0.632721 0.648834 0.000000
0.664337 0.650146 0.000000
0.693970 0.651550 0.000000
0.721771 0.652924 0.000000
0.748138 0.654205 0.000000
0.773224 0.655579 0.000000
0.797333 0.656891 0.000000
0.820648 0.658203 0.000000
0.843445 0.659546 0.000000
0.865936 0.660858 0.000000
0.888428 0.662109 0.000000
0.911194 0.663361 0.000000
0.934814 0.664642 0.000183
0.959961 0.665894 0.000885
0.052490 0.663635 0.000000
0.069244 0.664795 0.000000
0.087463 0.665955 0.000000
0.107361 0.667114 0.000000
0.129364 0.668365 0.000000
0.153778 0.669495 0.000000
0.180969 0.670685 0.000000
0.211029 0.671875 0.000000
0.243713 0.673035 0.000000
0.279083 0.674225 0.000000
0.316620 0.675446 0.000000
0.356110 0.676605 0.000000
0.397369 0.677795 0.000000
0.439941 0.678955 0.000000
0.483063 0.680115 0.000000
0.524780 0.681335 0.000000
0.563843 0.682495 0.000000
0.600342 0.683685 0.000000
0.634155 0.684814 0.000000
0.665588 0.685974 0.000000
0.695038 0.687134 0.000000
0.722717 0.688324 0.000000
0.748901 0.689453 0.000000
0.773895 0.690582 0.000000
0.797882 0.691742 0.000000
0.821136 0.692841 0.000000
0.843872 0.693939 0.000000
0.866241 0.695038 0.000000
0.888672 0.696167 0.000000
0.911346 0.697266 0.000000
0.934875 0.698334 0.000000
0.959961 0.699402 0.000000
0.054077 0.699860 0.000000
0.070923 0.700836 0.000000
0.089203 0.701843 0.000000
0.109283 0.702850 0.000000
0.131378 0.703888 0.000000
0.155975 0.704865 0.000000
0.183289 0.705933 0.000000
0.213501 0.706970 0.000000
0.246338 0.707947 0.000000
0.281738 0.708984 0.000000
0.319336 0.709991 0.000000
0.358887 0.710999 0.000000
0.400085 0.712006 0.000000
0.442596 0.713013 0.000000
0.485565 0.714050 0.000000
0.527008 0.715057 0.000000
0.565826 0.716003 0.000000
0.602051 0.717041 0.000000
0.635620 0.718048 0.000000
0.666870 0.719025 0.000000
0.696106 0.720001 0.000000
0.723663 0.721008 0.000000
0.749695 0.721985 0.000000
0.774597 0.722931 0.000000
0.798492 0.723907 0.000000
0.821625 0.724854 0.000000
0.844208 0.725800 0.000000
0.866577 0.726746 0.000000
0.888855 0.727722 0.000000
0.911530 0.728607 0.000000
0.934967 0.729492 0.000000
0.959961 0.730438 0.000000
0.055725 0.733307 0.000000
0.072632 0.734192 0.000000
0.091003 0.735016 0.000000
0.111206 0.735901 0.000000
0.133484 0.736786 0.000000
0.158203 0.737610 0.000000
0.185730 0.738495 0.000000
0.216095 0.739349 0.000000
0.249054 0.740234 0.000000
0.284424 0.741119 0.000000
0.322083 0.742004 0.000000
0.361603 0.742859 0.000000
0.402802 0.743744 0.000000
0.445221 0.744568 0.000000
0.488098 0.745483 0.000000
0.529236 0.746338 0.000000
0.567780 0.747162 0.000000
0.603699 0.748016 0.000000
0.637085 0.748901 0.000000
0.668121 0.749725 0.000000
0.697205 0.750580 0.000000
0.724548 0.751404 0.000000
0.750488 0.752228 0.000000
0.775238 0.753052 0.000000
0.799042 0.753876 0.000000
0.822083 0.754700 0.000000
0.844635 0.755524 0.000000
0.866821 0.756287 0.000000
0.889099 0.757080 0.000000
0.911713 0.757874 0.000000
0.935089 0.758667 0.000000
0.959961 0.759399 0.000000
0.057312 0.764465 0.000000
0.074310 0.765198 0.000000
0.092834 0.765900 0.000000
0.113159 0.766663 0.000000
0.135590 0.767426 0.000000
0.160492 0.768188 0.000000
0.188171 0.768921 0.000000
0.218597 0.769684 0.000000
0.251648 0.770386 0.000000
0.287170 0.771149 0.000000
0.324829 0.771881 0.000000
0.364410 0.772614 0.000000
0.405518 0.773376 0.000000
0.447845 0.774109 0.000000
0.490540 0.774841 0.000000
0.531372 0.775574 0.000000
0.569641 0.776276 0.000000
0.605377 0.777039 0.000000
0.638519 0.777740 0.000000
0.669373 0.778473 0.000000
0.698242 0.779175 0.000000
0.725464 0.779907 0.000000
0.751282 0.780609 0.000000
0.775940 0.781281 0.000000
0.799591 0.781952 0.000000
0.822540 0.782654 0.000000
0.845001 0.783356 0.000000
0.867157 0.783997 0.000000
0.889313 0.784698 0.000000
0.911835 0.785370 0.000000
0.935150 0.785980 0.000000
0.959961 0.786621 0.000000
0.058960 0.793701 0.000000
0.076080 0.794342 0.000000
0.094727 0.794952 0.000000
0.115143 0.795563 0.000000
0.137726 0.796234 0.000000
0.162781 0.796844 0.000000
0.190613 0.797485 0.000000
0.221222 0.798126 0.000000
0.254364 0.798767 0.000000
0.289917 0.799377 0.000000
0.327606 0.799988 0.000000
0.367157 0.800659 0.000000
0.408295 0.801239 0.000000
0.450470 0.801880 0.000000
0.492981 0.802551 0.000000
0.533539 0.803131 0.000000
0.571594 0.803741 0.000000
0.607025 0.804352 0.000000
0.639923 0.804993 0.000000
0.670593 0.805542 0.000000
0.699310 0.806152 0.000000
0.726379 0.806763 0.000000
0.752075 0.807373 0.000000
0.776581 0.807922 0.000000
0.800140 0.808533 0.000000
0.822968 0.809113 0.000000
0.845367 0.809692 0.000000
0.867432 0.810242 0.000000
0.889557 0.810791 0.000000
0.911987 0.811371 0.000000
0.935211 0.811920 0.000000
0.959961 0.812439 0.000000
0.060638 0.821381 0.000000
0.077881 0.821899 0.000000
0.096588 0.822418 0.000000
0.117188 0.822998 0.000000
0.139893 0.823517 0.000000
0.165100 0.824036 0.000000
0.193146 0.824615 0.000000
0.223816 0.825104 0.000000
0.257050 0.825653 0.000000
0.292694 0.826141 0.000000
0.330353 0.826721 0.000000
0.369904 0.827209 0.000000
0.410950 0.827759 0.000000
0.453125 0.828308 0.000000
0.495422 0.828827 0.000000
0.535675 0.829315 0.000000
0.573456 0.829834 0.000000
0.608612 0.830353 0.000000
0.641357 0.830872 0.000000
0.671814 0.831329 0.000000
0.700317 0.831879 0.000000
0.727264 0.832367 0.000000
0.752808 0.832825 0.000000
0.777222 0.833344 0.000000
0.800720 0.833832 0.000000
0.823456 0.834320 0.000000
0.845734 0.834778 0.000000
0.867767 0.835236 0.000000
0.889771 0.835724 0.000000
0.912109 0.836182 0.000000
0.935303 0.836639 0.000000
0.959961 0.837067 0.000000
0.062408 0.847839 0.000000
0.079651 0.848267 0.000000
0.098480 0.848724 0.000000
0.119202 0.849152 0.000000
0.142090 0.849640 0.000000
0.167419 0.850037 0.000000
0.195618 0.850494 0.000000
0.226410 0.850922 0.000000
0.259766 0.851379 0.000000
0.295410 0.851837 0.000000
0.333160 0.852234 0.000000
0.372711 0.852692 0.000000
0.413696 0.853149 0.000000
0.455688 0.853577 0.000000
0.497833 0.854004 0.000000
0.537811 0.854431 0.000000
0.575348 0.854858 0.000000
0.610229 0.855286 0.000000
0.642731 0.855713 0.000000
0.672974 0.856110 0.000000
0.701355 0.856537 0.000000
0.728119 0.856934 0.000000
0.753571 0.857300 0.000000
0.777832 0.857758 0.000000
0.801208 0.858124 0.000000
0.823883 0.858521 0.000000
0.846100 0.858917 0.000000
0.868042 0.859283 0.000000
0.889954 0.859650 0.000000
0.912262 0.860046 0.000000
0.935364 0.860382 0.000000
0.959961 0.860779 0.000000
0.064087 0.873352 0.000000
0.081512 0.873718 0.000000
0.100433 0.874084 0.000000
0.121246 0.874451 0.000000
0.144287 0.874817 0.000000
0.169830 0.875153 0.000000
0.198090 0.875549 0.000000
0.229034 0.875916 0.000000
0.262421 0.876251 0.000000
0.298187 0.876617 0.000000
0.335907 0.876953 0.000000
0.375397 0.877319 0.000000
0.416382 0.877655 0.000000
0.458282 0.878021 0.000000
0.500183 0.878387 0.000000
0.539886 0.878723 0.000000
0.577118 0.879059 0.000000
0.611877 0.879395 0.000000
0.644073 0.879730 0.000000
0.674133 0.880066 0.000000
0.702362 0.880432 0.000000
0.729004 0.880707 0.000000
0.754272 0.881073 0.000000
0.778473 0.881378 0.000000
0.801727 0.881683 0.000000
0.824310 0.882050 0.000000
0.846405 0.882355 0.000000
0.868286 0.882629 0.000000
0.890137 0.882935 0.000000
0.912384 0.883240 0.000000
0.935425 0.883545 0.000000
0.959961 0.883850 0.000000
0.065826 0.898254 0.000000
0.083344 0.898560 0.000000
0.102356 0.898834 0.000000
0.123322 0.899109 0.000000
0.146484 0.899414 0.000000
0.172150 0.899689 0.000000
0.200653 0.899963 0.000000
0.231598 0.900299 0.000000
0.265198 0.900543 0.000000
0.300934 0.900879 0.000000
0.338623 0.901093 0.000000
0.378113 0.901367 0.000000
0.419006 0.901672 0.000000
0.460846 0.901947 0.000000
0.502472 0.902222 0.000000
0.541901 0.902496 0.000000
