examples/luts/Clayton 33.CUBE
#Created by: Adobe Photoshop Export Color Lookup Plugin
#Copyright: (C) Copyright 2017 RocketStock
TITLE "Black and White"
#LUT size
LUT_3D_SIZE 32
#data domain
DOMAIN_MIN 0.0 0.0 0.0
DOMAIN_MAX 1.0 1.0 1.0
#LUT data points
0.039612 0.039612 0.039612
0.045746 0.045746 0.045746
0.051208 0.051208 0.051208
0.057251 0.057251 0.057251
0.061523 0.061523 0.061523
0.065521 0.065521 0.065521
0.069702 0.069702 0.069702
0.073975 0.073975 0.073975
0.078613 0.078613 0.078613
0.083466 0.083466 0.083466
0.088379 0.088379 0.088379
0.093750 0.093750 0.093750
0.099365 0.099365 0.099365
0.105133 0.105133 0.105133
0.111328 0.111328 0.111328
0.117859 0.117859 0.117859
0.124634 0.124634 0.124634
0.131927 0.131927 0.131927
0.139435 0.139435 0.139435
0.147614 0.147614 0.147614
0.156281 0.156281 0.156281
0.165222 0.165222 0.165222
0.174805 0.174805 0.174805
0.184753 0.184753 0.184753
0.194763 0.194763 0.194763
0.205109 0.205109 0.205109
0.215546 0.215546 0.215546
0.225647 0.225647 0.225647
0.235840 0.235840 0.235840
0.245636 0.245636 0.245636
0.255463 0.255463 0.255463
0.265106 0.265106 0.265106
0.051086 0.051086 0.051086
0.057098 0.057098 0.057098
0.061371 0.061371 0.061371
0.065430 0.065430 0.065430
0.069580 0.069580 0.069580
0.073883 0.073883 0.073883
0.078491 0.078491 0.078491
0.083191 0.083191 0.083191
0.088257 0.088257 0.088257
0.093597 0.093597 0.093597
0.099060 0.099060 0.099060
0.104950 0.104950 0.104950
0.111145 0.111145 0.111145
0.117523 0.117523 0.117523
0.124420 0.124420 0.124420
0.131531 0.131531 0.131531
0.139221 0.139221 0.139221
0.147400 0.147400 0.147400
0.155792 0.155792 0.155792
0.164978 0.164978 0.164978
0.174591 0.174591 0.174591
0.184265 0.184265 0.184265
0.194489 0.194489 0.194489
0.204865 0.204865 0.204865
0.215027 0.215027 0.215027
0.225372 0.225372 0.225372
0.235596 0.235596 0.235596
0.245361 0.245361 0.245361
0.255219 0.255219 0.255219
0.264618 0.264618 0.264618
0.274109 0.274109 0.274109
0.283417 0.283417 0.283417
0.061249 0.061249 0.061249
0.065308 0.065308 0.065308
0.069366 0.069366 0.069366
0.073761 0.073761 0.073761
0.078247 0.078247 0.078247
0.083069 0.083069 0.083069
0.088165 0.088165 0.088165
0.093353 0.093353 0.093353
0.098907 0.098907 0.098907
0.104797 0.104797 0.104797
0.110870 0.110870 0.110870
0.117340 0.117340 0.117340
0.124268 0.124268 0.124268
0.131348 0.131348 0.131348
0.139038 0.139038 0.139038
0.146973 0.146973 0.146973
0.155609 0.155609 0.155609
0.164734 0.164734 0.164734
0.174072 0.174072 0.174072
0.184021 0.184021 0.184021
0.194244 0.194244 0.194244
0.204346 0.204346 0.204346
0.214752 0.214752 0.214752
0.225128 0.225128 0.225128
0.235077 0.235077 0.235077
0.245117 0.245117 0.245117
0.254730 0.254730 0.254730
0.264404 0.264404 0.264404
0.273895 0.273895 0.273895
0.282990 0.282990 0.282990
0.292114 0.292114 0.292114
0.301056 0.301056 0.301056
0.069275 0.069275 0.069275
0.073639 0.073639 0.073639
0.078094 0.078094 0.078094
0.082947 0.082947 0.082947
0.087891 0.087891 0.087891
0.093231 0.093231 0.093231
0.098785 0.098785 0.098785
0.104492 0.104492 0.104492
0.110687 0.110687 0.110687
0.117218 0.117218 0.117218
0.123901 0.123901 0.123901
0.131134 0.131134 0.131134
0.138824 0.138824 0.138824
0.146759 0.146759 0.146759
0.155396 0.155396 0.155396
0.164246 0.164246 0.164246
0.173828 0.173828 0.173828
0.183777 0.183777 0.183777
0.193695 0.193695 0.193695
0.204102 0.204102 0.204102
0.214508 0.214508 0.214508
0.224609 0.224609 0.224609
0.234833 0.234833 0.234833
0.244843 0.244843 0.244843
0.254456 0.254456 0.254456
0.264160 0.264160 0.264160
0.273407 0.273407 0.273407
0.282745 0.282745 0.282745
0.291870 0.291870 0.291870
0.300598 0.300598 0.300598
0.309357 0.309357 0.309357
0.317932 0.317932 0.317932
0.078003 0.078003 0.078003
0.082703 0.082703 0.082703
0.087769 0.087769 0.087769
0.093079 0.093079 0.093079
0.098480 0.098480 0.098480
0.104370 0.104370 0.104370
0.110504 0.110504 0.110504
0.116852 0.116852 0.116852
0.123718 0.123718 0.123718
0.130981 0.130981 0.130981
0.138458 0.138458 0.138458
0.146576 0.146576 0.146576
0.154907 0.154907 0.154907
0.164001 0.164001 0.164001
0.173584 0.173584 0.173584
0.183289 0.183289 0.183289
0.193451 0.193451 0.193451
0.203827 0.203827 0.203827
0.213989 0.213989 0.213989
0.224335 0.224335 0.224335
0.234558 0.234558 0.234558
0.244354 0.244354 0.244354
0.254211 0.254211 0.254211
0.263672 0.263672 0.263672
0.273193 0.273193 0.273193
0.282501 0.282501 0.282501
0.291412 0.291412 0.291412
0.300385 0.300385 0.300385
0.309143 0.309143 0.309143
0.317535 0.317535 0.317535
0.325958 0.325958 0.325958
0.334167 0.334167 0.334167
0.087646 0.087646 0.087646
0.092804 0.092804 0.092804
0.098358 0.098358 0.098358
0.104218 0.104218 0.104218
0.110229 0.110229 0.110229
0.116699 0.116699 0.116699
0.123535 0.123535 0.123535
0.130615 0.130615 0.130615
0.138245 0.138245 0.138245
0.146332 0.146332 0.146332
0.154694 0.154694 0.154694
0.163788 0.163788 0.163788
0.173096 0.173096 0.173096
0.182983 0.182983 0.182983
0.193207 0.193207 0.193207
0.203308 0.203308 0.203308
0.213745 0.213745 0.213745
0.224091 0.224091 0.224091
0.234070 0.234070 0.234070
0.244110 0.244110 0.244110
0.253967 0.253967 0.253967
0.263428 0.263428 0.263428
0.272949 0.272949 0.272949
0.282043 0.282043 0.282043
0.291199 0.291199 0.291199
0.300140 0.300140 0.300140
0.308716 0.308716 0.308716
0.317291 0.317291 0.317291
0.325745 0.325745 0.325745
0.333801 0.333801 0.333801
0.341858 0.341858 0.341858
0.349823 0.349823 0.349823
0.098206 0.098206 0.098206
0.103882 0.103882 0.103882
0.110077 0.110077 0.110077
0.116516 0.116516 0.116516
0.123199 0.123199 0.123199
0.130432 0.130432 0.130432
0.138062 0.138062 0.138062
0.145935 0.145935 0.145935
0.154510 0.154510 0.154510
0.163330 0.163330 0.163330
0.172852 0.172852 0.172852
0.182739 0.182739 0.182739
0.192657 0.192657 0.192657
0.203033 0.203033 0.203033
0.213470 0.213470 0.213470
0.223572 0.223572 0.223572
0.233826 0.233826 0.233826
0.243866 0.243866 0.243866
0.253479 0.253479 0.253479
0.263184 0.263184 0.263184
0.272491 0.272491 0.272491
0.281830 0.281830 0.281830
0.290985 0.290985 0.290985
0.299713 0.299713 0.299713
0.308502 0.308502 0.308502
0.317108 0.317108 0.317108
0.325317 0.325317 0.325317
0.333588 0.333588 0.333588
0.341675 0.341675 0.341675
0.349396 0.349396 0.349396
0.357208 0.357208 0.357208
0.364655 0.364655 0.364655
0.109894 0.109894 0.109894
0.116211 0.116211 0.116211
0.123016 0.123016 0.123016
0.130219 0.130219 0.130219
0.137665 0.137665 0.137665
0.145721 0.145721 0.145721
0.154266 0.154266 0.154266
0.163116 0.163116 0.163116
0.172638 0.172638 0.172638
0.182251 0.182251 0.182251
0.192413 0.192413 0.192413
0.202789 0.202789 0.202789
0.212952 0.212952 0.212952
0.223328 0.223328 0.223328
0.233551 0.233551 0.233551
0.243378 0.243378 0.243378
0.253265 0.253265 0.253265
0.262970 0.262970 0.262970
0.272247 0.272247 0.272247
0.281586 0.281586 0.281586
0.290527 0.290527 0.290527
0.299500 0.299500 0.299500
0.308289 0.308289 0.308289
0.316681 0.316681 0.316681
0.325104 0.325104 0.325104
0.333374 0.333374 0.333374
0.341278 0.341278 0.341278
0.349213 0.349213 0.349213
0.356995 0.356995 0.356995
0.364471 0.364471 0.364471
0.371979 0.371979 0.371979
0.379181 0.379181 0.379181
0.122833 0.122833 0.122833
0.129852 0.129852 0.129852
0.137451 0.137451 0.137451
0.145538 0.145538 0.145538
0.153839 0.153839 0.153839
0.162872 0.162872 0.162872
0.172150 0.172150 0.172150
0.182007 0.182007 0.182007
0.192169 0.192169 0.192169
0.202271 0.202271 0.202271
0.212646 0.212646 0.212646
0.223053 0.223053 0.223053
0.233032 0.233032 0.233032
0.243103 0.243103 0.243103
0.253021 0.253021 0.253021
0.262482 0.262482 0.262482
0.272003 0.272003 0.272003
0.281342 0.281342 0.281342
0.290283 0.290283 0.290283
0.299255 0.299255 0.299255
0.307861 0.307861 0.307861
0.316467 0.316467 0.316467
0.324890 0.324890 0.324890
0.332977 0.332977 0.332977
0.341064 0.341064 0.341064
0.349030 0.349030 0.349030
0.356598 0.356598 0.356598
0.364258 0.364258 0.364258
0.371796 0.371796 0.371796
0.378967 0.378967 0.378967
0.386261 0.386261 0.386261
0.393250 0.393250 0.393250
0.137268 0.137268 0.137268
0.145111 0.145111 0.145111
0.153595 0.153595 0.153595
0.162628 0.162628 0.162628
0.171906 0.171906 0.171906
0.181732 0.181732 0.181732
0.191650 0.191650 0.191650
0.202026 0.202026 0.202026
0.212402 0.212402 0.212402
0.222534 0.222534 0.222534
0.232788 0.232788 0.232788
0.242828 0.242828 0.242828
0.252502 0.252502 0.252502
0.262238 0.262238 0.262238
0.271759 0.271759 0.271759
0.280884 0.280884 0.280884
0.290039 0.290039 0.290039
0.298828 0.298828 0.298828
0.307617 0.307617 0.307617
0.316254 0.316254 0.316254
0.324493 0.324493 0.324493
0.332764 0.332764 0.332764
0.340881 0.340881 0.340881
0.348633 0.348633 0.348633
0.356445 0.356445 0.356445
0.364105 0.364105 0.364105
0.371399 0.371399 0.371399
0.378815 0.378815 0.378815
0.385925 0.385925 0.385925
0.393097 0.393097 0.393097
0.400146 0.400146 0.400146
0.406982 0.406982 0.406982
0.153381 0.153381 0.153381
0.162170 0.162170 0.162170
0.171631 0.171631 0.171631
0.181244 0.181244 0.181244
0.191376 0.191376 0.191376
0.201721 0.201721 0.201721
0.211884 0.211884 0.211884
0.222260 0.222260 0.222260
0.232513 0.232513 0.232513
0.242371 0.242371 0.242371
0.252258 0.252258 0.252258
0.261993 0.261993 0.261993
0.271301 0.271301 0.271301
0.280670 0.280670 0.280670
0.289612 0.289612 0.289612
0.298584 0.298584 0.298584
0.307434 0.307434 0.307434
0.315826 0.315826 0.315826
0.324280 0.324280 0.324280
0.332581 0.332581 0.332581
0.340485 0.340485 0.340485
0.348419 0.348419 0.348419
0.356232 0.356232 0.356232
0.363708 0.363708 0.363708
0.371246 0.371246 0.371246
0.378601 0.378601 0.378601
0.385742 0.385742 0.385742
0.392883 0.392883 0.392883
0.399811 0.399811 0.399811
0.406799 0.406799 0.406799
0.413727 0.413727 0.413727
0.420410 0.420410 0.420410
0.171417 0.171417 0.171417
0.181000 0.181000 0.181000
0.191132 0.191132 0.191132
0.201233 0.201233 0.201233
0.211639 0.211639 0.211639
0.222015 0.222015 0.222015
0.232025 0.232025 0.232025
0.242126 0.242126 0.242126
0.252014 0.252014 0.252014
0.261505 0.261505 0.261505
0.271057 0.271057 0.271057
0.280426 0.280426 0.280426
0.289368 0.289368 0.289368
0.298370 0.298370 0.298370
0.306976 0.306976 0.306976
0.315613 0.315613 0.315613
0.324066 0.324066 0.324066
0.332153 0.332153 0.332153
0.340271 0.340271 0.340271
0.348236 0.348236 0.348236
0.355835 0.355835 0.355835
0.363495 0.363495 0.363495
0.371033 0.371033 0.371033
0.378265 0.378265 0.378265
0.385559 0.385559 0.385559
0.392548 0.392548 0.392548
0.399628 0.399628 0.399628
0.406616 0.406616 0.406616
0.413361 0.413361 0.413361
0.420227 0.420227 0.420227
0.427063 0.427063 0.427063
0.433685 0.433685 0.433685
0.190643 0.190643 0.190643
0.200958 0.200958 0.200958
0.211365 0.211365 0.211365
0.221527 0.221527 0.221527
0.231750 0.231750 0.231750
0.241882 0.241882 0.241882
0.251526 0.251526 0.251526
0.261261 0.261261 0.261261
0.270813 0.270813 0.270813
0.279968 0.279968 0.279968
0.289124 0.289124 0.289124
0.297943 0.297943 0.297943
0.306763 0.306763 0.306763
0.315399 0.315399 0.315399
0.323639 0.323639 0.323639
0.331940 0.331940 0.331940
0.340088 0.340088 0.340088
0.347870 0.347870 0.347870
0.355682 0.355682 0.355682
0.363312 0.363312 0.363312
0.370667 0.370667 0.370667
0.378082 0.378082 0.378082
0.385376 0.385376 0.385376
0.392365 0.392365 0.392365
0.399445 0.399445 0.399445
0.406281 0.406281 0.406281
0.413208 0.413208 0.413208
0.420074 0.420074 0.420074
0.426727 0.426727 0.426727
0.433502 0.433502 0.433502
0.440277 0.440277 0.440277
0.446838 0.446838 0.446838
0.210846 0.210846 0.210846
0.221252 0.221252 0.221252
0.231476 0.231476 0.231476
0.241364 0.241364 0.241364
0.251282 0.251282 0.251282
0.261047 0.261047 0.261047
0.270355 0.270355 0.270355
0.279724 0.279724 0.279724
0.288910 0.288910 0.288910
0.297699 0.297699 0.297699
0.306519 0.306519 0.306519
0.314972 0.314972 0.314972
0.323425 0.323425 0.323425
0.331757 0.331757 0.331757
0.339691 0.339691 0.339691
0.347656 0.347656 0.347656
0.355469 0.355469 0.355469
0.362946 0.362946 0.362946
0.370514 0.370514 0.370514
0.377899 0.377899 0.377899
0.385010 0.385010 0.385010
0.392181 0.392181 0.392181
0.399078 0.399078 0.399078
0.406097 0.406097 0.406097
0.413055 0.413055 0.413055
0.419708 0.419708 0.419708
0.426544 0.426544 0.426544
0.433319 0.433319 0.433319
0.439941 0.439941 0.439941
0.446686 0.446686 0.446686
0.453430 0.453430 0.453430
0.460022 0.460022 0.460022
0.231018 0.231018 0.231018
0.241119 0.241119 0.241119
0.251038 0.251038 0.251038
0.260559 0.260559 0.260559
0.270142 0.270142 0.270142
0.279510 0.279510 0.279510
0.288483 0.288483 0.288483
0.297485 0.297485 0.297485
0.306122 0.306122 0.306122
0.314728 0.314728 0.314728
0.323242 0.323242 0.323242
0.331329 0.331329 0.331329
0.339478 0.339478 0.339478
0.347443 0.347443 0.347443
0.355072 0.355072 0.355072
0.362762 0.362762 0.362762
0.370300 0.370300 0.370300
0.377502 0.377502 0.377502
0.384827 0.384827 0.384827
0.392029 0.392029 0.392029
0.398926 0.398926 0.398926
0.405914 0.405914 0.405914
0.412689 0.412689 0.412689
0.419556 0.419556 0.419556
0.426392 0.426392 0.426392
0.432983 0.432983 0.432983
0.439758 0.439758 0.439758
0.446503 0.446503 0.446503
0.453064 0.453064 0.453064
0.459869 0.459869 0.459869
0.466614 0.466614 0.466614
0.473297 0.473297 0.473297
0.250549 0.250549 0.250549
0.260315 0.260315 0.260315
0.269867 0.269867 0.269867
0.279053 0.279053 0.279053
0.288239 0.288239 0.288239
0.297272 0.297272 0.297272
0.305878 0.305878 0.305878
0.314545 0.314545 0.314545
0.322815 0.322815 0.322815
0.331116 0.331116 0.331116
0.339264 0.339264 0.339264
0.347046 0.347046 0.347046
0.354889 0.354889 0.354889
0.362579 0.362579 0.362579
0.369904 0.369904 0.369904
0.377350 0.377350 0.377350
0.384644 0.384644 0.384644
0.391663 0.391663 0.391663
0.398773 0.398773 0.398773
0.405579 0.405579 0.405579
0.412537 0.412537 0.412537
0.419403 0.419403 0.419403
0.426056 0.426056 0.426056
0.432831 0.432831 0.432831
0.439606 0.439606 0.439606
0.446167 0.446167 0.446167
0.452911 0.452911 0.452911
0.459656 0.459656 0.459656
0.466278 0.466278 0.466278
0.473114 0.473114 0.473114
0.479797 0.479797 0.479797
0.486694 0.486694 0.486694
0.269379 0.269379 0.269379
0.278809 0.278809 0.278809
0.288025 0.288025 0.288025
0.296783 0.296783 0.296783
0.305664 0.305664 0.305664
0.314331 0.314331 0.314331
0.322601 0.322601 0.322601
0.330902 0.330902 0.330902
0.338837 0.338837 0.338837
0.346863 0.346863 0.346863
0.354675 0.354675 0.354675
0.362183 0.362183 0.362183
0.369751 0.369751 0.369751
0.377136 0.377136 0.377136
0.384277 0.384277 0.384277
0.391449 0.391449 0.391449
0.398590 0.398590 0.398590
0.405426 0.405426 0.405426
0.412354 0.412354 0.412354
0.419220 0.419220 0.419220
0.425873 0.425873 0.425873
0.432648 0.432648 0.432648
0.439270 0.439270 0.439270
0.446014 0.446014 0.446014
0.452728 0.452728 0.452728
0.459320 0.459320 0.459320
0.466125 0.466125 0.466125
0.472931 0.472931 0.472931
0.479614 0.479614 0.479614
0.486542 0.486542 0.486542
0.493530 0.493530 0.493530
0.500427 0.500427 0.500427
0.287567 0.287567 0.287567
0.296600 0.296600 0.296600
0.305450 0.305450 0.305450
0.313904 0.313904 0.313904
0.322388 0.322388 0.322388
0.330719 0.330719 0.330719
0.338684 0.338684 0.338684
0.346649 0.346649 0.346649
0.354279 0.354279 0.354279
0.362000 0.362000 0.362000
0.369568 0.369568 0.369568
0.376770 0.376770 0.376770
0.384094 0.384094 0.384094
0.391296 0.391296 0.391296
0.398224 0.398224 0.398224
0.405243 0.405243 0.405243
0.412170 0.412170 0.412170
0.418884 0.418884 0.418884
0.425690 0.425690 0.425690
0.432312 0.432312 0.432312
0.439087 0.439087 0.439087
0.445831 0.445831 0.445831
0.452393 0.452393 0.452393
0.459167 0.459167 0.459167
0.465942 0.465942 0.465942
0.472595 0.472595 0.472595
0.479462 0.479462 0.479462
0.486359 0.486359 0.486359
0.493195 0.493195 0.493195
0.500244 0.500244 0.500244
0.507202 0.507202 0.507202
0.514465 0.514465 0.514465
0.304993 0.304993 0.304993
0.313690 0.313690 0.313690
0.322205 0.322205 0.322205
0.330322 0.330322 0.330322
0.338470 0.338470 0.338470
0.346252 0.346252 0.346252
0.354095 0.354095 0.354095
0.361816 0.361816 0.361816
0.369171 0.369171 0.369171
0.376587 0.376587 0.376587
0.383911 0.383911 0.383911
0.390961 0.390961 0.390961
0.398010 0.398010 0.398010
0.405060 0.405060 0.405060
0.411804 0.411804 0.411804
0.418732 0.418732 0.418732
0.425537 0.425537 0.425537
0.432159 0.432159 0.432159
0.438904 0.438904 0.438904
0.445496 0.445496 0.445496
0.452271 0.452271 0.452271
0.459015 0.459015 0.459015
0.465607 0.465607 0.465607
0.472412 0.472412 0.472412
0.479279 0.479279 0.479279
0.486023 0.486023 0.486023
0.493011 0.493011 0.493011
0.500061 0.500061 0.500061
0.507050 0.507050 0.507050
0.514282 0.514282 0.514282
0.521423 0.521423 0.521423
0.528870 0.528870 0.528870
0.321747 0.321747 0.321747
0.330109 0.330109 0.330109
0.338257 0.338257 0.338257
0.346069 0.346069 0.346069
0.353912 0.353912 0.353912
0.361420 0.361420 0.361420
0.368988 0.368988 0.368988
0.376434 0.376434 0.376434
0.383545 0.383545 0.383545
0.390747 0.390747 0.390747
0.397858 0.397858 0.397858
0.404724 0.404724 0.404724
0.411652 0.411652 0.411652
0.418549 0.418549 0.418549
0.425171 0.425171 0.425171
0.431976 0.431976 0.431976
0.438568 0.438568 0.438568
0.445343 0.445343 0.445343
0.452087 0.452087 0.452087
0.458649 0.458649 0.458649
0.465454 0.465454 0.465454
0.472260 0.472260 0.472260
0.478943 0.478943 0.478943
0.485870 0.485870 0.485870
0.492828 0.492828 0.492828
0.499695 0.499695 0.499695
0.506836 0.506836 0.506836
0.513885 0.513885 0.513885
0.521240 0.521240 0.521240
0.528687 0.528687 0.528687
0.536072 0.536072 0.536072
0.543762 0.543762 0.543762
0.337860 0.337860 0.337860
0.345886 0.345886 0.345886
0.353516 0.353516 0.353516
0.361267 0.361267 0.361267
0.368805 0.368805 0.368805
0.376068 0.376068 0.376068
0.383362 0.383362 0.383362
0.390594 0.390594 0.390594
0.397522 0.397522 0.397522
0.404510 0.404510 0.404510
0.411469 0.411469 0.411469
0.418182 0.418182 0.418182
0.425018 0.425018 0.425018
0.431641 0.431641 0.431641
0.438385 0.438385 0.438385
0.445160 0.445160 0.445160
0.451752 0.451752 0.451752
0.458496 0.458496 0.458496
0.465271 0.465271 0.465271
0.471893 0.471893 0.471893
0.478760 0.478760 0.478760
0.485687 0.485687 0.485687
0.492493 0.492493 0.492493
0.499512 0.499512 0.499512
0.506683 0.506683 0.506683
0.513702 0.513702 0.513702
0.521057 0.521057 0.521057
0.528320 0.528320 0.528320
0.535858 0.535858 0.535858
0.543579 0.543579 0.543579
0.551178 0.551178 0.551178
0.559113 0.559113 0.559113
0.353363 0.353363 0.353363
0.361053 0.361053 0.361053
0.368408 0.368408 0.368408
0.375854 0.375854 0.375854
0.383179 0.383179 0.383179
0.390228 0.390228 0.390228
0.397339 0.397339 0.397339
0.404358 0.404358 0.404358
0.411133 0.411133 0.411133
0.417999 0.417999 0.417999
0.424866 0.424866 0.424866
0.431488 0.431488 0.431488
0.438263 0.438263 0.438263
0.444824 0.444824 0.444824
0.451569 0.451569 0.451569
0.458313 0.458313 0.458313
0.464935 0.464935 0.464935
0.471741 0.471741 0.471741
0.478607 0.478607 0.478607
0.485321 0.485321 0.485321
0.492310 0.492310 0.492310
0.499329 0.499329 0.499329
0.506317 0.506317 0.506317
0.513519 0.513519 0.513519
0.520660 0.520660 0.520660
0.528137 0.528137 0.528137
0.535706 0.535706 0.535706
0.543182 0.543182 0.543182
0.550995 0.550995 0.550995
0.558929 0.558929 0.558929
0.566803 0.566803 0.566803
0.575012 0.575012 0.575012
0.368225 0.368225 0.368225
0.375702 0.375702 0.375702
0.382843 0.382843 0.382843
0.390045 0.390045 0.390045
0.397186 0.397186 0.397186
0.403992 0.403992 0.403992
0.410980 0.410980 0.410980
0.417847 0.417847 0.417847
0.424500 0.424500 0.424500
0.431305 0.431305 0.431305
0.437897 0.437897 0.437897
0.444641 0.444641 0.444641
0.451416 0.451416 0.451416
0.457977 0.457977 0.457977
0.464752 0.464752 0.464752
0.471588 0.471588 0.471588
0.478241 0.478241 0.478241
0.485138 0.485138 0.485138
0.492126 0.492126 0.492126
0.498993 0.498993 0.498993
0.506134 0.506134 0.506134
0.513367 0.513367 0.513367
0.520508 0.520508 0.520508
0.527954 0.527954 0.527954
0.535339 0.535339 0.535339
0.542999 0.542999 0.542999
0.550781 0.550781 0.550781
0.558563 0.558563 0.558563
0.566589 0.566589 0.566589
0.574799 0.574799 0.574799
0.582947 0.582947 0.582947
0.591400 0.591400 0.591400
0.382660 0.382660 0.382660
0.389862 0.389862 0.389862
0.396820 0.396820 0.396820
0.403839 0.403839 0.403839
0.410797 0.410797 0.410797
0.417480 0.417480 0.417480
0.424347 0.424347 0.424347
0.431122 0.431122 0.431122
0.437744 0.437744 0.437744
0.444489 0.444489 0.444489
0.451080 0.451080 0.451080
0.457825 0.457825 0.457825
0.464600 0.464600 0.464600
0.471222 0.471222 0.471222
0.478088 0.478088 0.478088
0.484985 0.484985 0.484985
0.491760 0.491760 0.491760
0.498840 0.498840 0.498840
0.505951 0.505951 0.505951
0.513000 0.513000 0.513000
0.520325 0.520325 0.520325
0.527557 0.527557 0.527557
0.535126 0.535126 0.535126
0.542786 0.542786 0.542786
0.550385 0.550385 0.550385
0.558319 0.558319 0.558319
0.566376 0.566376 0.566376
0.574402 0.574402 0.574402
0.582703 0.582703 0.582703
0.591187 0.591187 0.591187
0.599518 0.599518 0.599518
0.608154 0.608154 0.608154
0.396637 0.396637 0.396637
0.403656 0.403656 0.403656
0.410461 0.410461 0.410461
0.417328 0.417328 0.417328
0.424164 0.424164 0.424164
0.430817 0.430817 0.430817
0.437592 0.437592 0.437592
0.444336 0.444336 0.444336
0.450897 0.450897 0.450897
0.457642 0.457642 0.457642
0.464233 0.464233 0.464233
0.471069 0.471069 0.471069
0.477936 0.477936 0.477936
0.484650 0.484650 0.484650
0.491608 0.491608 0.491608
0.498627 0.498627 0.498627
0.505615 0.505615 0.505615
0.512817 0.512817 0.512817
0.520142 0.520142 0.520142
0.527374 0.527374 0.527374
0.534943 0.534943 0.534943
0.542389 0.542389 0.542389
0.550201 0.550201 0.550201
0.558136 0.558136 0.558136
0.565979 0.565979 0.565979
0.574188 0.574188 0.574188
0.582520 0.582520 0.582520
0.590759 0.590759 0.590759
0.599304 0.599304 0.599304
0.607941 0.607941 0.607941
0.616394 0.616394 0.616394
0.625153 0.625153 0.625153
0.410278 0.410278 0.410278
0.417175 0.417175 0.417175
0.423828 0.423828 0.423828
0.430603 0.430603 0.430603
0.437378 0.437378 0.437378
0.443970 0.443970 0.443970
0.450714 0.450714 0.450714
0.457306 0.457306 0.457306
0.464081 0.464081 0.464081
0.470886 0.470886 0.470886
0.477570 0.477570 0.477570
0.484467 0.484467 0.484467
0.491425 0.491425 0.491425
0.498291 0.498291 0.498291
0.505432 0.505432 0.505432
0.512634 0.512634 0.512634
0.519775 0.519775 0.519775
0.527191 0.527191 0.527191
0.534546 0.534546 0.534546
0.542206 0.542206 0.542206
0.550018 0.550018 0.550018
0.557709 0.557709 0.557709
0.565765 0.565765 0.565765
0.573975 0.573975 0.573975
0.582092 0.582092 0.582092
0.590546 0.590546 0.590546
0.599091 0.599091 0.599091
0.607513 0.607513 0.607513
0.616211 0.616211 0.616211
0.624695 0.624695 0.624695
0.633453 0.633453 0.633453
0.642181 0.642181 0.642181
0.423676 0.423676 0.423676
0.430450 0.430450 0.430450
0.437073 0.437073 0.437073
0.443817 0.443817 0.443817
0.450562 0.450562 0.450562
0.457123 0.457123 0.457123
0.463928 0.463928 0.463928
0.470551 0.470551 0.470551
0.477386 0.477386 0.477386
0.484283 0.484283 0.484283
0.491089 0.491089 0.491089
0.498077 0.498077 0.498077
0.505219 0.505219 0.505219
0.512268 0.512268 0.512268
0.519592 0.519592 0.519592
0.527008 0.527008 0.527008
0.534363 0.534363 0.534363
0.542023 0.542023 0.542023
0.549622 0.549622 0.549622
0.557526 0.557526 0.557526
0.565582 0.565582 0.565582
0.573578 0.573578 0.573578
0.581909 0.581909 0.581909
0.590332 0.590332 0.590332
0.598663 0.598663 0.598663
0.607269 0.607269 0.607269
0.615967 0.615967 0.615967
0.624481 0.624481 0.624481
0.633240 0.633240 0.633240
0.641785 0.641785 0.641785
0.650513 0.650513 0.650513
0.659210 0.659210 0.659210
0.436890 0.436890 0.436890
0.443665 0.443665 0.443665
0.450226 0.450226 0.450226
0.456970 0.456970 0.456970
0.463562 0.463562 0.463562
0.470367 0.470367 0.470367
0.477203 0.477203 0.477203
0.483948 0.483948 0.483948
0.490906 0.490906 0.490906
0.497955 0.497955 0.497955
0.504883 0.504883 0.504883
0.512085 0.512085 0.512085
0.519379 0.519379 0.519379
0.526642 0.526642 0.526642
0.534180 0.534180 0.534180
0.541656 0.541656 0.541656
