examples/luts/Clayton 33.CUBE
#Created by: Adobe Photoshop Export Color Lookup Plugin
#Copyright: (C) Copyright 2017 RocketStock
TITLE "Black and White"
#LUT size
LUT_3D_SIZE 8
#data domain
#LUT data points
DOMAIN_MIN 0.000000 0.000000 0.000000
DOMAIN_MAX 0.903226 0.903226 0.903226
0.039612 0.039612 0.039612
0.061523 0.061523 0.061523
0.078613 0.078613 0.078613
0.099365 0.099365 0.099365
0.124634 0.124634 0.124634
0.156281 0.156281 0.156281
0.194763 0.194763 0.194763
0.235840 0.235840 0.235840
0.078003 0.078003 0.078003
0.098480 0.098480 0.098480
0.123718 0.123718 0.123718
0.154907 0.154907 0.154907
0.193451 0.193451 0.193451
0.234558 0.234558 0.234558
0.273193 0.273193 0.273193
0.309143 0.309143 0.309143
0.122833 0.122833 0.122833
0.153839 0.153839 0.153839
0.192169 0.192169 0.192169
0.233032 0.233032 0.233032
0.272003 0.272003 0.272003
0.307861 0.307861 0.307861
0.341064 0.341064 0.341064
0.371796 0.371796 0.371796
0.190643 0.190643 0.190643
0.231750 0.231750 0.231750
0.270813 0.270813 0.270813
0.306763 0.306763 0.306763
0.340088 0.340088 0.340088
0.370667 0.370667 0.370667
0.399445 0.399445 0.399445
0.426727 0.426727 0.426727
0.269379 0.269379 0.269379
0.305664 0.305664 0.305664
0.338837 0.338837 0.338837
0.369751 0.369751 0.369751
0.398590 0.398590 0.398590
0.425873 0.425873 0.425873
0.452728 0.452728 0.452728
0.479614 0.479614 0.479614
0.337860 0.337860 0.337860
0.368805 0.368805 0.368805
0.397522 0.397522 0.397522
0.425018 0.425018 0.425018
0.451752 0.451752 0.451752
0.478760 0.478760 0.478760
0.506683 0.506683 0.506683
0.535858 0.535858 0.535858
0.396637 0.396637 0.396637
0.424164 0.424164 0.424164
0.450897 0.450897 0.450897
0.477936 0.477936 0.477936
0.505615 0.505615 0.505615
0.534943 0.534943 0.534943
0.565979 0.565979 0.565979
0.599304 0.599304 0.599304
0.450073 0.450073 0.450073
0.476868 0.476868 0.476868
0.504700 0.504700 0.504700
0.533966 0.533966 0.533966
0.564972 0.564972 0.564972
0.598236 0.598236 0.598236
0.632568 0.632568 0.632568
0.667206 0.667206 0.667206
0.048370 0.048370 0.048370
0.067444 0.067444 0.067444
0.085724 0.085724 0.085724
0.108002 0.108002 0.108002
0.135315 0.135315 0.135315
0.169708 0.169708 0.169708
0.209808 0.209808 0.209808
0.250305 0.250305 0.250305
0.085083 0.085083 0.085083
0.107239 0.107239 0.107239
0.134369 0.134369 0.134369
0.168518 0.168518 0.168518
0.208527 0.208527 0.208527
0.249084 0.249084 0.249084
0.286652 0.286652 0.286652
0.321564 0.321564 0.321564
0.133423 0.133423 0.133423
0.167114 0.167114 0.167114
0.207214 0.207214 0.207214
0.247589 0.247589 0.247589
0.285492 0.285492 0.285492
0.320496 0.320496 0.320496
0.352539 0.352539 0.352539
0.382446 0.382446 0.382446
0.205902 0.205902 0.205902
0.246338 0.246338 0.246338
0.284332 0.284332 0.284332
0.319214 0.319214 0.319214
0.351562 0.351562 0.351562
0.381378 0.381378 0.381378
0.409576 0.409576 0.409576
0.436554 0.436554 0.436554
0.283203 0.283203 0.283203
0.318176 0.318176 0.318176
0.350616 0.350616 0.350616
0.380463 0.380463 0.380463
0.408722 0.408722 0.408722
0.435699 0.435699 0.435699
0.462555 0.462555 0.462555
0.489685 0.489685 0.489685
0.349396 0.349396 0.349396
0.379547 0.379547 0.379547
0.407684 0.407684 0.407684
0.434875 0.434875 0.434875
0.461700 0.461700 0.461700
0.488831 0.488831 0.488831
0.517212 0.517212 0.517212
0.547058 0.547058 0.547058
0.406799 0.406799 0.406799
0.433990 0.433990 0.433990
0.460693 0.460693 0.460693
0.487915 0.487915 0.487915
0.516113 0.516113 0.516113
0.546112 0.546112 0.546112
0.577911 0.577911 0.577911
0.611847 0.611847 0.611847
0.459869 0.459869 0.459869
0.487061 0.487061 0.487061
0.515198 0.515198 0.515198
0.545135 0.545135 0.545135
0.576874 0.576874 0.576874
0.610748 0.610748 0.610748
0.645264 0.645264 0.645264
0.679657 0.679657 0.679657
0.056793 0.056793 0.056793
0.073761 0.073761 0.073761
0.093353 0.093353 0.093353
0.117340 0.117340 0.117340
0.146973 0.146973 0.146973
0.184021 0.184021 0.184021
0.225128 0.225128 0.225128
0.264404 0.264404 0.264404
0.092682 0.092682 0.092682
0.116516 0.116516 0.116516
0.145935 0.145935 0.145935
0.182739 0.182739 0.182739
0.223572 0.223572 0.223572
0.263184 0.263184 0.263184
0.299713 0.299713 0.299713
0.333588 0.333588 0.333588
0.144897 0.144897 0.144897
0.181244 0.181244 0.181244
0.222260 0.222260 0.222260
0.261993 0.261993 0.261993
0.298584 0.298584 0.298584
0.332581 0.332581 0.332581
0.363708 0.363708 0.363708
0.392883 0.392883 0.392883
0.220978 0.220978 0.220978
0.260559 0.260559 0.260559
0.297485 0.297485 0.297485
0.331329 0.331329 0.331329
0.362762 0.362762 0.362762
0.391846 0.391846 0.391846
0.419556 0.419556 0.419556
0.446503 0.446503 0.446503
0.296387 0.296387 0.296387
0.330322 0.330322 0.330322
0.361816 0.361816 0.361816
0.390961 0.390961 0.390961
0.418732 0.418732 0.418732
0.445496 0.445496 0.445496
0.472412 0.472412 0.472412
0.499878 0.499878 0.499878
0.360657 0.360657 0.360657
0.390045 0.390045 0.390045
0.417847 0.417847 0.417847
0.444641 0.444641 0.444641
0.471588 0.471588 0.471588
0.498993 0.498993 0.498993
0.527954 0.527954 0.527954
0.558563 0.558563 0.558563
0.416840 0.416840 0.416840
0.443817 0.443817 0.443817
0.470551 0.470551 0.470551
0.498077 0.498077 0.498077
0.527008 0.527008 0.527008
0.557526 0.557526 0.557526
0.590332 0.590332 0.590332
0.624481 0.624481 0.624481
0.469696 0.469696 0.469696
0.497223 0.497223 0.497223
0.525879 0.525879 0.525879
0.556519 0.556519 0.556519
0.589081 0.589081 0.589081
0.623383 0.623383 0.623383
0.657898 0.657898 0.657898
0.691956 0.691956 0.691956
0.063049 0.063049 0.063049
0.080505 0.080505 0.080505
0.101501 0.101501 0.101501
0.127502 0.127502 0.127502
0.159882 0.159882 0.159882
0.198914 0.198914 0.198914
0.239868 0.239868 0.239868
0.278107 0.278107 0.278107
0.100800 0.100800 0.100800
0.126587 0.126587 0.126587
0.158508 0.158508 0.158508
0.197601 0.197601 0.197601
0.238373 0.238373 0.238373
0.276917 0.276917 0.276917
0.312622 0.312622 0.312622
0.345306 0.345306 0.345306
0.157410 0.157410 0.157410
0.196289 0.196289 0.196289
0.237091 0.237091 0.237091
0.275757 0.275757 0.275757
0.311310 0.311310 0.311310
0.344269 0.344269 0.344269
0.374573 0.374573 0.374573
0.403168 0.403168 0.403168
0.235840 0.235840 0.235840
0.274323 0.274323 0.274323
0.310242 0.310242 0.310242
0.343262 0.343262 0.343262
0.373657 0.373657 0.373657
0.402252 0.402252 0.402252
0.429443 0.429443 0.429443
0.456299 0.456299 0.456299
0.309143 0.309143 0.309143
0.342072 0.342072 0.342072
0.372711 0.372711 0.372711
0.401215 0.401215 0.401215
0.428589 0.428589 0.428589
0.455444 0.455444 0.455444
0.482391 0.482391 0.482391
0.510437 0.510437 0.510437
0.371796 0.371796 0.371796
0.400360 0.400360 0.400360
0.427734 0.427734 0.427734
0.454437 0.454437 0.454437
0.481506 0.481506 0.481506
0.509369 0.509369 0.509369
0.538940 0.538940 0.538940
0.570282 0.570282 0.570282
0.426727 0.426727 0.426727
0.453613 0.453613 0.453613
0.480682 0.480682 0.480682
0.508453 0.508453 0.508453
0.537964 0.537964 0.537964
0.569244 0.569244 0.569244
0.602722 0.602722 0.602722
0.637146 0.637146 0.637146
0.479614 0.479614 0.479614
0.507568 0.507568 0.507568
0.536835 0.536835 0.536835
0.568237 0.568237 0.568237
0.601440 0.601440 0.601440
0.636078 0.636078 0.636078
0.670685 0.670685 0.670685
0.703979 0.703979 0.703979
0.069153 0.069153 0.069153
0.087769 0.087769 0.087769
0.110504 0.110504 0.110504
0.138458 0.138458 0.138458
0.173584 0.173584 0.173584
0.213989 0.213989 0.213989
0.254211 0.254211 0.254211
0.291412 0.291412 0.291412
0.109589 0.109589 0.109589
0.137451 0.137451 0.137451
0.172150 0.172150 0.172150
0.212646 0.212646 0.212646
0.253021 0.253021 0.253021
0.290283 0.290283 0.290283
0.324890 0.324890 0.324890
0.356598 0.356598 0.356598
0.170929 0.170929 0.170929
0.211365 0.211365 0.211365
0.251526 0.251526 0.251526
0.289124 0.289124 0.289124
0.323639 0.323639 0.323639
0.355682 0.355682 0.355682
0.385162 0.385162 0.385162
0.413208 0.413208 0.413208
0.250305 0.250305 0.250305
0.288025 0.288025 0.288025
0.322601 0.322601 0.322601
0.354675 0.354675 0.354675
0.384277 0.384277 0.384277
0.412354 0.412354 0.412354
0.439270 0.439270 0.439270
0.466125 0.466125 0.466125
0.321564 0.321564 0.321564
0.353516 0.353516 0.353516
0.383362 0.383362 0.383362
0.411469 0.411469 0.411469
0.438385 0.438385 0.438385
0.465271 0.465271 0.465271
0.492493 0.492493 0.492493
0.521057 0.521057 0.521057
0.382446 0.382446 0.382446
0.410461 0.410461 0.410461
0.437592 0.437592 0.437592
0.464233 0.464233 0.464233
0.491608 0.491608 0.491608
0.519958 0.519958 0.519958
0.550201 0.550201 0.550201
0.582520 0.582520 0.582520
0.436707 0.436707 0.436707
0.463409 0.463409 0.463409
0.490692 0.490692 0.490692
0.519043 0.519043 0.519043
0.549225 0.549225 0.549225
0.581268 0.581268 0.581268
0.615295 0.615295 0.615295
0.649841 0.649841 0.649841
0.489685 0.489685 0.489685
0.518127 0.518127 0.518127
0.548065 0.548065 0.548065
0.580231 0.580231 0.580231
0.614258 0.614258 0.614258
0.648773 0.648773 0.648773
0.683075 0.683075 0.683075
0.715759 0.715759 0.715759
0.075562 0.075562 0.075562
0.095520 0.095520 0.095520
0.120056 0.120056 0.120056
0.150360 0.150360 0.150360
0.188080 0.188080 0.188080
0.228973 0.228973 0.228973
0.268219 0.268219 0.268219
0.304352 0.304352 0.304352
0.119080 0.119080 0.119080
0.149323 0.149323 0.149323
0.186829 0.186829 0.186829
0.227692 0.227692 0.227692
0.267059 0.267059 0.267059
0.303253 0.303253 0.303253
0.336853 0.336853 0.336853
0.367676 0.367676 0.367676
0.185272 0.185272 0.185272
0.226410 0.226410 0.226410
0.265594 0.265594 0.265594
0.302155 0.302155 0.302155
0.335846 0.335846 0.335846
0.366730 0.366730 0.366730
0.395752 0.395752 0.395752
0.423126 0.423126 0.423126
0.264404 0.264404 0.264404
0.301056 0.301056 0.301056
0.334625 0.334625 0.334625
0.365784 0.365784 0.365784
0.394684 0.394684 0.394684
0.422272 0.422272 0.422272
0.449036 0.449036 0.449036
0.476013 0.476013 0.476013
0.333588 0.333588 0.333588
0.364838 0.364838 0.364838
0.393768 0.393768 0.393768
0.421448 0.421448 0.421448
0.448212 0.448212 0.448212
0.475159 0.475159 0.475159
0.502747 0.502747 0.502747
0.531891 0.531891 0.531891
0.392883 0.392883 0.392883
0.420410 0.420410 0.420410
0.447357 0.447357 0.447357
0.474304 0.474304 0.474304
0.501862 0.501862 0.501862
0.530945 0.530945 0.530945
0.561737 0.561737 0.561737
0.594818 0.594818 0.594818
0.446503 0.446503 0.446503
0.473297 0.473297 0.473297
0.500946 0.500946 0.500946
0.529816 0.529816 0.529816
0.560760 0.560760 0.560760
0.593536 0.593536 0.593536
0.627960 0.627960 0.627960
0.662689 0.662689 0.662689
0.500061 0.500061 0.500061
0.528870 0.528870 0.528870
0.559753 0.559753 0.559753
0.592438 0.592438 0.592438
0.626862 0.626862 0.626862
0.661377 0.661377 0.661377
0.695282 0.695282 0.695282
0.727203 0.727203 0.727203
0.082458 0.082458 0.082458
0.103882 0.103882 0.103882
0.130432 0.130432 0.130432
0.163330 0.163330 0.163330
0.203033 0.203033 0.203033
0.243866 0.243866 0.243866
0.281830 0.281830 0.281830
0.317108 0.317108 0.317108
0.129486 0.129486 0.129486
0.162170 0.162170 0.162170
0.201721 0.201721 0.201721
0.242371 0.242371 0.242371
0.280670 0.280670 0.280670
0.315826 0.315826 0.315826
0.348419 0.348419 0.348419
0.378448 0.378448 0.378448
0.200165 0.200165 0.200165
0.241119 0.241119 0.241119
0.279510 0.279510 0.279510
0.314728 0.314728 0.314728
0.347443 0.347443 0.347443
0.377502 0.377502 0.377502
0.405914 0.405914 0.405914
0.432983 0.432983 0.432983
0.278107 0.278107 0.278107
0.313690 0.313690 0.313690
0.346252 0.346252 0.346252
0.376587 0.376587 0.376587
0.404907 0.404907 0.404907
0.432159 0.432159 0.432159
0.459015 0.459015 0.459015
0.486023 0.486023 0.486023
0.345306 0.345306 0.345306
0.375702 0.375702 0.375702
0.403992 0.403992 0.403992
0.431305 0.431305 0.431305
0.457977 0.457977 0.457977
0.485138 0.485138 0.485138
0.513184 0.513184 0.513184
0.542999 0.542999 0.542999
0.403168 0.403168 0.403168
0.430450 0.430450 0.430450
0.457123 0.457123 0.457123
0.484283 0.484283 0.484283
0.512268 0.512268 0.512268
0.542023 0.542023 0.542023
0.573578 0.573578 0.573578
0.607269 0.607269 0.607269
0.456299 0.456299 0.456299
0.483246 0.483246 0.483246
0.511353 0.511353 0.511353
0.540863 0.540863 0.540863
0.572540 0.572540 0.572540
0.606201 0.606201 0.606201
0.640656 0.640656 0.640656
0.675201 0.675201 0.675201
0.510437 0.510437 0.510437
0.539886 0.539886 0.539886
0.571503 0.571503 0.571503
0.604919 0.604919 0.604919
0.639557 0.639557 0.639557
0.673889 0.673889 0.673889
0.707275 0.707275 0.707275
0.738342 0.738342 0.738342
0.089874 0.089874 0.089874
0.112946 0.112946 0.112946
0.141632 0.141632 0.141632
0.177490 0.177490 0.177490
0.218140 0.218140 0.218140
0.258118 0.258118 0.258118
0.295013 0.295013 0.295013
0.329285 0.329285 0.329285
0.140625 0.140625 0.140625
0.176056 0.176056 0.176056
0.216827 0.216827 0.216827
0.256653 0.256653 0.256653
0.293915 0.293915 0.293915
0.328033 0.328033 0.328033
0.359711 0.359711 0.359711
0.389160 0.389160 0.389160
0.215546 0.215546 0.215546
0.255463 0.255463 0.255463
0.292786 0.292786 0.292786
0.326996 0.326996 0.326996
0.358734 0.358734 0.358734
0.388062 0.388062 0.388062
0.415955 0.415955 0.415955
0.442780 0.442780 0.442780
0.291412 0.291412 0.291412
0.325958 0.325958 0.325958
0.357574 0.357574 0.357574
0.387177 0.387177 0.387177
0.415100 0.415100 0.415100
0.441956 0.441956 0.441956
0.468842 0.468842 0.468842
0.496155 0.496155 0.496155
0.356598 0.356598 0.356598
0.386261 0.386261 0.386261
0.414062 0.414062 0.414062
0.441101 0.441101 0.441101
0.467987 0.467987 0.467987
0.495270 0.495270 0.495270
0.524017 0.524017 0.524017
0.554352 0.554352 0.554352
0.413208 0.413208 0.413208
0.440277 0.440277 0.440277
0.466949 0.466949 0.466949
0.494415 0.494415 0.494415
0.522888 0.522888 0.522888
0.553375 0.553375 0.553375
0.585663 0.585663 0.585663
0.619873 0.619873 0.619873
0.466125 0.466125 0.466125
0.493378 0.493378 0.493378
0.521973 0.521973 0.521973
0.552368 0.552368 0.552368
0.584656 0.584656 0.584656
0.618805 0.618805 0.618805
0.653320 0.653320 0.653320
0.687531 0.687531 0.687531
0.521057 0.521057 0.521057
0.551178 0.551178 0.551178
0.583557 0.583557 0.583557
0.617493 0.617493 0.617493
0.652252 0.652252 0.652252
0.686493 0.686493 0.686493
0.718964 0.718964 0.718964
0.749237 0.749237 0.749237
