examples/luts/Clayton 33.CUBE
#Created by: Adobe Photoshop Export Color Lookup Plugin
#Copyright: (C) Copyright 2017 RocketStock
TITLE "Black and White"
#LUT size
LUT_3D_SIZE 5
#data domain
#LUT data points
DOMAIN_MIN 0.000000 0.000000 0.000000
DOMAIN_MAX 0.903226 0.903226 0.903226
0.039612 0.039612 0.039612
0.073975 0.073975 0.073975
0.111328 0.111328 0.111328
0.165222 0.165222 0.165222
0.235840 0.235840 0.235840
0.109894 0.109894 0.109894
0.163116 0.163116 0.163116
0.233551 0.233551 0.233551
0.299500 0.299500 0.299500
0.356995 0.356995 0.356995
0.231018 0.231018 0.231018
0.297485 0.297485 0.297485
0.355072 0.355072 0.355072
0.405914 0.405914 0.405914
0.453064 0.453064 0.453064
0.353363 0.353363 0.353363
0.404358 0.404358 0.404358
0.451569 0.451569 0.451569
0.499329 0.499329 0.499329
0.550995 0.550995 0.550995
0.450073 0.450073 0.450073
0.497589 0.497589 0.497589
0.549225 0.549225 0.549225
0.606628 0.606628 0.606628
0.667206 0.667206 0.667206
0.054565 0.054565 0.054565
0.086212 0.086212 0.086212
0.128784 0.128784 0.128784
0.190399 0.190399 0.190399
0.261047 0.261047 0.261047
0.126923 0.126923 0.126923
0.188080 0.188080 0.188080
0.258606 0.258606 0.258606
0.321564 0.321564 0.321564
0.376068 0.376068 0.376068
0.256409 0.256409 0.256409
0.319641 0.319641 0.319641
0.374390 0.374390 0.374390
0.423462 0.423462 0.423462
0.470367 0.470367 0.470367
0.372711 0.372711 0.372711
0.421753 0.421753 0.421753
0.468842 0.468842 0.468842
0.517548 0.517548 0.517548
0.571503 0.571503 0.571503
0.467316 0.467316 0.467316
0.515900 0.515900 0.515900
0.569672 0.569672 0.569672
0.628845 0.628845 0.628845
0.688812 0.688812 0.688812
0.066010 0.066010 0.066010
0.100098 0.100098 0.100098
0.148682 0.148682 0.148682
0.216827 0.216827 0.216827
0.284821 0.284821 0.284821
0.146759 0.146759 0.146759
0.214508 0.214508 0.214508
0.282745 0.282745 0.282745
0.342468 0.342468 0.342468
0.394501 0.394501 0.394501
0.280670 0.280670 0.280670
0.340485 0.340485 0.340485
0.392883 0.392883 0.392883
0.440582 0.440582 0.440582
0.487915 0.487915 0.487915
0.391296 0.391296 0.391296
0.439087 0.439087 0.439087
0.486359 0.486359 0.486359
0.536621 0.536621 0.536621
0.592682 0.592682 0.592682
0.484650 0.484650 0.484650
0.534943 0.534943 0.534943
0.590759 0.590759 0.590759
0.651154 0.651154 0.651154
0.709900 0.709900 0.709900
0.077179 0.077179 0.077179
0.115875 0.115875 0.115875
0.171906 0.171906 0.171906
0.242828 0.242828 0.242828
0.307617 0.307617 0.307617
0.169708 0.169708 0.169708
0.240356 0.240356 0.240356
0.305664 0.305664 0.305664
0.362183 0.362183 0.362183
0.412354 0.412354 0.412354
0.303680 0.303680 0.303680
0.360474 0.360474 0.360474
0.410614 0.410614 0.410614
0.457825 0.457825 0.457825
0.505768 0.505768 0.505768
0.409058 0.409058 0.409058
0.456299 0.456299 0.456299
0.504181 0.504181 0.504181
0.556519 0.556519 0.556519
0.614655 0.614655 0.614655
0.502533 0.502533 0.502533
0.554749 0.554749 0.554749
0.612701 0.612701 0.612701
0.673065 0.673065 0.673065
0.730164 0.730164 0.730164
0.089874 0.089874 0.089874
0.133789 0.133789 0.133789
0.197601 0.197601 0.197601
0.267517 0.267517 0.267517
0.329285 0.329285 0.329285
0.195251 0.195251 0.195251
0.265350 0.265350 0.265350
0.327393 0.327393 0.327393
0.381195 0.381195 0.381195
0.429596 0.429596 0.429596
0.325317 0.325317 0.325317
0.379547 0.379547 0.379547
0.428101 0.428101 0.428101
0.475159 0.475159 0.475159
0.524414 0.524414 0.524414
0.426544 0.426544 0.426544
0.473633 0.473633 0.473633
0.522736 0.522736 0.522736
0.577118 0.577118 0.577118
0.636963 0.636963 0.636963
0.521057 0.521057 0.521057
0.575195 0.575195 0.575195
0.635010 0.635010 0.635010
0.694672 0.694672 0.694672
0.749237 0.749237 0.749237
