examples/luts/Cubicle 99.CUBE
#Created by: Adobe Photoshop Export Color Lookup Plugin
#Copyright: (C) Copyright 2017 RocketStock
TITLE "Cool "
#LUT size
LUT_3D_SIZE 8
#data domain
#LUT data points
DOMAIN_MIN 0.000000 0.000000 0.000000
DOMAIN_MAX 0.903226 0.903226 0.903226
0.000000 0.000000 0.120178
0.025360 0.000000 0.121918
0.140869 0.000000 0.123871
0.229523 0.000000 0.126160
0.312622 0.000000 0.128723
0.414581 0.000000 0.131500
0.560486 0.000000 0.134491
0.756439 0.000000 0.137695
0.000000 0.077332 0.123810
0.030548 0.081085 0.126129
0.145355 0.085083 0.128662
0.232971 0.089600 0.131439
0.315765 0.094360 0.134399
0.418030 0.099579 0.137604
0.563812 0.104706 0.140869
0.758209 0.110260 0.144318
0.000000 0.189423 0.128601
0.037018 0.192322 0.131348
0.150757 0.195465 0.134308
0.236816 0.198700 0.137421
0.319489 0.202118 0.140747
0.421875 0.205566 0.144165
0.567535 0.209106 0.147675
0.760284 0.212830 0.151245
0.000000 0.274658 0.134216
0.044525 0.277069 0.137329
0.156586 0.279388 0.140656
0.241272 0.281982 0.144043
0.323456 0.284485 0.147583
0.425873 0.287231 0.151123
0.571381 0.290009 0.154694
0.762238 0.292542 0.158264
0.000000 0.355286 0.140503
0.058655 0.357422 0.143982
0.162964 0.359863 0.147430
0.245911 0.362183 0.150970
0.327698 0.364594 0.154602
0.430267 0.367065 0.158203
0.575439 0.369537 0.161774
0.764313 0.372040 0.165527
0.000000 0.454498 0.147308
0.068115 0.456787 0.150879
0.169373 0.459320 0.154449
0.250610 0.461670 0.158081
0.331970 0.464264 0.161652
0.434753 0.466675 0.165466
0.579376 0.469269 0.168915
0.766205 0.471619 0.172241
0.000000 0.593445 0.154327
0.077850 0.595612 0.157928
0.175781 0.597961 0.161530
0.255432 0.600159 0.165283
0.336365 0.602264 0.168793
0.438965 0.604462 0.172150
0.583191 0.606689 0.175415
0.768188 0.608673 0.178497
0.000000 0.771301 0.161438
0.087494 0.772522 0.165192
0.182129 0.773682 0.168671
0.260071 0.774689 0.172058
0.340454 0.775818 0.175293
0.443207 0.776917 0.178436
0.586761 0.777802 0.181396
0.769867 0.778809 0.184174
0.000000 0.000000 0.245117
0.026215 0.000000 0.246368
0.141724 0.000000 0.247833
0.230103 0.000000 0.249481
0.313080 0.000000 0.251312
0.415253 0.000000 0.253296
0.561127 0.000000 0.255432
0.756714 0.000000 0.257599
0.000000 0.078644 0.247803
0.031677 0.082611 0.249420
0.146362 0.086670 0.251251
0.233673 0.091309 0.253235
0.316406 0.096344 0.255310
0.418640 0.101410 0.257507
0.564606 0.106781 0.259827
0.758545 0.112152 0.262177
0.000000 0.190308 0.251190
0.038452 0.193298 0.253174
0.151825 0.196503 0.255249
0.237671 0.199890 0.257446
0.320099 0.203400 0.259735
0.422699 0.206940 0.262115
0.568359 0.210449 0.264496
0.760620 0.214050 0.266968
0.000000 0.275604 0.255188
0.046387 0.277832 0.257385
0.157715 0.280426 0.259674
0.242157 0.282837 0.262054
0.324280 0.285553 0.264435
0.426788 0.288269 0.266876
0.572174 0.290863 0.269318
0.762604 0.293610 0.271759
0.000000 0.356018 0.259613
0.060272 0.358368 0.261963
0.164185 0.360657 0.264374
0.246826 0.363190 0.266785
0.328430 0.365479 0.269226
0.431183 0.368073 0.271698
0.576141 0.370453 0.274078
0.764648 0.373047 0.276459
0.000000 0.455261 0.264282
0.069916 0.457764 0.266754
0.170654 0.460175 0.269165
0.251556 0.462708 0.271637
0.332855 0.465149 0.274048
0.435425 0.467712 0.276367
0.580017 0.470032 0.278687
0.766754 0.472595 0.280945
0.000000 0.594147 0.269073
0.079742 0.596527 0.271515
0.176971 0.598663 0.273926
0.256348 0.600861 0.276337
0.337067 0.603210 0.278625
0.439819 0.605255 0.280884
0.583801 0.607330 0.283234
0.768463 0.609283 0.285278
0.000000 0.771912 0.273865
0.089142 0.772858 0.276245
0.183289 0.774048 0.278564
0.260986 0.775238 0.280792
0.341278 0.776154 0.283142
0.443787 0.777222 0.285217
0.587250 0.778107 0.287109
0.770081 0.779114 0.288910
0.000000 0.000000 0.338348
0.027130 0.000000 0.339172
0.142578 0.000000 0.340088
0.230713 0.000000 0.341339
0.313751 0.000000 0.342499
0.415802 0.000000 0.343719
0.561584 0.000000 0.345062
0.756989 0.000000 0.346405
0.000000 0.080048 0.340057
0.032837 0.084045 0.341309
0.147339 0.088318 0.342438
0.234344 0.093262 0.343689
0.317200 0.098145 0.344971
0.419403 0.103302 0.346375
0.565186 0.108734 0.347809
0.758972 0.114319 0.349274
0.000000 0.191437 0.342407
0.039734 0.194519 0.343628
0.152924 0.197723 0.344940
0.238586 0.201111 0.346313
0.320923 0.204559 0.347748
0.423279 0.208282 0.349213
0.569061 0.211853 0.350708
0.760925 0.215424 0.352142
0.000000 0.276306 0.344879
0.048920 0.278839 0.346283
0.158905 0.281219 0.347687
0.242920 0.283905 0.349152
0.324921 0.286560 0.350647
0.427612 0.289124 0.352112
0.573029 0.291901 0.353638
0.763092 0.294739 0.355133
0.000000 0.356934 0.347656
0.062012 0.359131 0.349121
0.165344 0.361633 0.350616
0.247711 0.363953 0.352081
0.329285 0.366486 0.353607
0.431915 0.368866 0.355103
0.576965 0.371490 0.356567
0.765167 0.373810 0.358063
0.000000 0.456238 0.350555
0.071716 0.458618 0.352051
0.171875 0.461151 0.353546
0.252502 0.463531 0.355042
0.333588 0.466095 0.356506
0.436279 0.468506 0.358002
0.580780 0.471069 0.359406
0.767029 0.473358 0.360809
0.000000 0.595062 0.353455
0.081421 0.597229 0.355011
0.178131 0.599518 0.356476
0.257263 0.601776 0.357971
0.337891 0.603882 0.359375
0.440430 0.605927 0.360748
0.584534 0.608124 0.362091
0.768890 0.610107 0.363342
0.000000 0.772278 0.356415
0.090851 0.773407 0.357880
0.184448 0.774414 0.359344
0.261841 0.775574 0.360718
0.342072 0.776550 0.362030
0.444641 0.777557 0.363312
0.587952 0.778442 0.364502
0.770538 0.779388 0.365631
0.000000 0.000000 0.408264
0.028076 0.000000 0.408844
0.143463 0.000000 0.409515
0.231262 0.000000 0.410278
0.314240 0.000000 0.411072
0.416565 0.000000 0.411987
0.562347 0.000000 0.412903
0.757263 0.000000 0.413879
0.000000 0.081482 0.409515
0.034119 0.085693 0.410248
0.148376 0.090179 0.411041
0.235138 0.094971 0.411957
0.317749 0.100006 0.412842
0.420227 0.105316 0.413849
0.565918 0.110718 0.414825
0.759338 0.116272 0.415863
0.000000 0.192627 0.411011
0.041199 0.195740 0.411926
0.153992 0.199005 0.412811
0.239258 0.202393 0.413788
0.321533 0.205902 0.414795
0.424194 0.209595 0.415833
0.569763 0.213196 0.416901
0.761230 0.216797 0.417938
0.000000 0.277313 0.412781
0.051666 0.279633 0.413757
0.160095 0.282257 0.414764
0.243774 0.284760 0.415802
0.325775 0.287415 0.416840
0.428467 0.290222 0.417938
0.573608 0.292908 0.419006
0.763367 0.295563 0.420044
0.000000 0.357635 0.414734
0.063873 0.360107 0.415771
0.166534 0.362366 0.416809
0.248474 0.364929 0.417908
0.330048 0.367310 0.418945
0.432770 0.369904 0.420013
0.577576 0.372284 0.421112
0.765503 0.374847 0.422119
0.000000 0.457092 0.416779
0.073578 0.459564 0.417847
0.173065 0.461945 0.418915
0.253387 0.464539 0.419983
0.334381 0.466888 0.421082
0.437103 0.469513 0.422089
0.581421 0.471985 0.423157
0.767303 0.474335 0.424133
0.000000 0.595795 0.418884
0.083252 0.598206 0.419952
0.179382 0.600342 0.421021
0.257996 0.602478 0.422058
0.338745 0.604767 0.423126
0.441284 0.606842 0.424103
0.585297 0.608826 0.425079
0.769257 0.610748 0.425964
0.000000 0.772614 0.420990
0.092682 0.773773 0.422028
0.185547 0.774811 0.423065
0.262512 0.775879 0.424072
0.342743 0.777008 0.425018
0.445160 0.777863 0.425934
0.588470 0.778900 0.426849
0.770752 0.779633 0.427612
0.000000 0.000000 0.473541
0.029144 0.000000 0.474030
0.144196 0.000000 0.474640
0.231995 0.000000 0.475311
0.315002 0.000000 0.476044
0.417053 0.000000 0.476807
0.562927 0.000000 0.477600
0.757751 0.000000 0.478455
0.000000 0.082947 0.474609
0.035248 0.087280 0.475281
0.149353 0.091919 0.475983
0.235718 0.096802 0.476776
0.318542 0.101868 0.477570
0.420807 0.107300 0.478424
0.566528 0.112793 0.479309
0.759644 0.118286 0.480194
0.000000 0.193756 0.475983
0.042542 0.196930 0.476746
0.155121 0.200317 0.477539
0.240112 0.203735 0.478394
0.322357 0.207214 0.479279
0.424988 0.210785 0.480164
0.570496 0.214569 0.481110
0.761780 0.218140 0.482056
0.000000 0.278046 0.477509
0.054657 0.280609 0.478363
0.161316 0.283234 0.479248
0.244659 0.285767 0.480133
0.326538 0.288513 0.481079
0.429199 0.291107 0.482025
0.574432 0.293884 0.482941
0.763794 0.296661 0.483887
0.000000 0.358612 0.479187
0.065704 0.360809 0.480133
0.167755 0.363373 0.481018
0.249451 0.365692 0.481995
0.330872 0.368317 0.482941
0.433624 0.370636 0.483856
0.578369 0.373260 0.484802
0.765808 0.375610 0.485748
0.000000 0.457977 0.481018
0.075500 0.460571 0.481964
0.174255 0.462921 0.482880
0.254181 0.465546 0.483795
0.335236 0.467896 0.484772
0.437836 0.470459 0.485718
0.582184 0.472839 0.486603
0.767792 0.475067 0.487457
0.000000 0.596710 0.482849
0.085083 0.598877 0.483765
0.180450 0.601044 0.484741
0.258881 0.603394 0.485687
0.339539 0.605499 0.486572
0.442139 0.607452 0.487427
0.585815 0.609467 0.488312
0.769501 0.611542 0.489075
0.000000 0.772980 0.484741
0.094238 0.774139 0.485657
0.186646 0.775330 0.486542
0.263428 0.776215 0.487396
0.343536 0.777313 0.488281
0.445984 0.778168 0.489044
0.589142 0.779175 0.489838
0.770966 0.779877 0.490509
0.000000 0.000000 0.552277
0.030182 0.000000 0.552856
0.145111 0.000000 0.553406
0.232758 0.000000 0.554108
0.315491 0.000000 0.554810
0.417816 0.000000 0.555573
0.563629 0.000000 0.556366
0.758087 0.000000 0.557220
0.000000 0.084473 0.553406
0.036591 0.088959 0.554077
0.150452 0.093658 0.554779
0.236603 0.098572 0.555542
0.319092 0.103943 0.556335
0.421631 0.109192 0.557190
0.567291 0.114807 0.558014
0.760071 0.120209 0.558929
0.000000 0.194794 0.554749
0.044098 0.198029 0.555511
0.156250 0.201385 0.556305
0.240967 0.205048 0.557159
0.323212 0.208588 0.558014
0.425629 0.212158 0.558899
0.571167 0.215851 0.559814
0.762085 0.219513 0.560760
0.000000 0.279022 0.556274
0.057373 0.281494 0.557129
0.162384 0.284088 0.558014
0.245605 0.286835 0.558868
0.327301 0.289429 0.559784
0.430054 0.292175 0.560699
0.575043 0.294952 0.561646
0.764252 0.297516 0.562531
0.000000 0.359314 0.557983
0.067444 0.361816 0.558868
0.168915 0.364136 0.559784
0.250397 0.366699 0.560669
0.331726 0.369080 0.561615
0.434265 0.371704 0.562531
0.579102 0.374023 0.563446
0.766113 0.376587 0.564331
0.000000 0.458954 0.559723
0.077087 0.461304 0.560638
0.175415 0.463928 0.561554
0.255157 0.466339 0.562500
0.336121 0.468903 0.563416
0.438721 0.471252 0.564301
0.582977 0.473572 0.565369
0.768097 0.476044 0.566223
0.000000 0.597412 0.561523
0.086700 0.599823 0.562469
0.181641 0.601990 0.563385
0.259827 0.604065 0.564270
0.340210 0.606323 0.565338
0.442749 0.608337 0.566193
0.586365 0.610291 0.567017
0.769775 0.612152 0.567749
0.000000 0.773560 0.563324
0.096008 0.774506 0.564209
0.187653 0.775665 0.565338
0.264282 0.776764 0.566162
0.344147 0.777649 0.566986
0.446655 0.778625 0.567749
0.589630 0.779449 0.568451
0.771210 0.780334 0.569092
0.000000 0.000000 0.661560
0.031281 0.000000 0.662079
0.146057 0.000000 0.662628
0.233307 0.000000 0.663239
0.316254 0.000000 0.663879
0.418396 0.000000 0.664612
0.564423 0.000000 0.665314
0.758392 0.000000 0.666046
0.000000 0.086060 0.662598
0.037872 0.090607 0.663208
0.151489 0.095428 0.663879
0.237457 0.100464 0.664581
0.319916 0.105835 0.665314
0.422302 0.111298 0.666016
0.568115 0.116791 0.666809
0.760468 0.122437 0.667572
0.000000 0.195984 0.663818
0.045410 0.199310 0.664520
0.157410 0.202728 0.665283
0.241943 0.206329 0.665985
0.323914 0.209961 0.666779
0.426544 0.213531 0.667572
0.571991 0.217102 0.668396
0.762390 0.220856 0.669159
0.000000 0.279846 0.665253
0.059692 0.282440 0.665985
0.163666 0.285126 0.666779
0.246399 0.287659 0.667542
0.328186 0.290466 0.668365
0.430847 0.293243 0.669159
0.575928 0.295807 0.669983
0.764526 0.298584 0.670776
0.000000 0.360291 0.666748
0.069275 0.362579 0.667511
0.170105 0.365143 0.668335
0.251343 0.367523 0.669128
0.332581 0.370056 0.669983
0.435181 0.372498 0.670715
0.579803 0.375061 0.671570
0.766541 0.377380 0.672302
0.000000 0.459747 0.668304
0.078979 0.462372 0.669067
0.176605 0.464722 0.669922
0.256073 0.467346 0.670715
0.336792 0.469696 0.671539
0.439575 0.472260 0.672302
0.583527 0.474548 0.673035
0.768372 0.476807 0.673767
0.000000 0.598358 0.669891
0.088593 0.600525 0.670685
0.182861 0.602661 0.671478
0.260712 0.604980 0.672272
0.341064 0.607025 0.673004
0.443604 0.608978 0.673706
0.587097 0.610901 0.674622
0.769958 0.612701 0.675293
0.000000 0.773926 0.671448
0.097534 0.774994 0.672211
0.188721 0.775970 0.673004
0.264923 0.777100 0.673706
0.344910 0.777985 0.674622
0.447296 0.778992 0.675262
0.590149 0.779724 0.675842
0.771545 0.780609 0.676422
0.000000 0.000000 0.803223
0.032410 0.000000 0.803467
0.147034 0.000000 0.803772
0.234131 0.000000 0.804077
0.316895 0.000000 0.804382
0.419220 0.000000 0.804749
0.564972 0.000000 0.805145
0.758789 0.000000 0.805511
0.000000 0.087646 0.803772
0.039154 0.092346 0.804016
0.152618 0.097260 0.804382
0.238220 0.102509 0.804749
0.320709 0.107788 0.805115
0.423065 0.113312 0.805511
0.568695 0.118896 0.805908
0.760803 0.124451 0.806305
0.000000 0.197296 0.804382
0.048126 0.200592 0.804749
0.158539 0.204041 0.805115
0.242584 0.207550 0.805511
0.324677 0.211304 0.805908
0.427307 0.214874 0.806305
0.572632 0.218475 0.806702
0.762939 0.222107 0.807098
0.000000 0.280823 0.805115
0.061432 0.283508 0.805450
0.164948 0.285980 0.805847
0.247284 0.288757 0.806305
0.329041 0.291534 0.806702
0.431610 0.294128 0.807098
0.576721 0.296875 0.807495
0.764862 0.299652 0.807892
0.000000 0.361053 0.805847
0.071136 0.363617 0.806274
0.171295 0.365906 0.806641
0.252075 0.368500 0.807098
0.333282 0.370880 0.807495
0.436066 0.373474 0.807892
0.580627 0.375854 0.808258
0.766937 0.378357 0.808594
0.000000 0.460754 0.806641
0.080902 0.463165 0.807037
0.177765 0.465729 0.807434
0.256927 0.468140 0.807892
0.337646 0.470703 0.808228
0.440216 0.473053 0.808594
0.584320 0.475433 0.809021
0.768707 0.477692 0.809326
0.000000 0.599091 0.807434
0.090240 0.601410 0.807831
0.183899 0.603546 0.808228
0.261414 0.605652 0.808594
0.341644 0.607666 0.808990
0.444244 0.609833 0.809326
0.587708 0.611725 0.809631
0.770447 0.613464 0.809998
0.000000 0.774261 0.808228
0.099213 0.775421 0.808563
0.189728 0.776337 0.808990
0.265778 0.777466 0.809326
0.345642 0.778259 0.809631
0.448090 0.779266 0.809967
0.590698 0.780029 0.810272
0.771851 0.780853 0.810516
