examples/luts/Cubicle 99.CUBE
#Created by: Adobe Photoshop Export Color Lookup Plugin
#Copyright: (C) Copyright 2017 RocketStock
TITLE "Cool "
#LUT size
LUT_3D_SIZE 5
#data domain
#LUT data points
DOMAIN_MIN 0.000000 0.000000 0.000000
DOMAIN_MAX 0.903226 0.903226 0.903226
0.000000 0.000000 0.120178
0.115326 0.000000 0.123352
0.270264 0.000000 0.127441
0.445984 0.000000 0.132263
0.756439 0.000000 0.137695
0.000000 0.164520 0.127258
0.124634 0.170135 0.132080
0.276215 0.176453 0.137543
0.452332 0.183167 0.143311
0.759644 0.190063 0.149475
0.000000 0.314056 0.137299
0.136017 0.318024 0.143158
0.283325 0.322327 0.149292
0.459595 0.326538 0.155548
0.763275 0.331024 0.161804
0.000000 0.484741 0.149048
0.148438 0.489075 0.155304
0.291199 0.493317 0.161652
0.467377 0.497711 0.167999
0.766876 0.501831 0.173859
0.000000 0.771301 0.161438
0.160706 0.773407 0.167847
0.298767 0.775360 0.173676
0.474609 0.777161 0.179199
0.769867 0.778809 0.184174
0.000000 0.000000 0.318054
0.116943 0.000000 0.319702
0.271271 0.000000 0.321808
0.447113 0.000000 0.324188
0.756989 0.000000 0.326813
0.000000 0.166412 0.321686
0.126465 0.172394 0.324097
0.277435 0.178802 0.326721
0.453613 0.185608 0.329590
0.760437 0.192719 0.332458
0.000000 0.315399 0.326630
0.138306 0.319519 0.329468
0.284729 0.323883 0.332367
0.460968 0.328156 0.335358
0.763977 0.332642 0.338226
0.000000 0.486328 0.332275
0.150726 0.490631 0.335236
0.292572 0.494904 0.338165
0.468689 0.499298 0.341187
0.767334 0.503357 0.343872
0.000000 0.772186 0.338043
0.162933 0.774109 0.341125
0.300079 0.775940 0.343811
0.475708 0.777710 0.346283
0.770447 0.779297 0.348541
0.000000 0.000000 0.440186
0.118439 0.000000 0.441193
0.272369 0.000000 0.442413
0.448273 0.000000 0.443756
0.757446 0.000000 0.445282
0.000000 0.168488 0.442352
0.128571 0.174622 0.443726
0.278717 0.181396 0.445221
0.454987 0.188232 0.446869
0.760956 0.195404 0.448578
0.000000 0.316864 0.445160
0.140564 0.321045 0.446777
0.286255 0.325378 0.448517
0.462585 0.329773 0.450226
0.764587 0.334259 0.451965
0.000000 0.487885 0.448456
0.153015 0.492310 0.450165
0.294006 0.496490 0.451904
0.470123 0.500854 0.453583
0.768066 0.504852 0.455383
0.000000 0.772797 0.451813
0.165100 0.774689 0.453522
0.301514 0.776642 0.455322
0.476959 0.778229 0.456818
0.770874 0.779755 0.458130
0.000000 0.000000 0.576294
0.120209 0.000000 0.577271
0.273376 0.000000 0.578400
0.449463 0.000000 0.579742
0.758179 0.000000 0.581207
0.000000 0.170776 0.578369
0.130707 0.177094 0.579681
0.279999 0.183777 0.581146
0.456268 0.190918 0.582642
0.761780 0.197845 0.584229
0.000000 0.318359 0.581085
0.142914 0.322662 0.582611
0.287689 0.327057 0.584167
0.463989 0.331421 0.585754
0.765320 0.335907 0.587311
0.000000 0.489441 0.584106
0.155334 0.493896 0.585724
0.295380 0.498077 0.587280
0.471466 0.502411 0.588806
0.768524 0.506317 0.590271
0.000000 0.773651 0.587250
0.167175 0.775513 0.588776
0.302673 0.777283 0.590240
0.478149 0.778931 0.591583
0.771271 0.780457 0.592712
0.000000 0.000000 0.803223
0.121918 0.000000 0.803680
0.274597 0.000000 0.804260
0.450684 0.000000 0.804871
0.758789 0.000000 0.805511
0.000000 0.172913 0.804199
0.132904 0.179474 0.804810
0.281433 0.186401 0.805511
0.457794 0.193329 0.806183
0.762299 0.200500 0.806885
0.000000 0.319885 0.805450
0.145203 0.324280 0.806183
0.289093 0.328766 0.806885
0.465363 0.333038 0.807587
0.765900 0.337555 0.808258
0.000000 0.491058 0.806885
0.157593 0.495514 0.807587
0.296875 0.499634 0.808228
0.472748 0.503876 0.808899
0.769257 0.507812 0.809570
0.000000 0.774261 0.808228
0.169098 0.776123 0.808899
0.304077 0.777802 0.809509
0.479187 0.779449 0.810028
0.771851 0.780853 0.810516
