examples/luts/Cubicle 99.CUBE
#Created by: Adobe Photoshop Export Color Lookup Plugin
#Copyright: (C) Copyright 2017 RocketStock
TITLE "Cool "
#LUT size
LUT_3D_SIZE 32
#data domain
DOMAIN_MIN 0.0 0.0 0.0
DOMAIN_MAX 1.0 1.0 1.0
#LUT data points
0.000000 0.000000 0.120178
0.000000 0.000000 0.120575
0.000000 0.000000 0.121033
0.000000 0.000000 0.121429
0.025360 0.000000 0.121918
0.058624 0.000000 0.122314
0.087830 0.000000 0.122833
0.115326 0.000000 0.123352
0.140869 0.000000 0.123871
0.164948 0.000000 0.124451
0.187317 0.000000 0.125000
0.208771 0.000000 0.125641
0.229523 0.000000 0.126160
0.249725 0.000000 0.126801
0.270264 0.000000 0.127441
0.291107 0.000000 0.128082
0.312622 0.000000 0.128723
0.335327 0.000000 0.129456
0.359558 0.000000 0.130127
0.385864 0.000000 0.130798
0.414581 0.000000 0.131500
0.445984 0.000000 0.132263
0.480438 0.000000 0.133026
0.518585 0.000000 0.133759
0.560486 0.000000 0.134491
0.605652 0.000000 0.135315
0.653625 0.000000 0.136078
0.704041 0.000000 0.136902
0.756439 0.000000 0.137695
0.810120 0.000000 0.138489
0.864868 0.000000 0.139282
0.915527 0.000000 0.140167
0.000000 0.000000 0.120972
0.000000 0.000000 0.121399
0.000000 0.000000 0.121857
0.000244 0.000000 0.122314
0.026672 0.000000 0.122833
0.059784 0.000000 0.123322
0.089020 0.000000 0.123840
0.116425 0.000000 0.124390
0.141937 0.000000 0.124969
0.165741 0.000000 0.125549
0.188202 0.000000 0.126160
0.209656 0.000000 0.126801
0.230377 0.000000 0.127441
0.250580 0.000000 0.128082
0.271057 0.000000 0.128723
0.291718 0.000000 0.129425
0.313385 0.000000 0.130096
0.336182 0.000000 0.130798
0.360413 0.000916 0.131470
0.386749 0.001984 0.132233
0.415466 0.003082 0.133026
0.446869 0.004211 0.133728
0.481384 0.005402 0.134491
0.519470 0.006653 0.135284
0.561279 0.007843 0.136047
0.606384 0.009155 0.136841
0.654266 0.010437 0.137665
0.704498 0.011749 0.138458
0.756805 0.013153 0.139282
0.810364 0.014587 0.140076
0.865112 0.015961 0.140961
0.915527 0.017334 0.141815
0.000000 0.011719 0.121857
0.000000 0.012512 0.122314
0.000000 0.013275 0.122803
0.001343 0.014008 0.123322
0.027832 0.014893 0.123840
0.061066 0.015778 0.124390
0.090454 0.016571 0.124969
0.117737 0.017487 0.125519
0.143036 0.018494 0.126129
0.166779 0.019531 0.126801
0.189209 0.020386 0.127411
0.210510 0.021454 0.128082
0.231049 0.022522 0.128693
0.251495 0.023621 0.129395
0.271729 0.024750 0.130096
0.292572 0.025909 0.130737
0.314087 0.027069 0.131470
0.336853 0.028290 0.132233
0.361298 0.029297 0.132996
0.387573 0.030548 0.133728
0.416290 0.031799 0.134460
0.447632 0.033051 0.135254
0.482300 0.034332 0.135986
0.520416 0.035614 0.136810
0.562164 0.036926 0.137634
0.607147 0.038239 0.138428
0.655090 0.039551 0.139252
0.705261 0.041016 0.140076
0.757233 0.042480 0.140930
0.810760 0.043793 0.141754
0.865356 0.045227 0.142609
0.915527 0.047516 0.143433
0.000000 0.040649 0.122803
0.000000 0.041504 0.123322
0.000000 0.042358 0.123810
0.002441 0.043091 0.124390
0.029205 0.044037 0.124939
0.062622 0.044861 0.125519
0.091766 0.045868 0.126129
0.118927 0.047760 0.126770
0.144226 0.049530 0.127411
0.167847 0.051086 0.128021
0.190216 0.052948 0.128662
0.211334 0.054932 0.129395
0.231995 0.057037 0.130035
0.252319 0.058960 0.130737
0.272614 0.060059 0.131470
0.293396 0.061218 0.132202
0.315002 0.062561 0.132935
0.337708 0.063904 0.133728
0.362030 0.065277 0.134430
0.388336 0.066589 0.135223
0.417084 0.067932 0.135986
0.448547 0.069366 0.136780
0.483032 0.070770 0.137604
0.521393 0.072205 0.138428
0.563080 0.073456 0.139221
0.607971 0.074921 0.140045
0.655640 0.076324 0.140900
0.705719 0.077789 0.141724
0.757751 0.079193 0.142609
0.811127 0.080719 0.143402
0.865509 0.082153 0.144318
0.915527 0.083710 0.145203
0.000000 0.077332 0.123810
0.000000 0.078278 0.124359
0.000000 0.079102 0.124939
0.003784 0.080109 0.125488
0.030548 0.081085 0.126129
0.064148 0.082001 0.126709
0.093201 0.083099 0.127380
0.120331 0.084076 0.127991
0.145355 0.085083 0.128662
0.168976 0.086243 0.129333
0.191193 0.087433 0.130005
0.212402 0.088379 0.130737
0.232971 0.089600 0.131439
0.253113 0.090790 0.132172
0.273468 0.092041 0.132904
0.294159 0.093292 0.133698
0.315765 0.094360 0.134399
0.338623 0.095612 0.135223
0.362946 0.096954 0.135956
0.389252 0.098206 0.136780
0.418030 0.099579 0.137604
0.449524 0.100861 0.138397
0.484039 0.102173 0.139191
0.522095 0.103333 0.140015
0.563812 0.104706 0.140869
0.608887 0.106110 0.141724
0.656433 0.107452 0.142578
0.706482 0.108856 0.143402
0.758209 0.110260 0.144318
0.811401 0.111603 0.145172
0.865662 0.113037 0.145996
0.915527 0.114441 0.146942
0.000000 0.108459 0.124908
0.000000 0.109161 0.125458
0.000000 0.110168 0.126068
0.005188 0.110931 0.126709
0.032135 0.111969 0.127350
0.065857 0.113007 0.127991
0.094604 0.113861 0.128662
0.121613 0.114899 0.129303
0.146729 0.115875 0.130005
0.170135 0.116882 0.130737
0.192352 0.118011 0.131409
0.213379 0.119171 0.132172
0.233948 0.120087 0.132843
0.254028 0.121246 0.133667
0.274323 0.122406 0.134399
0.295074 0.123474 0.135162
0.316620 0.124573 0.135925
0.339478 0.125793 0.136749
0.363892 0.127014 0.137573
0.390259 0.128113 0.138367
0.419037 0.129272 0.139191
0.450500 0.130493 0.140015
0.485016 0.131744 0.140839
0.523071 0.133026 0.141693
0.564789 0.134064 0.142548
0.609589 0.135345 0.143372
0.657074 0.136627 0.144257
0.706940 0.137878 0.145111
0.758636 0.139160 0.145966
0.811646 0.140320 0.146851
0.865814 0.141571 0.147766
0.915527 0.142853 0.148651
0.000000 0.137604 0.126068
0.000000 0.138336 0.126678
0.000000 0.139252 0.127350
0.006744 0.139984 0.127960
0.033600 0.140961 0.128601
0.067444 0.141724 0.129303
0.096283 0.142731 0.129944
0.123016 0.143646 0.130646
0.148041 0.144562 0.131378
0.171326 0.145569 0.132141
0.193481 0.146484 0.132843
0.214447 0.147491 0.133636
0.234955 0.148560 0.134399
0.255035 0.149445 0.135132
0.275238 0.150543 0.135925
0.296051 0.151642 0.136719
0.317596 0.152527 0.137543
0.340332 0.153656 0.138336
0.364746 0.154785 0.139160
0.391174 0.155701 0.140015
0.419922 0.156860 0.140808
0.451385 0.157990 0.141693
0.486053 0.158936 0.142487
0.524078 0.160095 0.143341
0.565796 0.161285 0.144257
0.610474 0.162415 0.145081
0.657898 0.163391 0.145966
0.707672 0.164581 0.146851
0.759277 0.165771 0.147766
0.812195 0.166748 0.148621
0.865936 0.167877 0.149506
0.915527 0.169067 0.150391
0.000000 0.164520 0.127258
0.000000 0.165161 0.127899
0.000000 0.166046 0.128601
0.008331 0.166748 0.129272
0.035248 0.167633 0.129913
0.069275 0.168365 0.130615
0.097809 0.169281 0.131378
0.124634 0.170135 0.132080
0.149384 0.170990 0.132812
0.172516 0.171967 0.133545
0.194489 0.172729 0.134308
0.215515 0.173737 0.135101
0.235748 0.174469 0.135864
0.256042 0.175507 0.136688
0.276215 0.176453 0.137543
0.296936 0.177338 0.138306
0.318542 0.178406 0.139130
0.341309 0.179230 0.139984
0.365662 0.180237 0.140808
0.392120 0.181274 0.141663
0.420807 0.182098 0.142456
0.452332 0.183167 0.143311
0.487030 0.184143 0.144226
0.525085 0.185120 0.145050
0.566528 0.186188 0.145935
0.611420 0.187042 0.146820
0.658722 0.188141 0.147675
0.708221 0.189209 0.148590
0.759644 0.190063 0.149475
0.812469 0.191162 0.150330
0.866089 0.192139 0.151245
0.915527 0.193115 0.152130
0.000000 0.189423 0.128601
0.000000 0.190002 0.129211
0.000000 0.190826 0.129913
0.010040 0.191467 0.130615
0.037018 0.192322 0.131348
0.071106 0.192993 0.132080
0.099548 0.193909 0.132782
0.126099 0.194580 0.133545
0.150757 0.195465 0.134308
0.173798 0.196136 0.135071
0.195770 0.197052 0.135864
0.216644 0.197784 0.136688
0.236816 0.198700 0.137421
0.257050 0.199432 0.138306
0.277222 0.200439 0.139069
0.297852 0.201141 0.139923
0.319489 0.202118 0.140747
0.342316 0.202881 0.141602
0.366638 0.203827 0.142456
0.393036 0.204712 0.143311
0.421875 0.205566 0.144165
0.453339 0.206573 0.145020
0.487854 0.207306 0.145935
0.526093 0.208313 0.146790
0.567535 0.209106 0.147675
0.612122 0.210114 0.148590
0.659424 0.210968 0.149445
0.708984 0.211884 0.150299
0.760284 0.212830 0.151245
0.812744 0.213654 0.152100
0.866302 0.214661 0.153015
0.915527 0.215485 0.153931
0.000000 0.212372 0.129883
0.000000 0.213165 0.130585
0.000000 0.213745 0.131317
0.011749 0.214569 0.132050
0.038818 0.215179 0.132782
0.072968 0.215912 0.133514
0.101135 0.216583 0.134277
0.127594 0.217346 0.135071
0.152100 0.218048 0.135834
0.175262 0.218719 0.136658
0.196991 0.219574 0.137421
0.217804 0.220245 0.138275
0.237915 0.221100 0.139038
0.257874 0.221771 0.139893
0.278259 0.222687 0.140717
0.298798 0.223358 0.141571
0.320374 0.224243 0.142395
0.343323 0.224945 0.143250
0.367645 0.225861 0.144135
0.394104 0.226562 0.145020
0.422882 0.227448 0.145905
0.454407 0.228180 0.146759
0.488953 0.229095 0.147644
0.526978 0.229797 0.148499
0.568512 0.230713 0.149414
0.613068 0.231445 0.150269
0.660278 0.232361 0.151184
0.709564 0.233063 0.152100
0.760712 0.234039 0.152985
0.813171 0.234741 0.153900
0.866608 0.235657 0.154785
0.915527 0.236420 0.155640
0.000000 0.234161 0.131317
0.000000 0.234680 0.132019
0.000000 0.235443 0.132751
0.013550 0.235992 0.133484
0.040680 0.236694 0.134247
0.074890 0.237335 0.135040
0.103027 0.237915 0.135803
0.129303 0.238708 0.136627
0.153748 0.239319 0.137421
0.176544 0.240082 0.138245
0.198212 0.240692 0.139038
0.218933 0.241455 0.139832
0.239014 0.242157 0.140686
0.258942 0.242920 0.141571
0.279236 0.243591 0.142365
0.299835 0.244263 0.143250
0.321350 0.245117 0.144135
0.344147 0.245758 0.144958
0.368713 0.246582 0.145844
0.395111 0.247253 0.146729
0.423981 0.248108 0.147614
0.455505 0.248779 0.148499
0.490021 0.249664 0.149414
0.528046 0.250305 0.150269
0.569550 0.251190 0.151154
0.614075 0.251862 0.152069
0.660889 0.252563 0.152985
0.710297 0.253387 0.153870
0.761139 0.254120 0.154724
0.813538 0.254944 0.155640
0.866760 0.255707 0.156555
0.915527 0.256500 0.157410
0.000000 0.254822 0.132751
0.000000 0.255280 0.133484
0.000000 0.256042 0.134247
0.015472 0.256561 0.135010
0.042572 0.257050 0.135803
0.076874 0.257843 0.136566
0.104889 0.258392 0.137390
0.130798 0.259064 0.138153
0.155151 0.259705 0.139038
0.177856 0.260284 0.139801
0.199432 0.261078 0.140686
0.220093 0.261627 0.141541
0.240112 0.262329 0.142365
0.260040 0.263031 0.143219
0.280060 0.263580 0.144043
0.300873 0.264435 0.144958
0.322357 0.265015 0.145813
0.345154 0.265808 0.146698
0.369751 0.266418 0.147614
0.396210 0.267273 0.148468
0.424988 0.267853 0.149323
0.456451 0.268463 0.150269
0.491058 0.269318 0.151154
0.529083 0.269897 0.151978
0.570496 0.270752 0.152954
0.614777 0.271393 0.153839
0.661804 0.272217 0.154694
0.710815 0.272827 0.155609
0.761780 0.273529 0.156525
0.813873 0.274323 0.157410
0.866882 0.274963 0.158325
0.915527 0.275726 0.159241
0.000000 0.274658 0.134216
0.000000 0.275299 0.135010
0.000000 0.275848 0.135773
0.017395 0.276367 0.136536
0.044525 0.277069 0.137329
0.078918 0.277618 0.138153
0.106720 0.278168 0.139008
0.132629 0.278870 0.139801
0.156586 0.279388 0.140656
0.179169 0.280060 0.141510
0.200684 0.280670 0.142334
0.221252 0.281250 0.143188
0.241272 0.281982 0.144043
0.261139 0.282593 0.144928
0.281158 0.283325 0.145782
0.301910 0.283936 0.146698
0.323456 0.284485 0.147583
0.346222 0.285278 0.148438
0.370819 0.285828 0.149323
0.397278 0.286652 0.150238
0.425873 0.287231 0.151123
0.457458 0.287811 0.151978
0.492157 0.288574 0.152893
0.530121 0.289154 0.153778
0.571381 0.290009 0.154694
0.615692 0.290558 0.155579
0.662659 0.291260 0.156525
0.711639 0.291962 0.157379
0.762238 0.292542 0.158264
0.814117 0.293335 0.159210
0.867035 0.293976 0.160095
0.915527 0.294769 0.160980
0.000000 0.294250 0.135712
0.000000 0.294952 0.136536
0.000000 0.295441 0.137329
0.019531 0.295898 0.138123
0.047180 0.296631 0.138977
0.081024 0.297150 0.139771
0.108521 0.297699 0.140656
0.134186 0.298370 0.141479
0.158173 0.298889 0.142334
0.180542 0.299622 0.143158
0.201935 0.300171 0.144012
0.222443 0.300690 0.144897
0.242401 0.301422 0.145721
0.262207 0.301941 0.146667
0.282257 0.302582 0.147522
0.302887 0.303253 0.148407
0.324524 0.303833 0.149323
0.347290 0.304596 0.150116
0.371674 0.305145 0.151093
0.398163 0.305878 0.151947
0.426971 0.306488 0.152863
0.458496 0.307007 0.153748
0.493225 0.307800 0.154663
0.531250 0.308380 0.155548
0.572388 0.309052 0.156494
0.616699 0.309753 0.157349
0.663391 0.310303 0.158264
0.712250 0.311096 0.159149
0.762787 0.311646 0.160034
0.814545 0.312439 0.160950
0.867157 0.313019 0.161865
0.915527 0.313599 0.162750
0.000000 0.314056 0.137299
0.000000 0.314636 0.138092
0.000000 0.315125 0.138977
0.021545 0.315796 0.139740
0.050659 0.316315 0.140625
0.083130 0.316803 0.141479
0.110535 0.317505 0.142303
0.136017 0.318024 0.143158
0.159729 0.318481 0.144012
0.182129 0.319244 0.144836
0.203217 0.319733 0.145721
0.223663 0.320312 0.146667
0.243530 0.321014 0.147522
0.263336 0.321564 0.148376
0.283325 0.322327 0.149292
0.303955 0.322845 0.150116
0.325592 0.323334 0.151062
0.348419 0.324097 0.151947
0.372772 0.324646 0.152832
0.399231 0.325226 0.153748
0.428101 0.325989 0.154633
0.459595 0.326538 0.155548
0.494324 0.327301 0.156433
0.532166 0.327850 0.157318
0.573425 0.328522 0.158234
0.617554 0.329163 0.159119
0.664185 0.329712 0.160034
0.712891 0.330475 0.160950
0.763275 0.331024 0.161804
0.814972 0.331604 0.162720
0.867310 0.332367 0.163605
0.915527 0.332916 0.164673
0.000000 0.334229 0.138885
0.000000 0.334686 0.139709
0.000000 0.335419 0.140625
0.023712 0.335907 0.141388
0.054718 0.336395 0.142242
0.085297 0.337097 0.143127
0.112518 0.337585 0.143982
0.137726 0.338104 0.144836
0.161377 0.338806 0.145660
0.183533 0.339325 0.146576
0.204559 0.339996 0.147461
0.224884 0.340546 0.148346
0.244690 0.341095 0.149261
0.264465 0.341675 0.150085
0.284454 0.342346 0.151031
0.305023 0.342865 0.151917
0.326630 0.343628 0.152832
0.349457 0.344147 0.153717
0.373840 0.344757 0.154602
0.400330 0.345459 0.155487
0.429199 0.345978 0.156403
0.460693 0.346619 0.157318
0.495209 0.347321 0.158234
0.533203 0.347839 0.159088
0.574493 0.348602 0.160004
0.618378 0.349121 0.160919
0.665070 0.349792 0.161804
0.713531 0.350464 0.162659
0.763794 0.351013 0.163544
0.815216 0.351776 0.164673
0.867462 0.352295 0.165558
0.915527 0.352814 0.166473
0.000000 0.355286 0.140503
0.000000 0.355774 0.141388
0.000061 0.356384 0.142212
0.025909 0.356964 0.143097
0.058655 0.357422 0.143982
0.087463 0.358002 0.144806
0.114410 0.358704 0.145660
0.139496 0.359161 0.146545
0.162964 0.359863 0.147430
0.184937 0.360382 0.148346
0.205902 0.360901 0.149200
0.226135 0.361633 0.150055
0.245911 0.362183 0.150970
0.265625 0.362762 0.151917
0.285583 0.363434 0.152771
0.306030 0.363983 0.153687
0.327698 0.364594 0.154602
0.350555 0.365234 0.155457
0.374939 0.365753 0.156372
0.401398 0.366516 0.157288
0.430267 0.367065 0.158203
0.461823 0.367645 0.159088
0.496307 0.368347 0.159943
0.534241 0.368927 0.160858
0.575439 0.369537 0.161774
0.619385 0.370209 0.162628
0.665710 0.370728 0.163544
0.714233 0.371521 0.164642
0.764313 0.372040 0.165527
0.815521 0.372620 0.166412
0.867615 0.373322 0.167297
0.915527 0.373871 0.168152
0.000000 0.377350 0.142181
0.000000 0.378082 0.143066
0.002014 0.378571 0.143951
0.028046 0.379059 0.144775
0.060852 0.379761 0.145660
0.089630 0.380219 0.146545
0.116272 0.380768 0.147400
0.141296 0.381500 0.148346
0.164459 0.381989 0.149170
0.186493 0.382599 0.150024
0.207367 0.383240 0.150970
0.227386 0.383759 0.151825
0.247070 0.384521 0.152771
0.266754 0.385040 0.153625
0.286652 0.385559 0.154541
0.307129 0.386322 0.155457
0.328766 0.386871 0.156372
0.351654 0.387421 0.157257
0.376038 0.388153 0.158173
0.402527 0.388672 0.159027
0.431396 0.389435 0.159912
0.462952 0.390015 0.160858
0.497406 0.390503 0.161743
0.535370 0.391266 0.162598
0.576355 0.391815 0.163513
0.620361 0.392365 0.164612
0.666595 0.393127 0.165527
0.714905 0.393677 0.166412
0.764740 0.394409 0.167236
0.816010 0.394958 0.168121
0.867920 0.395447 0.168976
0.915527 0.396210 0.169830
0.000000 0.401154 0.143890
0.000000 0.401703 0.144745
0.004089 0.402283 0.145660
0.030396 0.402893 0.146515
0.063202 0.403381 0.147369
0.091766 0.403900 0.148224
0.118317 0.404663 0.149139
0.143005 0.405182 0.150024
0.166168 0.405823 0.150940
0.187958 0.406433 0.151825
0.208679 0.406982 0.152740
0.228577 0.407684 0.153595
0.248230 0.408234 0.154541
0.267914 0.408905 0.155426
0.287811 0.409485 0.156311
0.308228 0.410034 0.157227
0.329712 0.410706 0.158173
0.352539 0.411346 0.159027
0.377167 0.411896 0.159912
0.403656 0.412659 0.160828
0.432526 0.413208 0.161713
0.464050 0.413818 0.162598
0.498535 0.414520 0.163452
0.536377 0.415039 0.164581
0.577362 0.415680 0.165527
0.621094 0.416321 0.166321
0.667480 0.416870 0.167236
0.715515 0.417603 0.168121
0.765411 0.418182 0.168945
0.816315 0.418701 0.169800
0.868103 0.419434 0.170624
0.915527 0.419952 0.171509
0.000000 0.426666 0.145599
0.000000 0.427277 0.146484
0.006195 0.427917 0.147308
0.032562 0.428406 0.148224
0.065796 0.429169 0.149139
0.093994 0.429657 0.149963
0.120331 0.430176 0.150940
0.144897 0.430908 0.151764
0.167755 0.431458 0.152710
0.189362 0.432098 0.153595
0.209961 0.432739 0.154510
0.229828 0.433228 0.155396
0.249451 0.433990 0.156311
0.269043 0.434570 0.157196
0.288910 0.435089 0.158081
0.309357 0.435852 0.158966
0.330872 0.436401 0.159882
0.353699 0.437042 0.160797
0.378265 0.437714 0.161682
0.404755 0.438232 0.162537
0.433624 0.438873 0.163422
0.465179 0.439545 0.164581
0.499634 0.440094 0.165466
0.537476 0.440826 0.166321
0.578369 0.441376 0.167175
0.622009 0.441986 0.168060
0.668091 0.442688 0.168915
0.716278 0.443176 0.169769
0.765808 0.443817 0.170593
0.816559 0.444489 0.171448
0.868225 0.445007 0.172241
0.915527 0.445770 0.173126
0.000000 0.454498 0.147308
0.000000 0.454987 0.148193
0.008484 0.455719 0.149048
0.034973 0.456268 0.149963
0.068115 0.456787 0.150879
0.096191 0.457520 0.151733
0.122253 0.458008 0.152679
0.146637 0.458740 0.153595
0.169373 0.459320 0.154449
0.190765 0.459869 0.155334
0.211304 0.460602 0.156281
0.231049 0.461182 0.157166
0.250610 0.461670 0.158081
0.270203 0.462463 0.158936
0.290039 0.462982 0.159851
0.310455 0.463562 0.160767
0.331970 0.464264 0.161652
0.354797 0.464844 0.162537
0.379364 0.465607 0.163391
0.405914 0.466125 0.164520
0.434753 0.466675 0.165466
0.466278 0.467438 0.166290
0.500732 0.467957 0.167175
0.538483 0.468506 0.168060
0.579376 0.469269 0.168915
0.622986 0.469818 0.169739
0.668976 0.470581 0.170593
0.716797 0.471100 0.171417
0.766205 0.471619 0.172241
0.817017 0.472351 0.173126
0.868408 0.472870 0.173859
0.915527 0.473389 0.174713
0.000000 0.484741 0.149048
0.000000 0.485321 0.149933
0.010742 0.485992 0.150848
0.037201 0.486511 0.151703
0.070557 0.487274 0.152649
0.098389 0.487793 0.153503
0.124237 0.488342 0.154419
0.148438 0.489075 0.155304
0.170990 0.489624 0.156250
0.192383 0.490143 0.157135
0.212616 0.490936 0.158020
0.232391 0.491425 0.158905
0.251862 0.492188 0.159851
0.271362 0.492737 0.160706
0.291199 0.493317 0.161652
0.311584 0.494019 0.162506
0.333069 0.494598 0.163361
0.355865 0.495209 0.164459
0.380524 0.495880 0.165405
0.406982 0.496399 0.166260
0.435852 0.496979 0.167145
0.467377 0.497711 0.167999
0.501831 0.498230 0.168854
0.539459 0.499023 0.169708
0.580444 0.499512 0.170532
0.623932 0.500061 0.171417
0.669556 0.500793 0.172211
0.717438 0.501312 0.173065
0.766876 0.501831 0.173859
0.817322 0.502594 0.174683
0.868530 0.503052 0.175476
0.915527 0.503632 0.176300
0.000000 0.517944 0.150818
0.000000 0.518463 0.151672
0.013031 0.519165 0.152618
0.039612 0.519714 0.153503
0.073029 0.520264 0.154388
0.100616 0.520966 0.155273
0.126221 0.521515 0.156250
0.150299 0.522186 0.157135
0.172516 0.522797 0.157990
0.193817 0.523346 0.158875
0.214050 0.524048 0.159821
0.233765 0.524597 0.160645
0.253052 0.525146 0.161560
0.272522 0.525848 0.162476
0.292236 0.526428 0.163330
0.312714 0.526947 0.164459
0.334198 0.527710 0.165375
0.356964 0.528198 0.166229
0.381592 0.528992 0.167114
0.408112 0.529510 0.167969
0.436768 0.530029 0.168854
0.468262 0.530762 0.169708
0.502716 0.531311 0.170502
0.540466 0.531799 0.171387
0.581238 0.532562 0.172180
0.624664 0.533081 0.173035
0.670410 0.533539 0.173798
0.718018 0.534302 0.174622
0.767212 0.534790 0.175476
0.817566 0.535370 0.176270
0.868683 0.536011 0.177094
0.915527 0.536499 0.177765
0.000000 0.554169 0.152557
0.000000 0.554779 0.153473
0.015472 0.555298 0.154358
0.041870 0.556030 0.155273
0.075531 0.556519 0.156189
0.102814 0.557068 0.157043
0.128265 0.557831 0.157959
0.151947 0.558289 0.158875
0.174255 0.558929 0.159790
0.195251 0.559509 0.160645
0.215454 0.560059 0.161560
0.235046 0.560577 0.162445
0.254211 0.561371 0.163330
0.273651 0.561829 0.164429
0.293396 0.562500 0.165314
0.313812 0.563141 0.166199
0.335236 0.563568 0.167084
0.358063 0.564362 0.167938
0.382507 0.564850 0.168823
0.409180 0.565338 0.169647
0.437866 0.565979 0.170502
0.469360 0.566559 0.171326
0.503815 0.567078 0.172150
0.541473 0.567780 0.173004
0.582184 0.568268 0.173767
0.625549 0.568756 0.174622
0.671234 0.569489 0.175415
0.718689 0.569916 0.176208
0.767792 0.570435 0.177002
0.817871 0.571136 0.177765
0.868866 0.571625 0.178528
0.915527 0.572052 0.179321
0.000000 0.593445 0.154327
0.000000 0.593933 0.155273
0.017914 0.594635 0.156128
0.044342 0.595093 0.157043
0.077850 0.595612 0.157928
0.104980 0.596161 0.158813
0.130280 0.596832 0.159760
0.153839 0.597260 0.160614
0.175781 0.597961 0.161530
0.196808 0.598511 0.162384
0.216797 0.598907 0.163269
0.236298 0.599579 0.164398
0.255432 0.600159 0.165283
0.274780 0.600616 0.166168
0.294525 0.601166 0.167053
0.314911 0.601807 0.167938
0.336365 0.602264 0.168793
0.359161 0.602783 0.169647
0.383575 0.603455 0.170502
0.410065 0.603912 0.171295
0.438965 0.604462 0.172150
0.470459 0.605103 0.172974
0.504852 0.605560 0.173767
0.542572 0.606018 0.174591
0.583191 0.606689 0.175415
0.626465 0.607117 0.176178
0.671844 0.607513 0.176971
0.719269 0.608154 0.177765
0.768188 0.608673 0.178497
0.818085 0.609070 0.179291
0.869080 0.609497 0.180054
0.915527 0.610107 0.180756
0.000000 0.635284 0.156097
0.000000 0.635742 0.157013
0.020386 0.636139 0.157898
0.047394 0.636566 0.158813
0.080231 0.637268 0.159668
0.107178 0.637695 0.160583
0.132233 0.638153 0.161499
0.155457 0.638824 0.162354
0.177429 0.639221 0.163269
0.198273 0.639648 0.164368
0.218079 0.640289 0.165253
0.237518 0.640778 0.166138
0.256592 0.641205 0.167053
0.275940 0.641663 0.167877
0.295471 0.642334 0.168732
0.316040 0.642761 0.169586
0.337463 0.643188 0.170471
0.360260 0.643860 0.171295
0.384644 0.644257 0.172119
0.411163 0.644684 0.172974
0.440033 0.645142 0.173767
0.471527 0.645721 0.174561
0.505890 0.646149 0.175354
0.543579 0.646545 0.176178
0.584167 0.647186 0.176941
0.627136 0.647583 0.177734
0.672638 0.647980 0.178497
0.719940 0.648346 0.179260
0.768555 0.648956 0.180023
0.818573 0.649353 0.180725
0.869293 0.649689 0.181458
0.915527 0.650116 0.182190
0.000000 0.678925 0.157867
0.000000 0.679565 0.158783
0.022736 0.679932 0.159637
0.051575 0.680267 0.160583
0.082672 0.680756 0.161469
0.109344 0.681335 0.162354
0.134064 0.681702 0.163239
0.157288 0.682068 0.164307
0.179047 0.682556 0.165253
0.199585 0.683075 0.166138
0.219360 0.683472 0.166992
0.238739 0.683868 0.167847
0.257751 0.684235 0.168701
0.277008 0.684845 0.169556
0.296570 0.685211 0.170380
0.317108 0.685577 0.171265
0.338531 0.686005 0.172119
0.361298 0.686523 0.172943
0.385742 0.686920 0.173706
0.412262 0.687225 0.174530
0.441071 0.687775 0.175354
0.472565 0.688171 0.176147
0.506927 0.688568 0.176910
0.544556 0.688904 0.177704
0.584930 0.689209 0.178436
0.628021 0.689819 0.179260
0.673187 0.690125 0.180023
0.720459 0.690491 0.180725
0.769165 0.690826 0.181427
0.818817 0.691223 0.182159
0.869415 0.691681 0.182831
0.915527 0.691956 0.183533
0.000000 0.724579 0.159607
0.000092 0.724884 0.160553
0.025177 0.725220 0.161438
0.055756 0.725769 0.162323
0.085114 0.726044 0.163208
0.111511 0.726379 0.164246
0.136047 0.726715 0.165222
0.158905 0.727203 0.166107
0.180450 0.727539 0.166992
0.200958 0.727875 0.167847
0.220673 0.728210 0.168671
0.239960 0.728546 0.169525
0.258881 0.729034 0.170380
0.278168 0.729340 0.171234
0.297638 0.729614 0.172089
0.317963 0.729919 0.172913
