examples/luts/Presetpro-Cinematic.3dl
#Created by: Adobe Photoshop Export Color Lookup Plugin
#Copyright: (C) Copyright 2018 https://www.presetpro.com and Tim Martin
#Description: Presetpro - Cinematic
0 33 66 99 132 165 198 231 264 297 330 363 396 429 462 495 528 561 594 627 660 693 726 759 792 825 858 891 924 957 990 1023
418 385 434
418 385 435
418 369 484
451 355 518
466 369 594
482 369 658
495 353 697
509 337 762
518 341 864
535 342 929
556 358 1016
588 343 1088
620 347 1195
649 337 1302
689 352 1442
706 321 1548
723 329 1687
780 305 1818
824 286 1948
881 257 2091
914 214 2225
1007 171 2415
1089 90 2562
1148 8 2709
1251 0 2885
1340 0 3010
1438 0 3167
1533 14 3316
1664 14 3477
1763 0 3608
1892 0 3787
2007 0 3918
449 370 433
418 386 434
417 386 468
418 386 563
422 385 598
454 390 663
470 389 716
489 396 791
534 389 862
551 390 941
585 397 1017
595 386 1104
630 376 1217
665 376 1322
712 377 1449
723 363 1580
755 370 1687
796 353 1818
828 337 1958
880 306 2111
926 263 2264
1001 204 2400
1088 155 2572
1148 53 2718
1245 0 2884
1324 12 3023
1453 15 3156
1548 0 3327
1678 0 3477
1777 0 3625
1892 0 3757
2007 0 3887
433 435 404
434 435 467
432 451 514
418 420 547
436 434 627
467 435 664
499 421 741
505 426 786
561 420 860
557 428 945
609 425 1044
611 429 1126
632 428 1250
675 419 1334
695 420 1464
721 395 1565
755 395 1703
787 395 1833
820 377 1966
871 346 2106
935 306 2268
994 254 2430
1083 204 2593
1145 126 2748
1218 37 2868
1348 0 3048
1446 13 3185
1522 0 3332
1648 0 3466
1775 0 3624
1874 16 3787
2007 1 3921
385 486 421
400 502 469
403 486 532
405 485 549
434 483 629
478 486 678
454 485 730
518 501 799
522 490 864
577 485 953
572 480 1036
596 483 1146
626 479 1260
669 458 1354
696 469 1473
714 466 1603
741 459 1710
794 437 1844
843 428 2003
853 403 2105
923 378 2275
993 329 2428
1075 269 2594
1142 204 2740
1218 112 2905
1311 11 3033
1408 3 3194
1522 0 3335
1643 0 3461
1759 0 3610
1890 2 3759
2006 0 3918
385 566 464
418 566 513
450 552 548
434 566 595
464 548 616
466 537 684
454 547 769
494 550 828
520 536 896
590 550 996
595 537 1069
616 539 1157
646 514 1279
644 518 1364
685 520 1499
710 518 1608
743 504 1742
791 502 1852
822 482 1987
863 452 2139
901 413 2278
977 402 2458
1055 362 2597
1140 294 2752
1208 224 2882
1316 128 3056
1395 27 3199
1503 0 3334
1603 14 3462
1731 0 3622
1846 15 3787
1977 0 3909
367 634 471
391 631 519
431 631 565
449 621 604
461 632 648
455 631 728
469 602 761
495 599 829
499 587 901
518 588 991
554 613 1064
594 596 1192
614 596 1293
630 595 1393
666 603 1515
687 584 1625
734 567 1741
770 572 1891
803 560 2019
842 519 2146
904 501 2300
953 470 2463
1016 435 2604
1139 390 2775
1197 346 2905
1295 278 3049
1398 173 3193
1498 52 3350
1590 13 3491
1726 0 3626
1817 13 3772
1954 16 3948
356 716 517
386 713 560
431 712 609
434 700 649
460 700 694
454 710 717
456 697 809
485 684 874
486 681 917
498 676 1011
514 675 1120
542 651 1205
575 661 1310
620 677 1417
646 669 1526
663 652 1642
730 646 1771
747 629 1910
783 616 2022
820 607 2162
878 568 2319
949 557 2464
1004 519 2620
1076 501 2765
1165 441 2902
1260 404 3065
1385 341 3209
1466 262 3343
1580 126 3505
1695 27 3616
1822 0 3800
1940 3 3934
334 782 537
373 791 582
399 797 593
437 782 666
439 767 724
453 782 750
468 794 816
469 774 874
478 782 979
499 754 1054
510 760 1138
496 737 1224
513 726 1316
529 736 1438
607 717 1553
631 730 1673
652 722 1796
715 721 1931
741 711 2046
781 679 2199
843 660 2336
915 635 2495
964 617 2636
1056 593 2786
1142 557 2928
1230 518 3055
1340 459 3191
1419 416 3356
1544 353 3509
1674 265 3641
1785 191 3790
1904 100 3927
313 892 566
366 875 627
374 864 658
387 877 680
418 870 723
418 892 804
409 880 821
461 888 911
462 871 960
474 852 1054
466 851 1147
478 846 1243
446 827 1335
467 825 1466
489 802 1579
542 807 1698
598 808 1815
643 808 1934
672 788 2069
724 783 2213
792 761 2363
850 724 2521
913 727 2663
999 695 2797
1081 671 2933
1171 636 3068
1274 597 3202
1385 553 3348
1499 497 3502
1601 467 3652
1744 423 3804
1883 378 3927
232 978 599
312 966 652
333 978 668
362 974 700
371 966 738
413 964 808
420 979 864
401 993 927
424 989 1004
418 966 1083
451 961 1165
433 959 1252
423 934 1356
418 927 1487
378 936 1598
380 900 1716
401 888 1825
527 901 1958
587 891 2102
649 892 2233
714 860 2364
797 838 2506
849 828 2670
929 812 2812
1023 789 2964
1117 756 3067
1220 737 3222
1343 700 3369
1467 653 3515
1562 618 3624
1717 595 3810
1837 585 3950
97 1097 631
205 1071 668
243 1064 697
291 1090 729
331 1088 791
330 1083 827
324 1098 882
349 1102 946
313 1107 1013
342 1103 1098
359 1081 1204
359 1086 1306
322 1075 1385
310 1051 1503
288 1048 1614
266 1033 1731
253 1016 1856
265 984 1981
338 966 2110
497 995 2262
595 984 2402
660 974 2522
752 941 2667
850 922 2808
966 906 2964
1040 872 3095
1162 842 3230
1251 837 3364
1382 803 3516
1505 781 3647
1646 759 3819
1772 754 3940
0 1216 670
47 1200 717
85 1196 729
131 1202 772
116 1221 788
169 1227 850
198 1217 914
177 1213 967
191 1232 1059
159 1222 1112
236 1217 1200
223 1227 1308
176 1227 1412
175 1188 1536
138 1177 1643
80 1163 1746
54 1139 1893
62 1122 2028
59 1097 2144
80 1067 2309
271 1082 2431
475 1093 2560
611 1082 2701
720 1055 2836
850 1029 2970
948 1000 3093
1065 994 3244
1181 967 3374
1330 956 3541
1430 929 3656
1592 906 3788
1713 922 3950
0 1342 707
0 1331 745
10 1342 789
0 1332 801
0 1338 841
0 1348 892
3 1348 960
10 1354 999
10 1346 1092
5 1356 1167
15 1358 1273
69 1359 1331
20 1358 1441
0 1342 1555
0 1325 1666
6 1316 1815
2 1299 1910
3 1266 2050
13 1249 2192
6 1219 2348
18 1177 2471
51 1169 2598
295 1190 2718
534 1181 2858
667 1181 2956
824 1139 3109
956 1119 3251
1091 1099 3394
1206 1089 3499
1372 1069 3671
1502 1065 3811
1645 1075 3918
9 1466 739
7 1472 768
0 1473 795
0 1471 827
0 1477 887
0 1492 936
0 1488 984
0 1497 1060
0 1498 1140
7 1490 1206
0 1503 1298
0 1511 1387
0 1505 1487
0 1479 1601
0 1474 1717
8 1455 1821
18 1426 1952
7 1408 2081
0 1405 2212
0 1383 2359
0 1354 2496
0 1335 2624
5 1293 2757
73 1281 2883
388 1312 3001
624 1289 3125
784 1266 3252
923 1233 3373
1091 1231 3516
1238 1223 3672
1400 1222 3818
1563 1241 3957
14 1603 762
0 1610 794
0 1617 836
0 1626 867
7 1616 907
0 1635 953
3 1623 1001
0 1635 1074
0 1636 1163
0 1631 1240
0 1651 1343
0 1640 1426
0 1664 1549
0 1651 1636
7 1635 1738
16 1603 1861
15 1587 1975
9 1579 2105
7 1574 2242
14 1552 2373
10 1519 2511
4 1499 2633
0 1466 2767
7 1433 2894
10 1394 3021
164 1401 3163
533 1432 3246
770 1399 3399
914 1385 3528
1092 1369 3664
1270 1377 3827
1425 1391 3975
17 1740 771
7 1748 818
0 1765 859
8 1749 894
4 1743 949
0 1765 987
8 1765 1074
4 1777 1135
4 1778 1212
0 1781 1285
3 1808 1388
6 1789 1470
23 1804 1578
1 1813 1690
24 1782 1787
8 1773 1902
15 1765 2047
8 1750 2108
0 1732 2277
14 1709 2399
21 1704 2544
13 1679 2650
0 1633 2783
4 1612 2906
0 1582 3049
0 1546 3172
0 1526 3296
348 1561 3414
740 1556 3526
936 1558 3675
1106 1540 3804
1310 1557 3967
25 1881 803
0 1897 821
0 1889 884
0 1920 924
15 1912 968
29 1918 1026
5 1907 1073
0 1917 1152
12 1916 1233
0 1920 1302
0 1936 1415
0 1931 1511
6 1944 1608
8 1951 1706
1 1960 1828
15 1938 1911
0 1929 2041
0 1905 2170
0 1897 2278
0 1890 2415
8 1864 2547
0 1843 2654
3 1813 2757
8 1781 2926
24 1740 3037
0 1721 3165
0 1696 3289
0 1672 3423
167 1671 3562
744 1744 3688
1023 1744 3811
1228 1736 3974
16 2035 828
0 2043 854
0 2051 894
7 2053 954
7 2061 999
3 2060 1055
13 2067 1121
9 2073 1177
13 2082 1281
5 2075 1353
0 2087 1445
16 2088 1543
9 2077 1624
9 2091 1722
7 2100 1860
1 2123 1969
16 2100 2065
14 2076 2196
15 2059 2311
2 2065 2426
1 2037 2554
9 2012 2683
0 1987 2807
18 1967 2912
7 1944 3055
3 1891 3170
9 1873 3316
5 1857 3439
0 1830 3575
32 1816 3718
722 1895 3848
1178 1989 3958
7 2189 851
0 2199 893
15 2213 949
14 2207 976
0 2212 1032
7 2210 1093
0 2220 1153
4 2224 1241
20 2225 1306
5 2219 1393
16 2215 1489
6 2231 1583
7 2234 1676
13 2240 1773
15 2239 1880
18 2254 2003
7 2285 2137
25 2240 2235
16 2237 2357
26 2230 2467
1 2214 2572
5 2182 2687
9 2157 2807
19 2141 2960
16 2106 3056
3 2088 3155
19 2054 3323
5 2031 3440
5 2017 3575
0 2006 3714
9 1999 3829
798 2065 3976
10 2342 899
0 2353 926
0 2352 972
6 2362 1025
14 2376 1080
12 2372 1154
16 2372 1205
12 2378 1269
0 2384 1349
0 2388 1442
12 2389 1519
10 2390 1622
7 2387 1705
3 2388 1803
0 2389 1911
2 2400 2016
1 2402 2155
1 2417 2292
0 2384 2366
0 2378 2468
6 2373 2606
6 2345 2714
11 2317 2833
4 2298 2964
0 2272 3079
3 2246 3199
13 2223 3324
4 2199 3458
5 2171 3569
0 2169 3713
22 2173 3852
529 2214 3983
6 2504 952
6 2499 965
24 2510 1043
23 2500 1064
0 2515 1139
6 2504 1194
9 2523 1278
7 2519 1329
10 2524 1410
10 2520 1480
11 2520 1573
0 2525 1660
4 2531 1756
10 2519 1842
32 2531 1957
8 2531 2064
0 2542 2175
12 2547 2317
6 2557 2435
26 2521 2509
32 2503 2616
0 2497 2746
0 2481 2855
0 2446 2965
0 2432 3100
0 2416 3207
3 2386 3324
2 2364 3442
20 2357 3579
1 2343 3723
0 2359 3863
239 2392 3999
0 2645 1012
15 2655 1060
1 2652 1088
5 2636 1115
5 2659 1164
11 2666 1242
0 2664 1294
4 2660 1371
5 2658 1447
5 2661 1534
0 2666 1600
21 2661 1692
11 2650 1812
0 2668 1896
0 2670 1988
0 2669 2097
3 2666 2206
0 2663 2314
5 2701 2441
11 2672 2567
27 2645 2664
16 2629 2768
5 2623 2860
9 2608 2986
0 2584 3115
0 2562 3207
0 2546 3324
11 2528 3463
11 2497 3587
11 2507 3735
11 2522 3870
11 2549 3994
9 2776 1067
11 2792 1110
12 2788 1143
1 2770 1168
21 2788 1250
22 2780 1313
13 2789 1370
12 2779 1439
0 2808 1504
0 2801 1588
0 2798 1660
0 2796 1746
0 2792 1838
5 2808 1941
7 2804 2028
4 2792 2121
0 2795 2242
9 2817 2359
16 2808 2458
5 2822 2591
26 2789 2679
0 2780 2768
9 2739 2904
0 2759 3013
5 2715 3118
3 2707 3244
0 2693 3357
0 2665 3472
13 2663 3605
11 2656 3739
4 2670 3864
9 2718 4026
0 2910 1144
11 2911 1184
5 2923 1199
0 2916 1263
10 2920 1318
0 2926 1389
9 2922 1446
8 2919 1484
8 2938 1574
5 2931 1636
21 2926 1728
8 2921 1801
6 2922 1887
0 2934 1992
0 2934 2076
0 2914 2167
0 2919 2249
9 2926 2371
3 2936 2485
0 2918 2599
12 2941 2752
11 2933 2817
0 2894 2901
16 2866 2995
16 2858 3145
0 2857 3236
8 2852 3372
0 2824 3495
0 2820 3611
15 2798 3740
0 2837 3880
8 2882 4007
0 3033 1210
7 3052 1279
0 3040 1310
7 3049 1357
0 3037 1406
0 3043 1453
0 3062 1511
4 3033 1563
4 3049 1640
7 3048 1689
23 3064 1783
4 3065 1855
4 3056 1942
4 3065 2012
11 3054 2111
8 3045 2188
4 3040 2290
0 3060 2394
12 3047 2497
12 3053 2634
10 3056 2729
4 3067 2861
0 3048 2937
0 3001 3047
12 2976 3137
3 2985 3260
4 2960 3378
12 2983 3514
1 2970 3638
25 2957 3747
0 2976 3882
164 3021 4027
0 3180 1324
4 3168 1359
12 3183 1380
0 3180 1436
3 3192 1502
0 3173 1559
0 3183 1619
0 3187 1687
0 3189 1707
3 3195 1785
0 3183 1842
0 3181 1894
6 3180 1965
0 3190 2060
0 3189 2125
0 3183 2223
0 3186 2315
4 3185 2423
13 3183 2521
0 3167 2628
3 3168 2735
3 3170 2868
13 3199 3013
0 3169 3083
13 3108 3150
16 3119 3280
13 3092 3396
13 3101 3511
0 3101 3636
15 3104 3768
1 3131 3913
418 3161 4031
0 3298 1440
13 3298 1482
0 3316 1490
24 3312 1561
3 3311 1575
0 3303 1649
0 3317 1737
4 3327 1754
9 3307 1811
5 3314 1871
0 3316 1916
0 3322 1989
0 3314 2049
0 3319 2115
0 3324 2186
10 3314 2275
5 3298 2359
13 3305 2467
4 3310 2558
0 3320 2679
0 3295 2782
0 3289 2870
3 3330 2996
4 3316 3119
12 3256 3191
1 3237 3291
0 3234 3424
2 3234 3522
3 3219 3627
17 3235 3781
2 3254 3930
656 3298 4047
14 3442 1609
4 3456 1615
13 3444 1649
14 3430 1665
0 3428 1724
11 3444 1786
4 3440 1827
0 3432 1888
0 3440 1919
2 3436 1962
0 3435 2028
6 3450 2079
0 3436 2126
2 3437 2189
11 3437 2245
0 3446 2344
2 3430 2389
0 3430 2527
11 3428 2616
6 3436 2683
24 3434 2784
0 3430 2891
0 3429 3031
0 3452 3149
0 3459 3245
3 3399 3332
0 3380 3425
4 3376 3527
28 3366 3653
15 3365 3812
14 3413 3932
833 3430 4063
1 3560 1743
1 3560 1747
1 3575 1820
1 3573 1852
