examples/luts/Remy 24.CUBE
#Created by: Adobe Photoshop Export Color Lookup Plugin
#Copyright: (C) Copyright 2017 RocketStock
TITLE "Untitled"
#LUT size
LUT_3D_SIZE 8
#data domain
#LUT data points
DOMAIN_MIN 0.000000 0.000000 0.000000
DOMAIN_MAX 0.903226 0.903226 0.903226
0.003937 0.002777 0.002625
0.180695 0.007233 0.014618
0.305328 0.017853 0.034912
0.405792 0.024414 0.046509
0.526733 0.024567 0.049316
0.703369 0.022400 0.049225
0.868866 0.021240 0.048889
0.974548 0.023285 0.050354
0.005310 0.159149 0.041260
0.184296 0.165894 0.055237
0.304962 0.165863 0.058777
0.404388 0.166290 0.062073
0.525513 0.165771 0.063416
0.704376 0.163818 0.061798
0.870941 0.163177 0.059998
0.975037 0.164978 0.059509
0.002289 0.290344 0.061432
0.178894 0.291931 0.067047
0.304413 0.295471 0.073730
0.406006 0.295898 0.075745
0.533112 0.295441 0.075134
0.716248 0.293365 0.071442
0.877686 0.293091 0.068542
0.977020 0.294861 0.067535
0.000000 0.408417 0.073669
0.177246 0.412659 0.075226
0.307831 0.416809 0.080688
0.417358 0.421295 0.085205
0.551056 0.421173 0.083130
0.734314 0.419800 0.078766
0.885803 0.419739 0.075378
0.979034 0.420929 0.073700
0.009430 0.541992 0.076996
0.193939 0.544250 0.079010
0.320099 0.548950 0.083069
0.431183 0.553894 0.086761
0.574310 0.558319 0.089264
0.752258 0.556519 0.084290
0.892395 0.555878 0.080231
0.980682 0.556335 0.076508
0.045654 0.703094 0.077271
0.219513 0.706177 0.079773
0.335541 0.710358 0.083038
0.445770 0.714233 0.085846
0.590179 0.717773 0.087982
0.766205 0.719391 0.086639
0.898102 0.717255 0.080566
0.982239 0.716614 0.076111
0.090637 0.859497 0.076294
0.243011 0.861572 0.079224
0.348572 0.863434 0.081512
0.457581 0.865143 0.082214
0.603546 0.866882 0.082031
0.775146 0.868500 0.081757
0.902924 0.868835 0.080688
0.983368 0.866638 0.078735
0.127655 0.970459 0.076172
0.260101 0.970947 0.077026
0.360535 0.971466 0.076904
0.469818 0.971893 0.076691
0.615936 0.972351 0.077179
0.780518 0.972717 0.079224
0.903534 0.973145 0.085632
0.983673 0.973145 0.097870
0.000000 0.001312 0.138611
0.181580 0.012970 0.158752
0.305847 0.023499 0.176941
0.405670 0.026764 0.183167
0.526642 0.026764 0.185638
0.703278 0.024628 0.185516
0.868988 0.023773 0.185364
0.974701 0.026276 0.186676
0.006165 0.162933 0.182129
0.179871 0.163483 0.187103
0.301208 0.163727 0.190613
0.400970 0.164337 0.193817
0.522705 0.164001 0.195038
0.702484 0.162354 0.193573
0.868561 0.161652 0.191650
0.972382 0.163818 0.191193
0.002258 0.291748 0.197052
0.174683 0.289520 0.198151
0.300171 0.292450 0.203583
0.403259 0.293152 0.205475
0.531555 0.292633 0.204559
0.714691 0.290894 0.201202
0.874817 0.290527 0.198578
0.973633 0.292572 0.197662
0.000000 0.410339 0.206482
0.176575 0.410889 0.206146
0.305908 0.414124 0.209839
0.416168 0.418762 0.214081
0.550934 0.418701 0.212128
0.733215 0.417358 0.208069
0.882751 0.417114 0.204987
0.975555 0.418365 0.203369
0.016144 0.543335 0.211090
0.195160 0.542145 0.208801
0.319550 0.546478 0.212219
0.430786 0.551422 0.215607
0.574158 0.555664 0.217834
0.750305 0.553925 0.213196
0.889099 0.553040 0.209076
0.977234 0.553436 0.205261
0.055206 0.704315 0.211243
0.220703 0.703003 0.209076
0.334930 0.707153 0.212158
0.444855 0.710876 0.214752
0.589264 0.714325 0.216370
0.763977 0.715759 0.214661
0.894714 0.713745 0.208893
0.978699 0.712952 0.204956
0.098877 0.859528 0.209930
0.242706 0.857788 0.208557
0.347076 0.859558 0.210266
0.456573 0.861328 0.210571
0.602386 0.862976 0.210297
0.772461 0.864624 0.210205
0.899323 0.864807 0.209717
0.979736 0.862854 0.208801
0.132050 0.968994 0.208221
0.259277 0.967255 0.205750
0.358917 0.967773 0.205505
0.468506 0.968231 0.205444
0.614044 0.968628 0.206390
0.777252 0.969025 0.209259
0.899658 0.969421 0.218414
0.979736 0.969238 0.231934
0.000000 0.004578 0.286438
0.177216 0.013123 0.313721
0.305206 0.026123 0.331604
0.405487 0.029053 0.336823
0.526581 0.029022 0.339081
0.703217 0.027008 0.338806
0.869324 0.026520 0.338531
0.974854 0.029114 0.339264
0.000671 0.160095 0.332184
0.173401 0.159180 0.334869
0.299500 0.163757 0.342041
0.400909 0.166290 0.346466
0.523682 0.166107 0.347412
0.704315 0.164612 0.345581
0.869659 0.164062 0.343506
0.972687 0.166473 0.342834
0.000000 0.290802 0.347168
0.172211 0.288788 0.348206
0.295807 0.288757 0.350037
0.402039 0.291687 0.353363
0.531586 0.291229 0.352112
0.714600 0.289551 0.348724
0.873047 0.289368 0.346161
0.971100 0.291260 0.344910
0.000000 0.413757 0.357605
0.180054 0.412354 0.357056
0.305267 0.412415 0.356689
0.414307 0.415466 0.358459
0.550018 0.415344 0.356323
0.731018 0.414062 0.352417
0.878815 0.413879 0.349396
0.971283 0.414917 0.347656
0.023529 0.544739 0.361115
0.200867 0.543671 0.358826
0.319489 0.544525 0.357971
0.429504 0.548096 0.359406
0.572968 0.552094 0.361084
0.747314 0.550201 0.356598
0.884949 0.549408 0.352264
0.972931 0.549866 0.348480
0.064819 0.705536 0.360779
0.225891 0.703979 0.358215
0.334106 0.703857 0.356873
0.442841 0.706573 0.358063
0.587494 0.709930 0.358948
0.760773 0.711243 0.357056
0.890472 0.709229 0.351807
0.974396 0.708557 0.348450
0.107178 0.860077 0.359131
0.245483 0.857147 0.356506
0.345123 0.855133 0.353699
0.454529 0.856567 0.353363
0.600433 0.858246 0.353088
0.768921 0.859802 0.353271
0.894775 0.859894 0.353302
0.975403 0.858185 0.353943
0.138306 0.969025 0.356689
0.260895 0.965698 0.352417
0.356506 0.963287 0.348694
0.466278 0.963684 0.348907
0.611115 0.964111 0.350281
0.773346 0.964478 0.354187
0.894562 0.964905 0.363983
0.975128 0.964752 0.376343
0.000000 0.008362 0.442413
0.171356 0.011658 0.468140
0.299133 0.021454 0.477173
0.402252 0.027435 0.482483
0.526489 0.031311 0.485626
0.703094 0.029480 0.483643
0.869904 0.029358 0.481750
0.975037 0.031982 0.480774
0.000000 0.157745 0.473175
0.166687 0.154419 0.478333
0.293427 0.159119 0.483093
0.397339 0.164154 0.487396
0.525055 0.168365 0.489868
0.706390 0.166809 0.486511
0.870941 0.166626 0.483337
0.972992 0.169250 0.481812
0.000000 0.285706 0.482544
0.165833 0.284485 0.487152
0.291443 0.284698 0.487213
0.400604 0.289642 0.490356
0.534851 0.293121 0.491241
0.717987 0.291687 0.487122
0.874512 0.291595 0.483795
0.971466 0.293427 0.481781
0.000000 0.411774 0.495667
0.180267 0.410522 0.493866
0.305145 0.410919 0.492462
0.412659 0.412109 0.491119
0.552094 0.414978 0.490906
0.731964 0.413574 0.486359
0.877594 0.413208 0.482819
0.969330 0.414001 0.480255
0.031586 0.546173 0.499451
0.206757 0.545288 0.496307
0.323456 0.546204 0.494476
0.430634 0.547150 0.492432
0.571625 0.548553 0.490814
0.744324 0.546631 0.485931
0.880829 0.545746 0.481476
0.968689 0.546234 0.477966
0.074615 0.706848 0.496979
0.231323 0.705261 0.493835
0.337524 0.705109 0.491821
0.442749 0.704224 0.489044
0.585815 0.705536 0.487610
0.757599 0.706879 0.485718
0.886200 0.704742 0.481110
0.970123 0.704102 0.478210
0.114838 0.860535 0.493835
0.249390 0.857666 0.490692
0.348145 0.855713 0.487610
0.453827 0.853058 0.483551
0.598206 0.853485 0.482300
0.765259 0.855011 0.482605
0.890259 0.855225 0.482666
0.971008 0.853790 0.483612
0.144379 0.969025 0.490265
0.264404 0.965759 0.486237
0.358856 0.963074 0.482758
0.464447 0.959747 0.479126
0.608124 0.959595 0.479919
0.769379 0.960114 0.483887
0.889740 0.960571 0.490997
0.970825 0.960632 0.498993
0.000000 0.012634 0.564667
0.166779 0.011139 0.586548
0.294037 0.018188 0.589966
0.397766 0.024170 0.592804
0.523834 0.030243 0.595276
0.703735 0.032013 0.593445
0.870636 0.032379 0.589111
0.975250 0.034912 0.586212
0.000000 0.158020 0.580963
0.161499 0.151093 0.588409
0.288757 0.155914 0.590942
0.393524 0.161346 0.593170
0.524445 0.167694 0.595245
0.708801 0.169067 0.592407
0.872284 0.169281 0.587616
0.973358 0.172028 0.584503
0.000000 0.284454 0.585999
0.161957 0.281494 0.593109
0.289001 0.282166 0.591003
0.398926 0.287170 0.592529
0.536285 0.292786 0.593811
0.721405 0.293793 0.590240
0.876038 0.293823 0.585419
0.971832 0.295563 0.582184
0.000000 0.409363 0.599976
0.180237 0.408020 0.596344
0.304352 0.408691 0.593353
0.412384 0.410126 0.590576
0.555054 0.415436 0.591614
0.735199 0.415344 0.587006
0.878723 0.414856 0.582245
0.969574 0.415588 0.578888
0.037659 0.545532 0.602722
0.210419 0.545044 0.598175
0.325439 0.546143 0.595123
0.432678 0.547150 0.591919
0.572205 0.547241 0.587982
0.744263 0.545624 0.582428
0.879242 0.544617 0.577240
0.966492 0.544800 0.573425
0.084076 0.708099 0.599579
0.236511 0.706604 0.595245
0.340668 0.706299 0.592072
0.445831 0.705322 0.588318
0.585297 0.702606 0.582550
0.755737 0.703705 0.580505
0.883209 0.701721 0.575714
0.966888 0.701080 0.572632
0.122070 0.861053 0.594299
0.253204 0.858185 0.590149
0.351105 0.856232 0.586456
0.456757 0.853516 0.582031
0.597229 0.850037 0.576996
0.762848 0.851593 0.577301
0.886993 0.851746 0.576965
0.967773 0.850800 0.576782
0.150208 0.969025 0.589172
0.267761 0.965851 0.584961
0.361450 0.963135 0.581360
0.466827 0.959808 0.577454
0.606110 0.956268 0.574066
0.766357 0.956940 0.577179
0.886169 0.957489 0.581604
0.967773 0.957703 0.586182
0.000000 0.016846 0.652283
0.163635 0.010223 0.672302
0.290344 0.016510 0.674194
0.394501 0.022522 0.675842
0.520844 0.028870 0.677368
0.704742 0.034729 0.677734
0.871399 0.035126 0.672241
0.975525 0.038055 0.668549
0.000000 0.159149 0.661133
0.157837 0.149292 0.671326
0.285278 0.154297 0.672882
0.391541 0.160065 0.674255
0.523682 0.166412 0.675385
0.711578 0.171478 0.674957
0.873657 0.171967 0.669250
0.973694 0.174774 0.665527
0.000000 0.284668 0.664551
0.160492 0.280029 0.674194
0.288025 0.280670 0.671051
0.398712 0.286011 0.671967
0.537445 0.291840 0.672760
0.724915 0.295929 0.671387
0.877502 0.295990 0.666016
0.972107 0.297607 0.662415
0.000702 0.407898 0.681122
0.181885 0.406708 0.675903
0.304993 0.407562 0.672241
0.413361 0.409088 0.668854
0.556641 0.414429 0.669464
0.738251 0.417084 0.667297
0.879761 0.416473 0.662018
0.969849 0.417084 0.658112
0.043213 0.544281 0.681854
0.213196 0.543793 0.676666
0.326324 0.545013 0.673065
0.433380 0.545929 0.669373
0.572754 0.545898 0.664948
0.746735 0.546997 0.661835
0.880219 0.545959 0.656342
0.966766 0.546173 0.652405
0.093384 0.709290 0.680603
0.241394 0.707916 0.675873
0.343689 0.707489 0.672241
0.448883 0.706421 0.667938
0.588501 0.703522 0.661774
0.754852 0.701691 0.656769
0.881073 0.699707 0.651825
0.964478 0.699036 0.648651
0.128510 0.861511 0.674438
0.256989 0.858704 0.669861
0.354004 0.856689 0.665924
0.459595 0.853973 0.661407
0.599182 0.849701 0.655334
0.761444 0.849152 0.653564
0.884888 0.849762 0.653351
0.965271 0.848816 0.652649
0.156036 0.969025 0.668884
0.270996 0.965912 0.664337
0.363953 0.963226 0.660706
0.468964 0.959900 0.656677
0.607666 0.955383 0.651978
0.763947 0.954559 0.653046
0.883392 0.955170 0.656555
0.965363 0.955414 0.660095
0.000000 0.020966 0.747772
0.159637 0.008301 0.768799
0.286407 0.014435 0.770447
0.390900 0.020477 0.771912
0.517456 0.027039 0.773224
0.703613 0.034637 0.774414
0.872345 0.037933 0.771423
0.975800 0.041351 0.767487
0.000000 0.160339 0.753540
0.153778 0.147003 0.767365
0.281555 0.152283 0.768738
0.389465 0.158356 0.769958
0.522858 0.164734 0.770844
0.712189 0.171600 0.771637
0.875061 0.174622 0.768097
0.974121 0.177521 0.764343
0.000000 0.285004 0.756622
0.159271 0.278046 0.769867
0.286865 0.278839 0.766510
0.398315 0.284302 0.767303
0.538147 0.290344 0.768005
0.726868 0.296478 0.768585
0.878876 0.298096 0.764587
0.972412 0.299622 0.760956
0.002686 0.406006 0.776550
0.183350 0.404907 0.771118
0.305145 0.405975 0.767365
0.413818 0.407593 0.763977
0.557495 0.412872 0.764465
0.740112 0.417847 0.764893
0.880829 0.418060 0.760437
0.970123 0.418610 0.756470
0.048492 0.542358 0.776855
0.215240 0.542145 0.771667
0.326538 0.543304 0.768036
0.433380 0.544159 0.764221
0.572784 0.543976 0.759705
0.748718 0.547943 0.759644
0.881165 0.547272 0.754486
0.966949 0.547485 0.750549
0.099335 0.707855 0.776642
0.243378 0.706635 0.771912
0.344360 0.706207 0.768341
0.449921 0.705200 0.764008
0.589691 0.702423 0.757812
0.755188 0.700989 0.753235
0.880157 0.698975 0.748291
0.963074 0.698181 0.745117
0.134888 0.861938 0.772797
0.260651 0.859161 0.768219
0.356842 0.857178 0.764221
0.462341 0.854462 0.759644
0.601807 0.850220 0.753632
0.759155 0.846130 0.748291
0.881927 0.847046 0.748596
0.962158 0.846069 0.748016
0.161499 0.969025 0.766907
0.274139 0.965973 0.762756
0.366302 0.963318 0.759186
0.471039 0.960022 0.755219
0.609711 0.955566 0.750916
0.760559 0.951630 0.748413
0.879944 0.952240 0.751953
0.962372 0.952606 0.755646
0.000000 0.024353 0.885132
0.153137 0.004089 0.906982
0.280762 0.010193 0.907745
0.385651 0.016449 0.908447
0.513519 0.023315 0.908997
0.699799 0.031219 0.909454
0.872009 0.039185 0.909729
0.976105 0.044617 0.907288
0.000000 0.161316 0.887054
0.147675 0.142883 0.904266
0.276794 0.148438 0.904938
0.386017 0.154846 0.905426
0.520782 0.161316 0.905762
0.709930 0.168457 0.906006
0.875336 0.175995 0.906250
0.974426 0.180298 0.903595
0.000000 0.284576 0.890411
0.156952 0.274445 0.905334
0.284302 0.275269 0.901733
0.396576 0.281036 0.902100
0.537628 0.287140 0.902313
0.724945 0.293274 0.902496
0.879272 0.299225 0.902649
0.972687 0.301514 0.899780
0.003510 0.402405 0.910828
0.183350 0.401550 0.905457
0.303741 0.402832 0.901703
0.412750 0.404541 0.898254
0.556824 0.409790 0.898438
0.737396 0.414551 0.898529
0.881287 0.418915 0.898529
0.970337 0.420074 0.895294
0.052002 0.539124 0.910217
0.215424 0.538879 0.905243
0.325012 0.540039 0.901703
0.431549 0.540649 0.897858
0.571350 0.540588 0.893524
0.745758 0.544434 0.893372
0.881622 0.548187 0.893188
0.967194 0.548798 0.890015
0.101868 0.703735 0.909424
0.241974 0.702454 0.904968
0.342133 0.702026 0.901489
0.448120 0.700928 0.897339
0.587677 0.697998 0.891663
0.751862 0.696777 0.887543
0.880554 0.699646 0.887573
0.963196 0.699463 0.884857
0.138977 0.860565 0.908630
0.262329 0.857849 0.904388
0.357880 0.855927 0.900879
0.463501 0.853241 0.896729
0.602600 0.849060 0.891235
0.758575 0.844727 0.885834
0.878540 0.844055 0.883881
0.959045 0.843323 0.882416
0.166687 0.969055 0.905121
0.277069 0.966034 0.901215
0.368500 0.963409 0.897949
0.472961 0.960083 0.894196
0.611023 0.955780 0.889740
0.760406 0.951508 0.885986
0.875519 0.948273 0.883575
0.958221 0.948547 0.885345
