examples/luts/Remy 24.CUBE
#Created by: Adobe Photoshop Export Color Lookup Plugin
#Copyright: (C) Copyright 2017 RocketStock
TITLE "Untitled"
#LUT size
LUT_3D_SIZE 32
#data domain
DOMAIN_MIN 0.0 0.0 0.0
DOMAIN_MAX 1.0 1.0 1.0
#LUT data points
0.003937 0.002777 0.002625
0.051483 0.003021 0.004120
0.097351 0.003876 0.006683
0.140625 0.005280 0.010284
0.180695 0.007233 0.014618
0.217010 0.009521 0.019287
0.249329 0.012177 0.024536
0.278473 0.014984 0.029755
0.305328 0.017853 0.034912
0.330780 0.020660 0.039734
0.355591 0.023071 0.043640
0.380402 0.023926 0.045380
0.405792 0.024414 0.046509
0.432526 0.024719 0.047455
0.461151 0.024811 0.048279
0.492096 0.024811 0.048950
0.526733 0.024567 0.049316
0.566315 0.024139 0.049530
0.609894 0.023560 0.049469
0.656128 0.022949 0.049347
0.703369 0.022400 0.049225
0.749847 0.021820 0.049042
0.793732 0.021393 0.048767
0.833496 0.021240 0.048859
0.868866 0.021240 0.048889
0.900177 0.021484 0.049225
0.927979 0.021912 0.049591
0.952576 0.022491 0.049927
0.974548 0.023285 0.050354
0.994293 0.024170 0.050812
1.000000 0.043823 0.068878
1.000000 0.070831 0.093903
0.003754 0.041748 0.008911
0.052643 0.044098 0.013550
0.098419 0.045563 0.017456
0.141571 0.047394 0.021973
0.181519 0.049591 0.026825
0.217621 0.051788 0.031708
0.249664 0.054169 0.036591
0.278595 0.056519 0.041046
0.305328 0.058746 0.045074
0.330536 0.059570 0.046814
0.355072 0.060028 0.047943
0.379608 0.060394 0.049072
0.404907 0.060760 0.050110
0.431519 0.060913 0.050934
0.460175 0.060852 0.051636
0.491302 0.060669 0.052094
0.525848 0.060303 0.052429
0.565369 0.059875 0.052429
0.608917 0.059296 0.052277
0.655151 0.058685 0.052063
0.702332 0.058044 0.051819
0.748810 0.057404 0.051514
0.792694 0.057098 0.051300
0.832642 0.056976 0.051270
0.868225 0.057007 0.051270
0.899689 0.057465 0.051514
0.927490 0.057922 0.051788
0.952087 0.058441 0.052094
0.974060 0.059479 0.052460
0.993744 0.060059 0.052551
1.000000 0.078217 0.070282
1.000000 0.104370 0.096222
0.003967 0.081421 0.018524
0.052856 0.084198 0.024139
0.099823 0.087036 0.029877
0.142914 0.088989 0.034668
0.182678 0.090912 0.039154
0.218567 0.092865 0.043549
0.250458 0.094818 0.047394
0.279144 0.095367 0.049011
0.305542 0.095734 0.050140
0.330475 0.096039 0.051270
0.354858 0.096313 0.052368
0.379272 0.096649 0.053406
0.404633 0.096771 0.054321
0.431366 0.096893 0.054993
0.460052 0.096954 0.055664
0.491150 0.096497 0.056030
0.525726 0.096313 0.056183
0.565247 0.095734 0.056152
0.608795 0.095184 0.055908
0.655029 0.094574 0.055664
0.702209 0.094025 0.055298
0.748871 0.093506 0.054932
0.793182 0.093231 0.054688
0.833221 0.093079 0.054565
0.868866 0.093231 0.054535
0.900238 0.093719 0.054657
0.927979 0.094299 0.054810
0.952454 0.094788 0.054810
0.974274 0.095215 0.054932
0.993896 0.096039 0.054993
1.000000 0.112885 0.072754
1.000000 0.137177 0.098450
0.004578 0.120819 0.029877
0.053070 0.123230 0.035309
0.100433 0.126434 0.041351
0.144318 0.129028 0.046478
0.183899 0.130524 0.049988
0.219360 0.130890 0.051575
0.250763 0.130981 0.052521
0.279083 0.131134 0.053497
0.305267 0.131287 0.054535
0.330139 0.131561 0.055603
0.354553 0.131744 0.056549
0.379120 0.131897 0.057526
0.404510 0.131989 0.058319
0.431244 0.132019 0.058960
0.459961 0.131958 0.059479
0.491028 0.131683 0.059814
0.525635 0.131470 0.059875
0.565125 0.130951 0.059723
0.608673 0.130280 0.059448
0.655090 0.129730 0.059052
0.702850 0.129242 0.058685
0.749847 0.128754 0.058197
0.794220 0.128662 0.057892
0.834320 0.128662 0.057678
0.869812 0.128723 0.057587
0.901031 0.129028 0.057312
0.928558 0.129303 0.057220
0.952942 0.129791 0.057190
0.974609 0.130615 0.057251
0.994080 0.131531 0.057373
1.000000 0.147034 0.075104
1.000000 0.169189 0.100555
0.005310 0.159149 0.041260
0.053314 0.160767 0.045532
0.100616 0.163635 0.050751
0.144684 0.165314 0.053772
0.184296 0.165894 0.055237
0.219299 0.165771 0.056061
0.250488 0.165771 0.056946
0.278687 0.165802 0.057831
0.304962 0.165863 0.058777
0.329987 0.166077 0.059723
0.354431 0.166138 0.060577
0.378998 0.166260 0.061432
0.404388 0.166290 0.062073
0.431122 0.166321 0.062683
0.459839 0.166290 0.063171
0.490936 0.166046 0.063385
0.525513 0.165771 0.063416
0.565155 0.165314 0.063232
0.609344 0.164673 0.062744
0.656311 0.164154 0.062317
0.704376 0.163818 0.061798
0.751556 0.163361 0.061310
0.795837 0.163177 0.060913
0.835693 0.162903 0.060303
0.870941 0.163177 0.059998
0.902008 0.163391 0.059692
0.929352 0.163849 0.059570
0.953522 0.164337 0.059509
0.975037 0.164978 0.059509
0.994354 0.165894 0.059570
1.000000 0.180176 0.077423
1.000000 0.200531 0.102539
0.006165 0.195740 0.050964
0.053436 0.195740 0.052368
0.099915 0.196991 0.054688
0.143402 0.198151 0.056885
0.183411 0.199249 0.059021
0.218842 0.199615 0.060394
0.250153 0.199524 0.061157
0.278534 0.199493 0.061920
0.304840 0.199524 0.062805
0.329865 0.199615 0.063599
0.354279 0.199615 0.064362
0.378876 0.199799 0.065155
0.404266 0.199829 0.065765
0.431000 0.199860 0.066284
0.459747 0.199768 0.066620
0.490967 0.199615 0.066772
0.526154 0.199249 0.066711
0.566498 0.198822 0.066467
0.611084 0.198364 0.065918
0.658386 0.197906 0.065369
0.706635 0.197449 0.064819
0.753601 0.196930 0.063934
0.797760 0.196625 0.063263
0.837341 0.196594 0.062653
0.872345 0.196533 0.062286
0.903168 0.196869 0.061981
0.930267 0.197388 0.061798
0.954193 0.198059 0.061737
0.975525 0.198547 0.061707
0.994598 0.199463 0.061707
1.000000 0.212830 0.079651
1.000000 0.230896 0.104492
0.005646 0.228485 0.055206
0.052185 0.227966 0.055634
0.098175 0.228851 0.057678
0.141449 0.229950 0.059845
0.181702 0.230927 0.061890
0.218140 0.231964 0.063843
0.249969 0.232330 0.065125
0.278381 0.232178 0.065826
0.304657 0.232239 0.066589
0.329712 0.232239 0.067322
0.354156 0.232330 0.068024
0.378754 0.232452 0.068726
0.404144 0.232452 0.069275
0.431061 0.232513 0.069702
0.460266 0.232483 0.069946
0.492065 0.232330 0.070007
0.527771 0.232025 0.069855
0.568665 0.231720 0.069458
0.613678 0.231201 0.068878
0.661102 0.230682 0.067993
0.709229 0.230072 0.067108
0.756226 0.229645 0.066284
0.800110 0.229279 0.065552
0.839355 0.229218 0.064911
0.873993 0.229431 0.064514
0.904419 0.229553 0.064148
0.931244 0.230164 0.063934
0.954926 0.230835 0.063812
0.975983 0.231384 0.063751
0.994873 0.232025 0.063721
1.000000 0.244141 0.081757
1.000000 0.260559 0.106232
0.004089 0.259796 0.058350
0.050446 0.259186 0.058777
0.096313 0.259888 0.060577
0.139984 0.260834 0.062592
0.180328 0.261780 0.064575
0.216766 0.262756 0.066498
0.249268 0.263702 0.068329
0.278259 0.264160 0.069580
0.304535 0.264160 0.070221
0.329590 0.264160 0.070892
0.354034 0.264282 0.071564
0.378754 0.264374 0.072113
0.404633 0.264435 0.072571
0.432098 0.264496 0.072968
0.461731 0.264465 0.073120
0.493988 0.264404 0.073059
0.530273 0.264160 0.072815
0.571503 0.263641 0.072052
0.616699 0.263062 0.071198
0.664307 0.262421 0.070282
0.712463 0.261993 0.069366
0.759277 0.261475 0.068451
0.802765 0.261383 0.067719
0.841553 0.261261 0.067078
0.875793 0.261475 0.066589
0.905853 0.261627 0.066223
0.932312 0.262085 0.065979
0.955688 0.262665 0.065826
0.976501 0.263245 0.065704
0.995178 0.264069 0.065613
1.000000 0.275024 0.083740
1.000000 0.289581 0.107941
0.002289 0.290344 0.061432
0.048950 0.289673 0.061707
0.094818 0.290192 0.063232
0.138550 0.291016 0.065186
0.178894 0.291931 0.067047
0.215393 0.292908 0.068878
0.247925 0.293854 0.070648
0.277496 0.294800 0.072388
0.304413 0.295471 0.073730
0.329590 0.295532 0.074341
0.354553 0.295654 0.074860
0.379791 0.295807 0.075378
0.406006 0.295898 0.075745
0.433899 0.296021 0.076050
0.463959 0.296112 0.076080
0.496460 0.295837 0.075684
0.533112 0.295441 0.075134
0.574860 0.294983 0.074371
0.620392 0.294403 0.073425
0.668213 0.294037 0.072479
0.716248 0.293365 0.071442
0.762726 0.293091 0.070526
0.805725 0.292786 0.069733
0.843964 0.292877 0.069061
0.877686 0.293091 0.068542
0.907349 0.293304 0.068237
0.933411 0.293762 0.067902
0.956482 0.294250 0.067719
0.977020 0.294861 0.067535
0.995483 0.295654 0.067413
1.000000 0.305389 0.085663
1.000000 0.318420 0.109528
0.000916 0.320404 0.064270
0.047607 0.319763 0.064484
0.093323 0.320099 0.065735
0.137085 0.320953 0.067535
0.177460 0.321869 0.069366
0.214020 0.322815 0.071136
0.246613 0.323730 0.072815
0.276245 0.324768 0.074493
0.304199 0.325775 0.076111
0.330719 0.326691 0.077576
0.356018 0.326843 0.078064
0.381592 0.327057 0.078461
0.408234 0.327240 0.078735
0.436279 0.327209 0.078644
0.466522 0.327118 0.078430
0.499512 0.326904 0.077972
0.536743 0.326569 0.077332
0.578949 0.326080 0.076508
0.624756 0.325684 0.075531
0.672607 0.325165 0.074493
0.720398 0.324768 0.073486
0.766479 0.324432 0.072510
0.808899 0.324280 0.071686
0.846527 0.324188 0.071014
0.879730 0.324554 0.070465
0.908905 0.324677 0.070038
0.934570 0.325165 0.069672
0.957275 0.325562 0.069519
0.977570 0.326202 0.069244
0.995789 0.326721 0.069092
1.000000 0.335480 0.087494
1.000000 0.346802 0.111084
0.000000 0.350006 0.067261
0.046204 0.349762 0.066956
0.091858 0.349976 0.067963
0.135620 0.350830 0.069733
0.176025 0.351807 0.071472
0.212769 0.352753 0.073212
0.246094 0.353668 0.074738
0.276489 0.354767 0.076416
0.304718 0.355865 0.077972
0.331635 0.356964 0.079498
0.358215 0.358154 0.081055
0.383942 0.358276 0.081085
0.410706 0.358307 0.081085
0.439117 0.358276 0.080933
0.469757 0.358215 0.080597
0.503143 0.358063 0.080139
0.541016 0.357758 0.079376
0.583618 0.357361 0.078491
0.629639 0.356964 0.077484
0.677429 0.356537 0.076385
0.724854 0.356049 0.075317
0.770447 0.355835 0.074371
0.812164 0.355774 0.073578
0.849213 0.355835 0.072784
0.881744 0.355927 0.072235
0.910431 0.356232 0.071808
0.935699 0.356537 0.071381
0.958099 0.357025 0.071106
0.978088 0.357483 0.070862
0.996094 0.358154 0.070648
1.000000 0.365540 0.089142
1.000000 0.375366 0.112427
0.000000 0.379028 0.070496
0.044800 0.379974 0.069366
0.090363 0.380096 0.070160
0.134186 0.380981 0.071747
0.175690 0.381958 0.073456
0.213287 0.382935 0.075073
0.247009 0.383972 0.076660
0.277557 0.385132 0.078186
0.306061 0.386230 0.079742
0.333099 0.387268 0.080872
0.359711 0.388336 0.082092
0.386719 0.389435 0.083282
0.413818 0.389557 0.083313
0.442627 0.389679 0.083099
0.473602 0.389648 0.082672
0.507385 0.389557 0.082123
0.545868 0.389343 0.081329
0.588745 0.388885 0.080353
0.634888 0.388580 0.079285
0.682495 0.388062 0.078278
0.729584 0.387695 0.077087
0.774445 0.387451 0.076111
0.815491 0.387390 0.075226
0.851807 0.387421 0.074493
0.883820 0.387634 0.073883
0.911926 0.387817 0.073364
0.936829 0.388184 0.072968
0.958893 0.388611 0.072693
0.978607 0.389069 0.072327
0.996368 0.389496 0.072052
1.000000 0.395935 0.090698
1.000000 0.403900 0.113647
0.000000 0.408417 0.073669
0.043427 0.410614 0.071411
0.090179 0.410645 0.072052
0.135345 0.411621 0.073608
0.177246 0.412659 0.075226
0.215118 0.413696 0.076752
0.248901 0.414795 0.078278
0.279419 0.415802 0.079468
0.307831 0.416809 0.080688
0.334961 0.417847 0.081848
0.361816 0.419037 0.083038
0.388947 0.420135 0.084137
0.417358 0.421295 0.085205
0.446594 0.421600 0.085114
0.477905 0.421539 0.084686
0.512115 0.421448 0.083984
0.551056 0.421173 0.083130
0.594330 0.420898 0.082184
0.640442 0.420532 0.081055
0.687744 0.420105 0.079895
0.734314 0.419800 0.078766
0.778564 0.419556 0.077759
0.818817 0.419525 0.076874
0.854401 0.419434 0.076050
0.885803 0.419739 0.075378
0.913422 0.419952 0.074921
0.937866 0.420074 0.074432
0.959595 0.420593 0.074066
0.979034 0.420929 0.073700
0.996674 0.421387 0.073364
1.000000 0.426514 0.092041
1.000000 0.432953 0.114716
0.000000 0.439545 0.075775
0.044952 0.441803 0.073242
0.092377 0.441925 0.073792
0.138092 0.442932 0.075317
0.180267 0.444000 0.076813
0.217896 0.445007 0.078064
0.251373 0.445953 0.079224
0.281830 0.447021 0.080444
0.310211 0.448120 0.081635
0.337372 0.449188 0.082642
0.364349 0.450348 0.083771
0.391785 0.451508 0.084808
0.420380 0.452667 0.085876
0.450897 0.453949 0.086914
0.482574 0.453979 0.086487
0.517242 0.453979 0.085815
0.556702 0.453705 0.084869
0.600098 0.453369 0.083771
0.646210 0.453033 0.082642
0.693115 0.452637 0.081482
0.739136 0.452301 0.080322
0.782562 0.452179 0.079224
0.821991 0.452087 0.078308
0.856842 0.451996 0.077545
0.887634 0.452179 0.076874
0.914795 0.452332 0.076233
0.938812 0.452545 0.075806
0.960236 0.452850 0.075378
0.979431 0.453247 0.074982
0.996887 0.453644 0.074493
1.000000 0.457336 0.093109
1.000000 0.462585 0.115356
0.000000 0.473511 0.075653
0.048279 0.473724 0.074738
0.096436 0.474030 0.075348
0.142029 0.474945 0.076538
0.183929 0.475922 0.077759
0.221283 0.476929 0.078949
0.254486 0.477936 0.080078
0.284821 0.479004 0.081146
0.313110 0.480103 0.082275
0.340363 0.481232 0.083374
0.367340 0.482422 0.084351
0.394897 0.483551 0.085388
0.423889 0.484802 0.086365
0.454529 0.485992 0.087341
0.487579 0.487122 0.088196
0.522644 0.487122 0.087433
0.562469 0.486877 0.086456
0.606049 0.486481 0.085358
0.651917 0.486237 0.084137
0.698395 0.485748 0.082886
0.743744 0.485535 0.081726
0.786438 0.485382 0.080658
0.824982 0.485260 0.079651
0.859161 0.485107 0.078888
0.889374 0.485291 0.078186
0.916046 0.485382 0.077515
0.939728 0.485504 0.076996
0.960876 0.485901 0.076416
0.979858 0.485931 0.075836
0.997101 0.486359 0.075195
1.000000 0.489014 0.093750
1.000000 0.492554 0.115723
0.003815 0.506989 0.076385
0.053253 0.506439 0.075745
0.101288 0.506744 0.076141
0.146881 0.507721 0.077301
0.188416 0.508728 0.078461
0.225494 0.509857 0.079620
0.258362 0.510895 0.080658
0.288330 0.511993 0.081757
0.316467 0.513184 0.082764
0.343658 0.514343 0.083771
0.370758 0.515533 0.084778
0.398315 0.516754 0.085724
0.427429 0.517975 0.086670
0.458405 0.519226 0.087585
0.491730 0.520447 0.088440
0.528229 0.521423 0.088959
0.568451 0.521179 0.087952
0.611938 0.520844 0.086731
0.657532 0.520477 0.085480
0.703461 0.520111 0.084259
0.748138 0.519775 0.083069
0.790009 0.519562 0.081970
0.827820 0.519257 0.080933
0.861267 0.519226 0.080109
0.890930 0.519196 0.079376
0.917206 0.519348 0.078644
0.940552 0.519531 0.077911
0.961487 0.519714 0.077148
0.980286 0.519867 0.076294
0.997375 0.520294 0.075500
1.000000 0.521606 0.094116
1.000000 0.524017 0.115784
0.009430 0.541992 0.076996
0.059204 0.541534 0.076202
0.107605 0.542053 0.076782
0.152954 0.543121 0.077911
0.193939 0.544250 0.079010
0.230194 0.545380 0.080109
0.262634 0.546539 0.081116
0.292267 0.547729 0.082092
0.320099 0.548950 0.083069
0.347107 0.550140 0.084076
0.374237 0.551422 0.085022
0.402008 0.552673 0.085907
0.431183 0.553894 0.086761
0.462311 0.555176 0.087646
0.495880 0.556396 0.088440
0.532959 0.557678 0.089264
0.574310 0.558319 0.089264
0.617706 0.557892 0.088074
0.662964 0.557495 0.086792
0.708344 0.557007 0.085541
0.752258 0.556519 0.084290
0.793335 0.556244 0.083130
0.830292 0.555939 0.082123
0.863190 0.555878 0.081116
0.892395 0.555878 0.080231
0.918304 0.555908 0.079285
0.941406 0.555969 0.078339
0.962067 0.556213 0.077423
0.980682 0.556335 0.076508
0.997620 0.556671 0.075592
1.000000 0.556763 0.094299
1.000000 0.557556 0.115662
0.016724 0.579834 0.077362
0.066498 0.579315 0.076538
0.114990 0.580139 0.077271
0.159729 0.581238 0.078369
0.199890 0.582367 0.079407
0.235504 0.583649 0.080383
0.267120 0.584808 0.081360
0.296387 0.586029 0.082367
0.323883 0.587219 0.083282
0.350769 0.588470 0.084229
0.377808 0.589691 0.085052
0.405579 0.590973 0.085907
0.434967 0.592224 0.086731
0.466278 0.593445 0.087555
0.499908 0.594635 0.088257
0.537415 0.595856 0.089081
0.579346 0.597076 0.089752
0.623230 0.597168 0.089264
0.668030 0.596710 0.087952
0.712677 0.596069 0.086670
0.755951 0.595734 0.085388
0.796295 0.595215 0.084137
0.832672 0.594818 0.082947
0.865051 0.594574 0.081787
0.893829 0.594574 0.080658
0.919434 0.594482 0.079590
0.942230 0.594513 0.078491
0.962646 0.594574 0.077484
0.981079 0.594910 0.076447
0.997864 0.594971 0.075470
1.000000 0.593719 0.094299
1.000000 0.593079 0.115540
0.025360 0.619751 0.077423
0.075012 0.619263 0.076691
0.123138 0.620361 0.077606
0.167175 0.621490 0.078644
0.206421 0.622681 0.079620
0.240875 0.623840 0.080597
0.271973 0.625031 0.081573
0.300598 0.626251 0.082458
0.327820 0.627411 0.083313
0.354523 0.628632 0.084167
0.381592 0.629852 0.085022
0.409302 0.630981 0.085815
0.438690 0.632172 0.086548
0.470184 0.633392 0.087341
0.503754 0.634491 0.087982
0.541443 0.635651 0.088654
0.583344 0.636780 0.089355
0.627991 0.637787 0.089935
0.672577 0.637512 0.088989
0.716766 0.636871 0.087585
0.759399 0.636292 0.086182
0.799194 0.635803 0.084747
0.834991 0.635406 0.083374
0.866943 0.635071 0.082062
0.895325 0.634888 0.080811
0.920502 0.634827 0.079620
0.943085 0.634857 0.078461
0.963257 0.634766 0.077332
0.981476 0.634857 0.076294
0.998108 0.635071 0.075317
1.000000 0.632172 0.094360
1.000000 0.629761 0.115479
0.035095 0.661163 0.077301
0.084473 0.660858 0.076813
0.131989 0.661957 0.077820
0.174835 0.663086 0.078827
0.212982 0.664215 0.079803
0.246368 0.665344 0.080627
0.276733 0.666504 0.081543
0.305023 0.667633 0.082397
0.331757 0.668762 0.083221
0.358276 0.669861 0.084015
0.385193 0.671021 0.084808
0.412994 0.672058 0.085571
0.442444 0.673157 0.086273
0.473755 0.674255 0.086914
0.507568 0.675232 0.087616
0.545258 0.676270 0.088196
0.586853 0.677216 0.088776
0.631134 0.678131 0.089294
0.676758 0.679108 0.089722
0.720642 0.678406 0.088165
0.762817 0.677765 0.086548
0.802032 0.677216 0.084961
0.837280 0.676605 0.083466
0.868744 0.676208 0.082062
0.896759 0.676086 0.080719
0.921600 0.675873 0.079498
0.943878 0.675842 0.078308
0.963806 0.675781 0.077179
0.981873 0.675690 0.076172
0.998352 0.675812 0.075226
1.000000 0.671234 0.094513
1.000000 0.667023 0.115509
0.045654 0.703094 0.077271
0.094788 0.703064 0.077026
0.140961 0.704071 0.077942
0.182831 0.705139 0.078888
0.219513 0.706177 0.079773
0.252014 0.707214 0.080597
0.281586 0.708313 0.081482
0.309143 0.709320 0.082306
0.335541 0.710358 0.083038
0.361908 0.711395 0.083801
0.388672 0.712341 0.084503
0.416412 0.713348 0.085175
0.445770 0.714233 0.085846
0.477020 0.715149 0.086456
0.510803 0.716064 0.087036
0.548615 0.716919 0.087555
0.590179 0.717773 0.087982
0.634430 0.718658 0.088226
0.679688 0.719482 0.088440
0.724579 0.720123 0.088379
0.766205 0.719391 0.086639
0.804871 0.718658 0.084961
0.839569 0.717987 0.083374
0.870575 0.717682 0.081940
0.898102 0.717255 0.080566
0.922668 0.717102 0.079254
0.944672 0.716797 0.078156
0.964386 0.716797 0.077087
0.982239 0.716614 0.076111
0.998566 0.716675 0.075256
1.000000 0.710358 0.094757
1.000000 0.704681 0.115784
0.056702 0.744659 0.076874
0.105194 0.744904 0.077087
0.150238 0.745850 0.078003
0.190582 0.746826 0.078857
0.225952 0.747742 0.079742
0.257355 0.748627 0.080505
0.286102 0.749573 0.081299
0.313202 0.750488 0.082092
0.339325 0.751312 0.082764
0.365387 0.752228 0.083466
0.391937 0.753082 0.084167
0.419525 0.753876 0.084747
0.448700 0.754669 0.085358
0.480072 0.755463 0.085876
0.513916 0.756226 0.086273
0.551849 0.757019 0.086548
0.593414 0.757690 0.086761
0.637451 0.758453 0.086853
0.682648 0.759186 0.086914
0.727203 0.759918 0.086945
0.769531 0.760315 0.086456
0.807526 0.759552 0.084747
0.841736 0.758911 0.083160
0.872223 0.758453 0.081696
0.899384 0.757904 0.080353
0.923676 0.757568 0.079163
0.945404 0.757324 0.078094
0.964905 0.757111 0.077087
0.982605 0.756897 0.076202
0.998749 0.756836 0.075531
1.000000 0.749023 0.095306
1.000000 0.741669 0.116333
0.068024 0.785034 0.076660
0.115631 0.785553 0.077148
0.159241 0.786346 0.078003
0.198059 0.787170 0.078827
0.232117 0.787964 0.079590
0.262451 0.788727 0.080322
0.290558 0.789490 0.081085
0.317078 0.790253 0.081757
0.342712 0.790985 0.082458
0.368408 0.791718 0.083099
0.394806 0.792389 0.083710
0.422302 0.793091 0.084167
0.451508 0.793701 0.084625
0.483032 0.794342 0.084900
0.517151 0.795013 0.085114
0.555176 0.795685 0.085236
0.596893 0.796326 0.085327
0.640625 0.796967 0.085327
0.685364 0.797577 0.085236
0.729492 0.798187 0.085175
0.771637 0.798798 0.085052
0.810242 0.798920 0.084473
0.843842 0.798340 0.082916
0.873901 0.797638 0.081512
0.900635 0.797058 0.080261
0.924591 0.796631 0.079132
0.946045 0.796417 0.078156
0.965363 0.795959 0.077301
0.982910 0.795685 0.076691
0.998932 0.795441 0.076080
1.000000 0.786102 0.096191
1.000000 0.777405 0.117371
0.079224 0.823456 0.076324
0.125824 0.824127 0.077148
0.167969 0.824799 0.077911
0.205139 0.825470 0.078705
0.237701 0.826111 0.079437
0.267334 0.826721 0.080109
0.294525 0.827393 0.080811
0.320496 0.827972 0.081482
0.345795 0.828522 0.082062
0.371246 0.829102 0.082581
0.397430 0.829681 0.083008
0.425140 0.830231 0.083313
0.454498 0.830780 0.083588
0.485931 0.831329 0.083649
0.520294 0.831818 0.083710
0.558716 0.832397 0.083740
0.600342 0.832886 0.083679
0.643799 0.833405 0.083618
0.688202 0.833893 0.083527
0.731781 0.834442 0.083405
0.773468 0.834900 0.083313
0.811829 0.835388 0.083252
0.845795 0.835419 0.082794
0.875427 0.834778 0.081482
0.901855 0.834229 0.080322
0.925476 0.833832 0.079315
0.946686 0.833374 0.078552
0.965790 0.832855 0.077850
0.983124 0.832642 0.077454
0.999084 0.832275 0.077179
1.000000 0.821442 0.097595
1.000000 0.811523 0.118896
0.090637 0.859497 0.076294
0.135559 0.860016 0.077087
0.175903 0.860535 0.077820
0.211517 0.861084 0.078552
0.243011 0.861572 0.079224
0.271576 0.862061 0.079895
0.298096 0.862518 0.080536
0.323578 0.863007 0.081055
0.348572 0.863434 0.081512
0.374023 0.863831 0.081787
0.400330 0.864288 0.082031
0.428101 0.864746 0.082123
0.457581 0.865143 0.082214
0.489227 0.865631 0.082245
0.523621 0.866058 0.082184
0.562103 0.866455 0.082092
0.603546 0.866882 0.082031
0.646942 0.867279 0.081909
0.690979 0.867706 0.081909
0.734100 0.868103 0.081787
0.775146 0.868500 0.081757
0.812836 0.868958 0.081787
0.846802 0.869263 0.081818
0.876831 0.869476 0.081696
0.902924 0.868835 0.080688
0.926270 0.868195 0.079895
0.947235 0.867706 0.079315
0.966156 0.867096 0.078949
0.983368 0.866638 0.078735
0.999207 0.866333 0.078766
1.000000 0.854401 0.099518
1.000000 0.843567 0.121948
0.101227 0.892273 0.076324
0.144592 0.892639 0.077057
0.183197 0.893066 0.077759
0.217316 0.893433 0.078400
0.247650 0.893799 0.079010
0.275208 0.894135 0.079590
0.301422 0.894501 0.080048
0.326508 0.894806 0.080353
0.351410 0.895203 0.080597
0.376831 0.895538 0.080688
0.403107 0.895813 0.080780
0.431000 0.896210 0.080811
0.460663 0.896515 0.080719
0.492401 0.896881 0.080688
0.527039 0.897156 0.080597
0.565613 0.897522 0.080536
0.606903 0.897827 0.080444
0.650055 0.898193 0.080383
0.693390 0.898438 0.080353
0.736237 0.898743 0.080383
0.776672 0.899078 0.080444
0.813965 0.899384 0.080597
0.847290 0.899658 0.080841
0.877167 0.899933 0.081146
0.903870 0.900085 0.081482
0.926941 0.899384 0.080902
0.947693 0.898956 0.080627
0.966461 0.898376 0.080505
0.983582 0.897797 0.080658
0.999298 0.897522 0.081909
1.000000 0.885132 0.104065
1.000000 0.873169 0.126862
0.110992 0.921478 0.076324
0.152832 0.921783 0.077026
0.189606 0.921997 0.077606
0.222412 0.922241 0.078186
0.251984 0.922546 0.078674
0.279022 0.922791 0.079010
0.304657 0.923035 0.079193
0.329498 0.923309 0.079315
0.354401 0.923553 0.079437
0.379822 0.923828 0.079468
0.406189 0.924042 0.079407
0.434052 0.924316 0.079376
0.463776 0.924530 0.079285
0.495453 0.924774 0.079193
0.530426 0.925049 0.079163
0.568939 0.925262 0.079041
0.610077 0.925507 0.079041
0.652985 0.925751 0.079102
0.696106 0.925934 0.079163
0.738159 0.926178 0.079285
0.778107 0.926422 0.079498
0.814819 0.926636 0.079834
0.847809 0.926819 0.080353
0.877319 0.927063 0.080872
0.903809 0.927246 0.081573
0.927582 0.927399 0.082489
0.948120 0.926758 0.082520
0.966766 0.926270 0.083618
0.983734 0.925903 0.085236
0.999298 0.925507 0.087158
1.000000 0.912231 0.109650
1.000000 0.899567 0.132874
0.119873 0.947388 0.076355
0.159698 0.947540 0.076935
0.195435 0.947723 0.077423
0.227203 0.947906 0.077759
0.256104 0.948059 0.077972
0.282715 0.948273 0.078125
0.308044 0.948456 0.078186
0.332733 0.948608 0.078217
0.357452 0.948822 0.078186
0.382843 0.949005 0.078156
0.409180 0.949158 0.078064
0.437042 0.949371 0.077972
0.466766 0.949524 0.077942
0.498657 0.949707 0.077820
0.533569 0.949860 0.077820
0.572083 0.950012 0.077850
