examples/luts/Remy 24.CUBE
#Created by: Adobe Photoshop Export Color Lookup Plugin
#Copyright: (C) Copyright 2017 RocketStock
TITLE "Untitled"
#LUT size
LUT_3D_SIZE 5
#data domain
#LUT data points
DOMAIN_MIN 0.000000 0.000000 0.000000
DOMAIN_MAX 0.903226 0.903226 0.903226
0.003937 0.002777 0.002625
0.278473 0.014984 0.029755
0.461151 0.024811 0.048279
0.749847 0.021820 0.049042
0.974548 0.023285 0.050354
0.004089 0.259796 0.058350
0.278259 0.264160 0.069580
0.461731 0.264465 0.073120
0.759277 0.261475 0.068451
0.976501 0.263245 0.065704
0.000000 0.473511 0.075653
0.284821 0.479004 0.081146
0.487579 0.487122 0.088196
0.786438 0.485382 0.080658
0.979858 0.485931 0.075836
0.056702 0.744659 0.076874
0.313202 0.750488 0.082092
0.513916 0.756226 0.086273
0.807526 0.759552 0.084747
0.982605 0.756897 0.076202
0.127655 0.970459 0.076172
0.335785 0.971283 0.076965
0.536743 0.972107 0.076752
0.816315 0.972809 0.080078
0.983673 0.973145 0.097870
0.000000 0.003784 0.247253
0.279114 0.024597 0.289551
0.460907 0.028809 0.298828
0.749695 0.026001 0.299469
0.974792 0.028442 0.300507
0.001617 0.260681 0.305939
0.269653 0.258362 0.309235
0.458588 0.260925 0.313721
0.756927 0.258301 0.309143
0.971405 0.260345 0.306458
0.007568 0.476624 0.321991
0.283905 0.475372 0.319824
0.486694 0.482452 0.324402
0.782257 0.480499 0.317657
0.973206 0.480988 0.312561
0.073700 0.746521 0.322784
0.311584 0.744171 0.319275
0.511932 0.749237 0.321777
0.802155 0.752289 0.319580
0.975830 0.749695 0.312958
0.136810 0.968994 0.319580
0.332672 0.964325 0.312897
0.533569 0.965057 0.313416
0.809875 0.965820 0.320038
0.976288 0.966003 0.340973
0.000000 0.010376 0.508606
0.268860 0.018005 0.536896
0.457489 0.028442 0.543884
0.750305 0.030426 0.542114
0.975159 0.033447 0.537964
0.000000 0.254211 0.536804
0.260376 0.251221 0.542328
0.459106 0.260376 0.546692
0.761902 0.262146 0.542084
0.971985 0.264404 0.536621
0.014252 0.475891 0.554779
0.287720 0.475464 0.549194
0.485718 0.477509 0.544800
0.779633 0.477356 0.538116
0.968048 0.477417 0.531311
0.090271 0.748413 0.551514
0.317474 0.746033 0.545654
0.510681 0.742981 0.538788
0.796204 0.744751 0.535614
0.968597 0.742096 0.529907
0.147308 0.969025 0.543823
0.336761 0.963806 0.537048
0.529602 0.957611 0.530304
0.802368 0.958496 0.535797
0.969116 0.958954 0.546143
0.000000 0.017792 0.673309
0.261993 0.014648 0.694824
0.451691 0.025299 0.697540
0.752228 0.035370 0.697815
0.975555 0.038910 0.689880
0.000000 0.254425 0.683807
0.256958 0.248291 0.692017
0.458710 0.257965 0.693726
0.767120 0.266052 0.692200
0.972656 0.268372 0.684479
0.020721 0.473145 0.702240
0.289307 0.473389 0.694092
0.487518 0.475464 0.687622
0.783325 0.479889 0.684479
0.968475 0.479889 0.676483
0.105621 0.750244 0.700348
0.322876 0.747803 0.692871
0.516174 0.744568 0.684509
0.793396 0.740601 0.675629
0.964111 0.738007 0.669403
0.157379 0.969025 0.689911
0.341278 0.963959 0.682831
0.533325 0.957733 0.675415
0.797424 0.954071 0.674316
0.964752 0.954865 0.680542
0.000000 0.024353 0.885132
0.252991 0.008698 0.907593
0.443970 0.019806 0.908691
0.748657 0.033081 0.909515
0.976105 0.044617 0.907288
0.000000 0.255127 0.888275
0.252594 0.243164 0.902496
0.457062 0.253357 0.903076
0.767029 0.264557 0.903442
0.973145 0.272034 0.900757
0.026367 0.468414 0.910583
0.288544 0.468933 0.902557
0.486938 0.471130 0.896118
0.782562 0.478455 0.896088
0.968903 0.482269 0.892792
0.112488 0.745544 0.909210
0.322235 0.743408 0.902222
0.516266 0.740112 0.894501
0.789764 0.735931 0.886200
0.962219 0.738220 0.883942
0.166687 0.969055 0.905121
0.345367 0.964081 0.898804
0.537659 0.958069 0.891968
0.793274 0.950562 0.885193
0.958221 0.948547 0.885345
