manual/examples/resources/luts/green.3DL
#Created by: Adobe Photoshop Export Color Lookup Plugin
#Description: Screen Shot 2016-10-31 at 6.02.03 PM.png
0 171 341 512 682 853 1023
0 0 0
99 583 99
198 1167 198
297 1751 297
396 2334 396
495 2918 495
594 3501 594
99 583 99
99 583 99
198 1167 198
297 1751 297
396 2334 396
495 2918 495
594 3501 594
198 1167 198
198 1167 198
198 1167 198
297 1751 297
396 2334 396
495 2918 495
594 3501 594
297 1751 297
297 1751 297
297 1751 297
297 1751 297
396 2334 396
495 2918 495
594 3501 594
396 2334 396
396 2334 396
396 2334 396
396 2334 396
396 2334 396
495 2918 495
594 3501 594
495 2918 495
495 2918 495
495 2918 495
495 2918 495
495 2918 495
495 2918 495
594 3501 594
594 3501 594
594 3501 594
594 3501 594
594 3501 594
594 3501 594
594 3501 594
594 3501 594
99 583 99
99 583 99
198 1167 198
297 1751 297
396 2334 396
495 2918 495
594 3501 594
99 583 99
198 1167 198
297 1751 297
396 2334 396
495 2918 495
594 3501 594
1177 3600 1177
198 1167 198
297 1751 297
297 1751 297
396 2334 396
495 2918 495
594 3501 594
1177 3600 1177
297 1751 297
396 2334 396
396 2334 396
396 2334 396
495 2918 495
594 3501 594
1177 3600 1177
396 2334 396
495 2918 495
495 2918 495
495 2918 495
495 2918 495
594 3501 594
1177 3600 1177
495 2918 495
594 3501 594
594 3501 594
594 3501 594
594 3501 594
594 3501 594
1177 3600 1177
594 3501 594
1177 3600 1177
1177 3600 1177
1177 3600 1177
1177 3600 1177
1177 3600 1177
1177 3600 1177
198 1167 198
198 1167 198
198 1167 198
297 1751 297
396 2334 396
495 2918 495
594 3501 594
198 1167 198
297 1751 297
297 1751 297
396 2334 396
495 2918 495
594 3501 594
1177 3600 1177
198 1167 198
297 1751 297
396 2334 396
495 2918 495
594 3501 594
1177 3600 1177
1761 3699 1761
297 1751 297
396 2334 396
495 2918 495
495 2918 495
594 3501 594
1177 3600 1177
1761 3699 1761
396 2334 396
495 2918 495
594 3501 594
594 3501 594
594 3501 594
1177 3600 1177
1761 3699 1761
495 2918 495
594 3501 594
1177 3600 1177
1177 3600 1177
1177 3600 1177
1177 3600 1177
1761 3699 1761
594 3501 594
1177 3600 1177
1761 3699 1761
1761 3699 1761
1761 3699 1761
1761 3699 1761
1761 3699 1761
297 1751 297
297 1751 297
297 1751 297
297 1751 297
396 2334 396
495 2918 495
594 3501 594
297 1751 297
396 2334 396
396 2334 396
396 2334 396
495 2918 495
594 3501 594
1177 3600 1177
297 1751 297
396 2334 396
495 2918 495
495 2918 495
594 3501 594
1177 3600 1177
1761 3699 1761
297 1751 297
396 2334 396
495 2918 495
594 3501 594
1177 3600 1177
1761 3699 1761
2344 3798 2344
396 2334 396
495 2918 495
594 3501 594
1177 3600 1177
1177 3600 1177
1761 3699 1761
2344 3798 2344
495 2918 495
594 3501 594
1177 3600 1177
1761 3699 1761
1761 3699 1761
1761 3699 1761
2344 3798 2344
594 3501 594
1177 3600 1177
1761 3699 1761
2344 3798 2344
2344 3798 2344
2344 3798 2344
2344 3798 2344
396 2334 396
396 2334 396
396 2334 396
396 2334 396
396 2334 396
495 2918 495
594 3501 594
396 2334 396
495 2918 495
495 2918 495
495 2918 495
495 2918 495
594 3501 594
1177 3600 1177
396 2334 396
495 2918 495
594 3501 594
594 3501 594
594 3501 594
1177 3600 1177
1761 3699 1761
396 2334 396
495 2918 495
594 3501 594
1177 3600 1177
1177 3600 1177
1761 3699 1761
2344 3798 2344
396 2334 396
495 2918 495
594 3501 594
1177 3600 1177
1761 3699 1761
2344 3798 2344
2928 3897 2928
495 2918 495
594 3501 594
1177 3600 1177
1761 3699 1761
2344 3798 2344
2344 3798 2344
2928 3897 2928
594 3501 594
1177 3600 1177
1761 3699 1761
2344 3798 2344
2928 3897 2928
2928 3897 2928
2928 3897 2928
495 2918 495
495 2918 495
495 2918 495
495 2918 495
495 2918 495
495 2918 495
594 3501 594
495 2918 495
594 3501 594
594 3501 594
594 3501 594
594 3501 594
594 3501 594
1177 3600 1177
495 2918 495
594 3501 594
1177 3600 1177
1177 3600 1177
1177 3600 1177
1177 3600 1177
1761 3699 1761
495 2918 495
594 3501 594
1177 3600 1177
1761 3699 1761
1761 3699 1761
1761 3699 1761
2344 3798 2344
495 2918 495
594 3501 594
1177 3600 1177
1761 3699 1761
2344 3798 2344
2344 3798 2344
2928 3897 2928
495 2918 495
594 3501 594
1177 3600 1177
1761 3699 1761
2344 3798 2344
2928 3897 2928
3512 3996 3512
594 3501 594
1177 3600 1177
1761 3699 1761
2344 3798 2344
2928 3897 2928
3512 3996 3512
3512 3996 3512
594 3501 594
594 3501 594
594 3501 594
594 3501 594
594 3501 594
594 3501 594
594 3501 594
594 3501 594
1177 3600 1177
1177 3600 1177
1177 3600 1177
1177 3600 1177
1177 3600 1177
1177 3600 1177
594 3501 594
1177 3600 1177
1761 3699 1761
1761 3699 1761
1761 3699 1761
1761 3699 1761
1761 3699 1761
594 3501 594
1177 3600 1177
1761 3699 1761
2344 3798 2344
2344 3798 2344
2344 3798 2344
2344 3798 2344
594 3501 594
1177 3600 1177
1761 3699 1761
2344 3798 2344
2928 3897 2928
2928 3897 2928
2928 3897 2928
594 3501 594
1177 3600 1177
1761 3699 1761
2344 3798 2344
2928 3897 2928
3512 3996 3512
3512 3996 3512
594 3501 594
1177 3600 1177
1761 3699 1761
2344 3798 2344
2928 3897 2928
3512 3996 3512
4095 4095 4095
