manual/examples/resources/luts/green.CUBE
#Created by: Adobe Photoshop Export Color Lookup Plugin
TITLE "Screen Shot 2016-10-31 at 6.02.03 PM.png"

#LUT size
LUT_3D_SIZE 7

#data domain
DOMAIN_MIN 0.0 0.0 0.0
DOMAIN_MAX 1.0 1.0 1.0

#LUT data points
0.000000 0.000000 0.000000
0.024200 0.142487 0.024200
0.048340 0.284973 0.048340
0.072510 0.427490 0.072510
0.096680 0.569977 0.096680
0.120850 0.712494 0.120850
0.145020 0.855011 0.145020
0.024200 0.142487 0.024200
0.024200 0.142487 0.024200
0.048340 0.284973 0.048340
0.072510 0.427490 0.072510
0.096680 0.569977 0.096680
0.120850 0.712494 0.120850
0.145020 0.855011 0.145020
0.048340 0.284973 0.048340
0.048340 0.284973 0.048340
0.048340 0.284973 0.048340
0.072510 0.427490 0.072510
0.096680 0.569977 0.096680
0.120850 0.712494 0.120850
0.145020 0.855011 0.145020
0.072510 0.427490 0.072510
0.072510 0.427490 0.072510
0.072510 0.427490 0.072510
0.072510 0.427490 0.072510
0.096680 0.569977 0.096680
0.120850 0.712494 0.120850
0.145020 0.855011 0.145020
0.096680 0.569977 0.096680
0.096680 0.569977 0.096680
0.096680 0.569977 0.096680
0.096680 0.569977 0.096680
0.096680 0.569977 0.096680
0.120850 0.712494 0.120850
0.145020 0.855011 0.145020
0.120850 0.712494 0.120850
0.120850 0.712494 0.120850
0.120850 0.712494 0.120850
0.120850 0.712494 0.120850
0.120850 0.712494 0.120850
0.120850 0.712494 0.120850
0.145020 0.855011 0.145020
0.145020 0.855011 0.145020
0.145020 0.855011 0.145020
0.145020 0.855011 0.145020
0.145020 0.855011 0.145020
0.145020 0.855011 0.145020
0.145020 0.855011 0.145020
0.145020 0.855011 0.145020
0.024200 0.142487 0.024200
0.024200 0.142487 0.024200
0.048340 0.284973 0.048340
0.072510 0.427490 0.072510
0.096680 0.569977 0.096680
0.120850 0.712494 0.120850
0.145020 0.855011 0.145020
0.024200 0.142487 0.024200
0.048340 0.284973 0.048340
0.072510 0.427490 0.072510
0.096680 0.569977 0.096680
0.120850 0.712494 0.120850
0.145020 0.855011 0.145020
0.287506 0.879181 0.287506
0.048340 0.284973 0.048340
0.072510 0.427490 0.072510
0.072510 0.427490 0.072510
0.096680 0.569977 0.096680
0.120850 0.712494 0.120850
0.145020 0.855011 0.145020
0.287506 0.879181 0.287506
0.072510 0.427490 0.072510
0.096680 0.569977 0.096680
0.096680 0.569977 0.096680
0.096680 0.569977 0.096680
0.120850 0.712494 0.120850
0.145020 0.855011 0.145020
0.287506 0.879181 0.287506
0.096680 0.569977 0.096680
0.120850 0.712494 0.120850
0.120850 0.712494 0.120850
0.120850 0.712494 0.120850
0.120850 0.712494 0.120850
0.145020 0.855011 0.145020
0.287506 0.879181 0.287506
0.120850 0.712494 0.120850
0.145020 0.855011 0.145020
0.145020 0.855011 0.145020
0.145020 0.855011 0.145020
0.145020 0.855011 0.145020
0.145020 0.855011 0.145020
0.287506 0.879181 0.287506
0.145020 0.855011 0.145020
0.287506 0.879181 0.287506
0.287506 0.879181 0.287506
0.287506 0.879181 0.287506
0.287506 0.879181 0.287506
0.287506 0.879181 0.287506
0.287506 0.879181 0.287506
0.048340 0.284973 0.048340
0.048340 0.284973 0.048340
0.048340 0.284973 0.048340
0.072510 0.427490 0.072510
0.096680 0.569977 0.096680
0.120850 0.712494 0.120850
0.145020 0.855011 0.145020
0.048340 0.284973 0.048340
0.072510 0.427490 0.072510
0.072510 0.427490 0.072510
0.096680 0.569977 0.096680
0.120850 0.712494 0.120850
0.145020 0.855011 0.145020
0.287506 0.879181 0.287506
0.048340 0.284973 0.048340
0.072510 0.427490 0.072510
0.096680 0.570007 0.096680
0.120850 0.712494 0.120850
0.145020 0.855011 0.145020
0.287537 0.879181 0.287537
0.429993 0.903320 0.429993
0.072510 0.427490 0.072510
0.096680 0.569977 0.096680
0.120850 0.712494 0.120850
0.120850 0.712494 0.120850
0.145020 0.855011 0.145020
0.287537 0.879181 0.287537
0.429993 0.903320 0.429993
0.096680 0.569977 0.096680
0.120850 0.712494 0.120850
0.145020 0.855011 0.145020
0.145020 0.855011 0.145020
0.145020 0.855011 0.145020
0.287537 0.879181 0.287537
0.429993 0.903320 0.429993
0.120850 0.712494 0.120850
0.145020 0.855011 0.145020
0.287537 0.879181 0.287537
0.287537 0.879181 0.287537
0.287537 0.879181 0.287537
0.287537 0.879181 0.287537
0.429993 0.903320 0.429993
0.145020 0.855011 0.145020
0.287506 0.879181 0.287506
0.429993 0.903320 0.429993
0.429993 0.903320 0.429993
0.429993 0.903320 0.429993
0.429993 0.903320 0.429993
0.429993 0.903320 0.429993
0.072510 0.427490 0.072510
0.072510 0.427490 0.072510
0.072510 0.427490 0.072510
0.072510 0.427490 0.072510
0.096680 0.569977 0.096680
0.120850 0.712494 0.120850
0.145020 0.855011 0.145020
0.072510 0.427490 0.072510
0.096680 0.569977 0.096680
0.096680 0.569977 0.096680
0.096680 0.569977 0.096680
0.120850 0.712494 0.120850
0.145020 0.855011 0.145020
0.287506 0.879181 0.287506
0.072510 0.427490 0.072510
0.096680 0.569977 0.096680
0.120850 0.712494 0.120850
0.120850 0.712494 0.120850
0.145020 0.855011 0.145020
0.287537 0.879181 0.287537
0.429993 0.903320 0.429993
0.072510 0.427490 0.072510
0.096680 0.569977 0.096680
0.120850 0.712494 0.120850
0.145020 0.855011 0.145020
0.287506 0.879181 0.287506
0.429993 0.903320 0.429993
0.572510 0.927490 0.572510
0.096680 0.569977 0.096680
0.120850 0.712494 0.120850
0.145020 0.855011 0.145020
0.287506 0.879181 0.287506
0.287506 0.879181 0.287506
0.429993 0.903320 0.429993
0.572510 0.927490 0.572510
0.120850 0.712494 0.120850
0.145020 0.855011 0.145020
0.287537 0.879181 0.287537
0.429993 0.903320 0.429993
0.429993 0.903320 0.429993
0.429993 0.903320 0.429993
0.572510 0.927490 0.572510
0.145020 0.855011 0.145020
0.287506 0.879181 0.287506
0.429993 0.903320 0.429993
0.572510 0.927490 0.572510
0.572510 0.927490 0.572510
0.572510 0.927490 0.572510
0.572510 0.927490 0.572510
0.096680 0.569977 0.096680
0.096680 0.569977 0.096680
0.096680 0.569977 0.096680
0.096680 0.569977 0.096680
0.096680 0.569977 0.096680
0.120850 0.712494 0.120850
0.145020 0.855011 0.145020
0.096680 0.569977 0.096680
0.120850 0.712494 0.120850
0.120850 0.712494 0.120850
0.120850 0.712494 0.120850
0.120850 0.712494 0.120850
0.145020 0.855011 0.145020
0.287506 0.879181 0.287506
0.096680 0.569977 0.096680
0.120850 0.712494 0.120850
0.145020 0.855011 0.145020
0.145020 0.855011 0.145020
0.145020 0.855011 0.145020
0.287537 0.879181 0.287537
0.429993 0.903320 0.429993
0.096680 0.569977 0.096680
0.120850 0.712494 0.120850
0.145020 0.855011 0.145020
0.287506 0.879181 0.287506
0.287506 0.879181 0.287506
0.429993 0.903320 0.429993
0.572510 0.927490 0.572510
0.096680 0.569977 0.096680
0.120850 0.712494 0.120850
0.145020 0.855011 0.145020
0.287506 0.879181 0.287506
0.429993 0.903320 0.429993
0.572510 0.927490 0.572510
0.714996 0.951660 0.714996
0.120850 0.712494 0.120850
0.145020 0.855011 0.145020
0.287537 0.879181 0.287537
0.429993 0.903320 0.429993
0.572510 0.927490 0.572510
0.572510 0.927490 0.572510
0.714996 0.951660 0.714996
0.145020 0.855011 0.145020
0.287506 0.879181 0.287506
0.429993 0.903320 0.429993
0.572510 0.927490 0.572510
0.714996 0.951660 0.714996
0.714996 0.951660 0.714996
0.714996 0.951660 0.714996
0.120850 0.712494 0.120850
0.120850 0.712494 0.120850
0.120850 0.712494 0.120850
0.120850 0.712494 0.120850
0.120850 0.712494 0.120850
0.120850 0.712494 0.120850
0.145020 0.855011 0.145020
0.120850 0.712494 0.120850
0.145020 0.855011 0.145020
0.145020 0.855011 0.145020
0.145020 0.855011 0.145020
0.145020 0.855011 0.145020
0.145020 0.855011 0.145020
0.287506 0.879181 0.287506
0.120850 0.712494 0.120850
0.145020 0.855011 0.145020
0.287537 0.879181 0.287537
0.287537 0.879181 0.287537
0.287537 0.879181 0.287537
0.287537 0.879181 0.287537
0.429993 0.903320 0.429993
0.120850 0.712494 0.120850
0.145020 0.855011 0.145020
0.287537 0.879181 0.287537
0.429993 0.903320 0.429993
0.429993 0.903320 0.429993
0.429993 0.903320 0.429993
0.572510 0.927490 0.572510
0.120850 0.712494 0.120850
0.145020 0.855011 0.145020
0.287537 0.879181 0.287537
0.429993 0.903320 0.429993
0.572510 0.927490 0.572510
0.572510 0.927490 0.572510
0.714996 0.951660 0.714996
0.120850 0.712494 0.120850
0.145020 0.855011 0.145020
0.287537 0.879181 0.287537
0.429993 0.903320 0.429993
0.572510 0.927490 0.572510
0.715027 0.951660 0.715027
0.857513 0.975830 0.857513
0.145020 0.855011 0.145020
0.287506 0.879181 0.287506
0.429993 0.903320 0.429993
0.572510 0.927490 0.572510
0.714996 0.951660 0.714996
0.857513 0.975830 0.857513
0.857513 0.975830 0.857513
0.145020 0.855011 0.145020
0.145020 0.855011 0.145020
0.145020 0.855011 0.145020
0.145020 0.855011 0.145020
0.145020 0.855011 0.145020
0.145020 0.855011 0.145020
0.145020 0.855011 0.145020
0.145020 0.855011 0.145020
0.287506 0.879181 0.287506
0.287506 0.879181 0.287506
0.287506 0.879181 0.287506
0.287506 0.879181 0.287506
0.287506 0.879181 0.287506
0.287506 0.879181 0.287506
0.145020 0.855011 0.145020
0.287506 0.879181 0.287506
0.429993 0.903320 0.429993
0.429993 0.903320 0.429993
0.429993 0.903320 0.429993
0.429993 0.903320 0.429993
0.429993 0.903320 0.429993
0.145020 0.855011 0.145020
0.287506 0.879181 0.287506
0.429993 0.903320 0.429993
0.572510 0.927490 0.572510
0.572510 0.927490 0.572510
0.572510 0.927490 0.572510
0.572510 0.927490 0.572510
0.145020 0.855011 0.145020
0.287506 0.879181 0.287506
0.429993 0.903320 0.429993
0.572510 0.927490 0.572510
0.714996 0.951660 0.714996
0.714996 0.951660 0.714996
0.714996 0.951660 0.714996
0.145020 0.855011 0.145020
0.287506 0.879181 0.287506
0.429993 0.903320 0.429993
0.572510 0.927490 0.572510
0.714996 0.951660 0.714996
0.857513 0.975830 0.857513
0.857513 0.975830 0.857513
0.145020 0.855011 0.145020
0.287506 0.879181 0.287506
0.429993 0.903320 0.429993
0.572510 0.927490 0.572510
0.714996 0.951660 0.714996
0.857513 0.975830 0.857513
1.000000 1.000000 1.000000
