manual/examples/resources/luts/small-output-range.CUBE
#Created by: Adobe Photoshop Export Color Lookup Plugin
TITLE "Screen Shot 2016-10-31 at 6.02.03 PM.png"

#LUT size
LUT_3D_SIZE 7

#data domain
DOMAIN_MIN 0.0 0.0 0.0
DOMAIN_MAX 1.0 1.0 1.0

#LUT data points
0.360779 0.360779 0.360779
0.381714 0.360779 0.360779
0.402588 0.360779 0.360779
0.423523 0.360779 0.360779
0.444458 0.360779 0.360779
0.465332 0.360779 0.360779
0.486267 0.360779 0.360779
0.360779 0.381714 0.360779
0.381714 0.381714 0.360779
0.402588 0.381714 0.360779
0.423523 0.381714 0.360779
0.444458 0.381714 0.360779
0.465332 0.381714 0.360779
0.486267 0.381714 0.360779
0.360779 0.402588 0.360779
0.381714 0.402588 0.360779
0.402588 0.402588 0.360779
0.423523 0.402588 0.360779
0.444458 0.402588 0.360779
0.465332 0.402588 0.360779
0.486267 0.402588 0.360779
0.360779 0.423523 0.360779
0.381714 0.423523 0.360779
0.402588 0.423523 0.360779
0.423523 0.423523 0.360779
0.444458 0.423523 0.360779
0.465332 0.423523 0.360779
0.486267 0.423523 0.360779
0.360779 0.444458 0.360779
0.381714 0.444458 0.360779
0.402588 0.444458 0.360779
0.423523 0.444458 0.360779
0.444458 0.444458 0.360779
0.465332 0.444458 0.360779
0.486267 0.444458 0.360779
0.360779 0.465332 0.360779
0.381714 0.465332 0.360779
0.402588 0.465332 0.360779
0.423523 0.465332 0.360779
0.444458 0.465332 0.360779
0.465332 0.465332 0.360779
0.486267 0.465332 0.360779
0.360779 0.486267 0.360779
0.381714 0.486267 0.360779
0.402588 0.486267 0.360779
0.423523 0.486267 0.360779
0.444458 0.486267 0.360779
0.465332 0.486267 0.360779
0.486267 0.486267 0.360779
0.360779 0.360779 0.381714
0.381714 0.360779 0.381714
0.402588 0.360779 0.381714
0.423523 0.360779 0.381714
0.444458 0.360779 0.381714
0.465332 0.360779 0.381714
0.486267 0.360779 0.381714
0.360779 0.381714 0.381714
0.381714 0.381714 0.381714
0.402588 0.381714 0.381714
0.423523 0.381714 0.381714
0.444458 0.381714 0.381714
0.465332 0.381714 0.381714
0.486267 0.381714 0.381714
0.360779 0.402588 0.381714
0.381714 0.402588 0.381714
0.402588 0.402588 0.381714
0.423523 0.402588 0.381714
0.444458 0.402588 0.381714
0.465332 0.402588 0.381714
0.486267 0.402588 0.381714
0.360779 0.423523 0.381714
0.381714 0.423523 0.381714
0.402588 0.423523 0.381714
0.423523 0.423523 0.381714
0.444458 0.423523 0.381714
0.465332 0.423523 0.381714
0.486267 0.423523 0.381714
0.360779 0.444458 0.381714
0.381714 0.444458 0.381714
0.402588 0.444458 0.381714
0.423523 0.444458 0.381714
0.444458 0.444458 0.381714
0.465332 0.444458 0.381714
0.486267 0.444458 0.381714
0.360779 0.465332 0.381714
0.381714 0.465332 0.381714
0.402588 0.465332 0.381714
0.423523 0.465332 0.381714
0.444458 0.465332 0.381714
0.465332 0.465332 0.381714
0.486267 0.465332 0.381714
0.360779 0.486267 0.381714
0.381714 0.486267 0.381714
0.402588 0.486267 0.381714
0.423523 0.486267 0.381714
0.444458 0.486267 0.381714
0.465332 0.486267 0.381714
0.486267 0.486267 0.381714
0.360779 0.360779 0.402588
0.381714 0.360779 0.402588
0.402588 0.360779 0.402588
0.423523 0.360779 0.402588
0.444458 0.360779 0.402588
0.465332 0.360779 0.402588
0.486267 0.360779 0.402588
0.360779 0.381714 0.402588
0.381714 0.381714 0.402588
0.402588 0.381714 0.402588
0.423523 0.381714 0.402588
0.444458 0.381714 0.402588
0.465332 0.381714 0.402588
0.486267 0.381714 0.402588
0.360779 0.402588 0.402588
0.381714 0.402588 0.402588
0.402588 0.402588 0.402588
0.423523 0.402588 0.402588
0.444458 0.402588 0.402588
0.465332 0.402588 0.402588
0.486267 0.402588 0.402588
0.360779 0.423523 0.402588
0.381714 0.423523 0.402588
0.402588 0.423523 0.402588
0.423523 0.423523 0.402588
0.444458 0.423523 0.402588
0.465332 0.423523 0.402588
0.486267 0.423523 0.402588
0.360779 0.444458 0.402588
0.381714 0.444458 0.402588
0.402588 0.444458 0.402588
0.423523 0.444458 0.402588
0.444458 0.444458 0.402588
0.465332 0.444458 0.402588
0.486267 0.444458 0.402588
0.360779 0.465332 0.402588
0.381714 0.465332 0.402588
0.402588 0.465332 0.402588
0.423523 0.465332 0.402588
0.444458 0.465332 0.402588
0.465332 0.465332 0.402588
0.486267 0.465332 0.402588
0.360779 0.486267 0.402588
0.381714 0.486267 0.402588
0.402588 0.486267 0.402588
0.423523 0.486267 0.402588
0.444458 0.486267 0.402588
0.465332 0.486267 0.402588
0.486267 0.486267 0.402588
0.360779 0.360779 0.423523
0.381714 0.360779 0.423523
0.402588 0.360779 0.423523
0.423523 0.360779 0.423523
0.444458 0.360779 0.423523
0.465332 0.360779 0.423523
0.486267 0.360779 0.423523
0.360779 0.381714 0.423523
0.381714 0.381714 0.423523
0.402588 0.381714 0.423523
0.423523 0.381714 0.423523
0.444458 0.381714 0.423523
0.465332 0.381714 0.423523
0.486267 0.381714 0.423523
0.360779 0.402588 0.423523
0.381714 0.402588 0.423523
0.402588 0.402588 0.423523
0.423523 0.402588 0.423523
0.444458 0.402588 0.423523
0.465332 0.402588 0.423523
0.486267 0.402588 0.423523
0.360779 0.423523 0.423523
0.381714 0.423523 0.423523
0.402588 0.423523 0.423523
0.423523 0.423523 0.423523
0.444458 0.423523 0.423523
0.465332 0.423523 0.423523
0.486267 0.423523 0.423523
0.360779 0.444458 0.423523
0.381714 0.444458 0.423523
0.402588 0.444458 0.423523
0.423523 0.444458 0.423523
0.444458 0.444458 0.423523
0.465332 0.444458 0.423523
0.486267 0.444458 0.423523
0.360779 0.465332 0.423523
0.381714 0.465332 0.423523
0.402588 0.465332 0.423523
0.423523 0.465332 0.423523
0.444458 0.465332 0.423523
0.465332 0.465332 0.423523
0.486267 0.465332 0.423523
0.360779 0.486267 0.423523
0.381714 0.486267 0.423523
0.402588 0.486267 0.423523
0.423523 0.486267 0.423523
0.444458 0.486267 0.423523
0.465332 0.486267 0.423523
0.486267 0.486267 0.423523
0.360779 0.360779 0.444458
0.381714 0.360779 0.444458
0.402588 0.360779 0.444458
0.423523 0.360779 0.444458
0.444458 0.360779 0.444458
0.465332 0.360779 0.444458
0.486267 0.360779 0.444458
0.360779 0.381714 0.444458
0.381714 0.381714 0.444458
0.402588 0.381714 0.444458
0.423523 0.381714 0.444458
0.444458 0.381714 0.444458
0.465332 0.381714 0.444458
0.486267 0.381714 0.444458
0.360779 0.402588 0.444458
0.381714 0.402588 0.444458
0.402588 0.402588 0.444458
0.423523 0.402588 0.444458
0.444458 0.402588 0.444458
0.465332 0.402588 0.444458
0.486267 0.402588 0.444458
0.360779 0.423523 0.444458
0.381714 0.423523 0.444458
0.402588 0.423523 0.444458
0.423523 0.423523 0.444458
0.444458 0.423523 0.444458
0.465332 0.423523 0.444458
0.486267 0.423523 0.444458
0.360779 0.444458 0.444458
0.381714 0.444458 0.444458
0.402588 0.444458 0.444458
0.423523 0.444458 0.444458
0.444458 0.444458 0.444458
0.465332 0.444458 0.444458
0.486267 0.444458 0.444458
0.360779 0.465332 0.444458
0.381714 0.465332 0.444458
0.402588 0.465332 0.444458
0.423523 0.465332 0.444458
0.444458 0.465332 0.444458
0.465332 0.465332 0.444458
0.486267 0.465332 0.444458
0.360779 0.486267 0.444458
0.381714 0.486267 0.444458
0.402588 0.486267 0.444458
0.423523 0.486267 0.444458
0.444458 0.486267 0.444458
0.465332 0.486267 0.444458
0.486267 0.486267 0.444458
0.360779 0.360779 0.465332
0.381714 0.360779 0.465332
0.402588 0.360779 0.465332
0.423523 0.360779 0.465332
0.444458 0.360779 0.465332
0.465332 0.360779 0.465332
0.486267 0.360779 0.465332
0.360779 0.381714 0.465332
0.381714 0.381714 0.465332
0.402588 0.381714 0.465332
0.423523 0.381714 0.465332
0.444458 0.381714 0.465332
0.465332 0.381714 0.465332
0.486267 0.381714 0.465332
0.360779 0.402588 0.465332
0.381714 0.402588 0.465332
0.402588 0.402588 0.465332
0.423523 0.402588 0.465332
0.444458 0.402588 0.465332
0.465332 0.402588 0.465332
0.486267 0.402588 0.465332
0.360779 0.423523 0.465332
0.381714 0.423523 0.465332
0.402588 0.423523 0.465332
0.423523 0.423523 0.465332
0.444458 0.423523 0.465332
0.465332 0.423523 0.465332
0.486267 0.423523 0.465332
0.360779 0.444458 0.465332
0.381714 0.444458 0.465332
0.402588 0.444458 0.465332
0.423523 0.444458 0.465332
0.444458 0.444458 0.465332
0.465332 0.444458 0.465332
0.486267 0.444458 0.465332
0.360779 0.465332 0.465332
0.381714 0.465332 0.465332
0.402588 0.465332 0.465332
0.423523 0.465332 0.465332
0.444458 0.465332 0.465332
0.465332 0.465332 0.465332
0.486267 0.465332 0.465332
0.360779 0.486267 0.465332
0.381714 0.486267 0.465332
0.402588 0.486267 0.465332
0.423523 0.486267 0.465332
0.444458 0.486267 0.465332
0.465332 0.486267 0.465332
0.486267 0.486267 0.465332
0.360779 0.360779 0.486267
0.381714 0.360779 0.486267
0.402588 0.360779 0.486267
0.423523 0.360779 0.486267
0.444458 0.360779 0.486267
0.465332 0.360779 0.486267
0.486267 0.360779 0.486267
0.360779 0.381714 0.486267
0.381714 0.381714 0.486267
0.402588 0.381714 0.486267
0.423523 0.381714 0.486267
0.444458 0.381714 0.486267
0.465332 0.381714 0.486267
0.486267 0.381714 0.486267
0.360779 0.402588 0.486267
0.381714 0.402588 0.486267
0.402588 0.402588 0.486267
0.423523 0.402588 0.486267
0.444458 0.402588 0.486267
0.465332 0.402588 0.486267
0.486267 0.402588 0.486267
0.360779 0.423523 0.486267
0.381714 0.423523 0.486267
0.402588 0.423523 0.486267
0.423523 0.423523 0.486267
0.444458 0.423523 0.486267
0.465332 0.423523 0.486267
0.486267 0.423523 0.486267
0.360779 0.444458 0.486267
0.381714 0.444458 0.486267
0.402588 0.444458 0.486267
0.423523 0.444458 0.486267
0.444458 0.444458 0.486267
0.465332 0.444458 0.486267
0.486267 0.444458 0.486267
0.360779 0.465332 0.486267
0.381714 0.465332 0.486267
0.402588 0.465332 0.486267
0.423523 0.465332 0.486267
0.444458 0.465332 0.486267
0.465332 0.465332 0.486267
0.486267 0.465332 0.486267
0.360779 0.486267 0.486267
0.381714 0.486267 0.486267
0.402588 0.486267 0.486267
0.423523 0.486267 0.486267
0.444458 0.486267 0.486267
0.465332 0.486267 0.486267
0.486267 0.486267 0.486267
