manual/examples/resources/luts/small-output-range.3DL
#Created by: Adobe Photoshop Export Color Lookup Plugin
#Description: Screen Shot 2016-10-31 at 6.02.03 PM.png
0 171 341 512 682 853 1023
1477 1477 1477
1477 1477 1563
1477 1477 1649
1477 1477 1734
1477 1477 1820
1477 1477 1906
1477 1477 1991
1477 1563 1477
1477 1563 1563
1477 1563 1649
1477 1563 1734
1477 1563 1820
1477 1563 1906
1477 1563 1991
1477 1649 1477
1477 1649 1563
1477 1649 1649
1477 1649 1734
1477 1649 1820
1477 1649 1906
1477 1649 1991
1477 1734 1477
1477 1734 1563
1477 1734 1649
1477 1734 1734
1477 1734 1820
1477 1734 1906
1477 1734 1991
1477 1820 1477
1477 1820 1563
1477 1820 1649
1477 1820 1734
1477 1820 1820
1477 1820 1906
1477 1820 1991
1477 1906 1477
1477 1906 1563
1477 1906 1649
1477 1906 1734
1477 1906 1820
1477 1906 1906
1477 1906 1991
1477 1991 1477
1477 1991 1563
1477 1991 1649
1477 1991 1734
1477 1991 1820
1477 1991 1906
1477 1991 1991
1563 1477 1477
1563 1477 1563
1563 1477 1649
1563 1477 1734
1563 1477 1820
1563 1477 1906
1563 1477 1991
1563 1563 1477
1563 1563 1563
1563 1563 1649
1563 1563 1734
1563 1563 1820
1563 1563 1906
1563 1563 1991
1563 1649 1477
1563 1649 1563
1563 1649 1649
1563 1649 1734
1563 1649 1820
1563 1649 1906
1563 1649 1991
1563 1734 1477
1563 1734 1563
1563 1734 1649
1563 1734 1734
1563 1734 1820
1563 1734 1906
1563 1734 1991
1563 1820 1477
1563 1820 1563
1563 1820 1649
1563 1820 1734
1563 1820 1820
1563 1820 1906
1563 1820 1991
1563 1906 1477
1563 1906 1563
1563 1906 1649
1563 1906 1734
1563 1906 1820
1563 1906 1906
1563 1906 1991
1563 1991 1477
1563 1991 1563
1563 1991 1649
1563 1991 1734
1563 1991 1820
1563 1991 1906
1563 1991 1991
1649 1477 1477
1649 1477 1563
1649 1477 1649
1649 1477 1734
1649 1477 1820
1649 1477 1906
1649 1477 1991
1649 1563 1477
1649 1563 1563
1649 1563 1649
1649 1563 1734
1649 1563 1820
1649 1563 1906
1649 1563 1991
1649 1649 1477
1649 1649 1563
1649 1649 1649
1649 1649 1734
1649 1649 1820
1649 1649 1906
1649 1649 1991
1649 1734 1477
1649 1734 1563
1649 1734 1649
1649 1734 1734
1649 1734 1820
1649 1734 1906
1649 1734 1991
1649 1820 1477
1649 1820 1563
1649 1820 1649
1649 1820 1734
1649 1820 1820
1649 1820 1906
1649 1820 1991
1649 1906 1477
1649 1906 1563
1649 1906 1649
1649 1906 1734
1649 1906 1820
1649 1906 1906
1649 1906 1991
1649 1991 1477
1649 1991 1563
1649 1991 1649
1649 1991 1734
1649 1991 1820
1649 1991 1906
1649 1991 1991
1734 1477 1477
1734 1477 1563
1734 1477 1649
1734 1477 1734
1734 1477 1820
1734 1477 1906
1734 1477 1991
1734 1563 1477
1734 1563 1563
1734 1563 1649
1734 1563 1734
1734 1563 1820
1734 1563 1906
1734 1563 1991
1734 1649 1477
1734 1649 1563
1734 1649 1649
1734 1649 1734
1734 1649 1820
1734 1649 1906
1734 1649 1991
1734 1734 1477
1734 1734 1563
1734 1734 1649
1734 1734 1734
1734 1734 1820
1734 1734 1906
1734 1734 1991
1734 1820 1477
1734 1820 1563
1734 1820 1649
1734 1820 1734
1734 1820 1820
1734 1820 1906
1734 1820 1991
1734 1906 1477
1734 1906 1563
1734 1906 1649
1734 1906 1734
1734 1906 1820
1734 1906 1906
1734 1906 1991
1734 1991 1477
1734 1991 1563
1734 1991 1649
1734 1991 1734
1734 1991 1820
1734 1991 1906
1734 1991 1991
1820 1477 1477
1820 1477 1563
1820 1477 1649
1820 1477 1734
1820 1477 1820
1820 1477 1906
1820 1477 1991
1820 1563 1477
1820 1563 1563
1820 1563 1649
1820 1563 1734
1820 1563 1820
1820 1563 1906
1820 1563 1991
1820 1649 1477
1820 1649 1563
1820 1649 1649
1820 1649 1734
1820 1649 1820
1820 1649 1906
1820 1649 1991
1820 1734 1477
1820 1734 1563
1820 1734 1649
1820 1734 1734
1820 1734 1820
1820 1734 1906
1820 1734 1991
1820 1820 1477
1820 1820 1563
1820 1820 1649
1820 1820 1734
1820 1820 1820
1820 1820 1906
1820 1820 1991
1820 1906 1477
1820 1906 1563
1820 1906 1649
1820 1906 1734
1820 1906 1820
1820 1906 1906
1820 1906 1991
1820 1991 1477
1820 1991 1563
1820 1991 1649
1820 1991 1734
1820 1991 1820
1820 1991 1906
1820 1991 1991
1906 1477 1477
1906 1477 1563
1906 1477 1649
1906 1477 1734
1906 1477 1820
1906 1477 1906
1906 1477 1991
1906 1563 1477
1906 1563 1563
1906 1563 1649
1906 1563 1734
1906 1563 1820
1906 1563 1906
1906 1563 1991
1906 1649 1477
1906 1649 1563
1906 1649 1649
1906 1649 1734
1906 1649 1820
1906 1649 1906
1906 1649 1991
1906 1734 1477
1906 1734 1563
1906 1734 1649
1906 1734 1734
1906 1734 1820
1906 1734 1906
1906 1734 1991
1906 1820 1477
1906 1820 1563
1906 1820 1649
1906 1820 1734
1906 1820 1820
1906 1820 1906
1906 1820 1991
1906 1906 1477
1906 1906 1563
1906 1906 1649
1906 1906 1734
1906 1906 1820
1906 1906 1906
1906 1906 1991
1906 1991 1477
1906 1991 1563
1906 1991 1649
1906 1991 1734
1906 1991 1820
1906 1991 1906
1906 1991 1991
1991 1477 1477
1991 1477 1563
1991 1477 1649
1991 1477 1734
1991 1477 1820
1991 1477 1906
1991 1477 1991
1991 1563 1477
1991 1563 1563
1991 1563 1649
1991 1563 1734
1991 1563 1820
1991 1563 1906
1991 1563 1991
1991 1649 1477
1991 1649 1563
1991 1649 1649
1991 1649 1734
1991 1649 1820
1991 1649 1906
1991 1649 1991
1991 1734 1477
1991 1734 1563
1991 1734 1649
1991 1734 1734
1991 1734 1820
1991 1734 1906
1991 1734 1991
1991 1820 1477
1991 1820 1563
1991 1820 1649
1991 1820 1734
1991 1820 1820
1991 1820 1906
1991 1820 1991
1991 1906 1477
1991 1906 1563
1991 1906 1649
1991 1906 1734
1991 1906 1820
1991 1906 1906
1991 1906 1991
1991 1991 1477
1991 1991 1563
1991 1991 1649
1991 1991 1734
1991 1991 1820
1991 1991 1906
1991 1991 1991
