manual/examples/resources/luts/test.CUBE
#Created by: Adobe Photoshop Export Color Lookup Plugin
TITLE "Screen Shot 2016-10-31 at 6.02.03 PM.png"
#LUT size
LUT_3D_SIZE 8
#data domain
#LUT data points
DOMAIN_MIN 0.000000 0.000000 0.000000
DOMAIN_MAX 0.903226 0.903226 0.903226
0.000000 0.000000 0.000000
0.005005 0.128998 0.129059
0.018097 0.258026 0.258087
0.041321 0.387024 0.387146
0.069427 0.516052 0.516205
0.097473 0.645050 0.645264
0.125580 0.774048 0.774292
0.153687 0.903046 0.903351
0.004425 0.129089 0.005524
0.248871 0.248871 0.091217
0.361237 0.234253 0.092651
0.472931 0.228455 0.089355
0.517273 0.044006 0.407013
0.024750 0.204315 0.645203
0.101135 0.644958 0.774261
0.129211 0.774048 0.903320
0.016052 0.258148 0.019958
0.233032 0.359283 0.087372
0.461182 0.461182 0.191223
0.555908 0.444916 0.200500
0.650024 0.436127 0.198029
0.743713 0.429901 0.193604
0.837097 0.426270 0.192230
0.930115 0.424377 0.192993
0.036713 0.387207 0.045349
0.230072 0.469299 0.095093
0.443024 0.554413 0.187744
0.637329 0.637329 0.303284
0.715240 0.619995 0.304596
0.791351 0.611755 0.318298
0.867462 0.603363 0.310883
0.942963 0.596588 0.304962
0.063324 0.516296 0.074646
0.232452 0.580017 0.106842
0.434052 0.647461 0.189362
0.618927 0.713715 0.296814
0.777283 0.777283 0.429108
0.838318 0.760620 0.419952
0.897156 0.752045 0.438446
0.955688 0.745850 0.443695
0.090057 0.645355 0.103943
0.237823 0.691284 0.121155
0.429962 0.740723 0.194153
0.606689 0.789673 0.293823
0.760284 0.836792 0.420593
0.881592 0.881592 0.572021
0.925751 0.868408 0.563293
0.967987 0.859528 0.570587
0.116791 0.774414 0.133270
0.241547 0.803375 0.141602
0.429077 0.834473 0.201233
0.598785 0.865692 0.293457
0.747223 0.895813 0.414490
0.867889 0.924469 0.563171
0.951996 0.951996 0.730133
0.979797 0.944244 0.724091
0.143524 0.903473 0.162567
0.241425 0.915802 0.166626
0.430389 0.928711 0.210114
0.593506 0.941864 0.294769
0.737030 0.954651 0.410156
0.856262 0.966949 0.555817
0.943726 0.978973 0.723663
0.990875 0.990875 0.891663
0.000671 0.003540 0.129059
0.129059 0.004303 0.129089
0.016571 0.258057 0.129181
0.038666 0.387115 0.258270
0.066559 0.516174 0.387329
0.094604 0.645203 0.516449
0.122620 0.774231 0.645416
0.150726 0.903259 0.774597
0.005005 0.129028 0.129059
0.129028 0.129028 0.129028
0.085541 0.265869 0.265900
0.085938 0.392151 0.392212
0.095825 0.518707 0.518799
0.109985 0.646057 0.646179
0.126831 0.774109 0.774261
0.153687 0.903046 0.903259
0.016571 0.258057 0.129089
0.085876 0.265656 0.085876
0.365723 0.365723 0.185089
0.477509 0.344147 0.197388
0.588348 0.331238 0.184113
0.647461 0.095856 0.535187
0.084320 0.322144 0.775146
0.129181 0.773956 0.903229
0.037140 0.387115 0.129181
0.087341 0.391937 0.087341
0.337677 0.476501 0.173920
0.559021 0.559021 0.277130
0.653137 0.538940 0.288666
0.746124 0.528076 0.287109
0.838593 0.518616 0.278168
0.930603 0.512085 0.272583
0.063538 0.516174 0.129333
0.098389 0.518555 0.098389
0.327362 0.585846 0.173950
0.535370 0.652100 0.268066
0.716248 0.716248 0.380005
0.793335 0.696960 0.379150
0.868469 0.688446 0.395844
0.943420 0.678772 0.388062
0.090118 0.645203 0.129517
0.113739 0.645966 0.113739
0.324707 0.695374 0.179260
0.522156 0.744476 0.265137
0.695587 0.792053 0.370544
0.837769 0.837769 0.495026
0.897919 0.820740 0.484924
0.955963 0.811951 0.502167
0.116730 0.774231 0.133240
0.129059 0.774200 0.133362
0.326080 0.805450 0.187958
0.514557 0.836792 0.265778
0.681274 0.867371 0.364929
0.820313 0.896637 0.485229
0.924744 0.924744 0.623444
0.968140 0.912048 0.614655
0.143494 0.903320 0.162537
0.143494 0.903290 0.162537
0.330475 0.916260 0.199066
0.510773 0.929504 0.269073
0.671112 0.942505 0.361786
0.806488 0.955048 0.477661
0.911407 0.967163 0.614349
0.979065 0.979065 0.763214
0.002380 0.012848 0.258118
0.129150 0.013611 0.258118
0.258118 0.015564 0.258148
0.037140 0.387115 0.129272
0.064636 0.516174 0.258362
0.092438 0.645203 0.387482
0.120270 0.774231 0.516541
0.148224 0.903259 0.645630
0.006500 0.129028 0.258087
0.083405 0.083405 0.265381
0.265564 0.084442 0.265564
0.084900 0.392242 0.249695
0.094482 0.518890 0.384888
0.108337 0.646240 0.515533
0.124939 0.774323 0.645233
0.150696 0.903229 0.774353
0.018097 0.258087 0.258087
0.085541 0.265900 0.265900
0.258057 0.258057 0.258057
0.195526 0.399780 0.399811
0.184265 0.526611 0.526672
0.184906 0.651917 0.652008
0.191193 0.777649 0.777771
0.201141 0.904175 0.904358
0.038666 0.387115 0.258179
0.084900 0.392242 0.249634
0.195740 0.399384 0.195740
0.480042 0.480042 0.292145
0.591705 0.456268 0.310516
0.701721 0.438660 0.291412
0.778290 0.184387 0.661774
0.171600 0.432709 0.904236
0.064636 0.516174 0.258240
0.093506 0.518890 0.246918
0.185211 0.526215 0.185211
0.444000 0.591583 0.271973
0.655182 0.655182 0.370544
0.748535 0.632965 0.381897
0.840179 0.621124 0.382324
0.931274 0.609375 0.370392
0.090973 0.645203 0.258240
0.106262 0.646301 0.249451
0.186707 0.651611 0.186707
0.427185 0.700348 0.264832
0.628052 0.747803 0.356812
0.793701 0.793701 0.461639
0.869812 0.773407 0.458130
0.943878 0.764709 0.475891
0.117371 0.774231 0.258362
0.121613 0.774414 0.254913
0.194061 0.777435 0.194061
0.419434 0.808716 0.264191
0.611145 0.839264 0.349518
0.771820 0.868774 0.449738
0.897247 0.897247 0.563293
0.956360 0.880402 0.552582
0.143921 0.903259 0.258514
0.143921 0.903229 0.258209
0.205139 0.904114 0.205139
0.416718 0.917419 0.267426
0.600525 0.930450 0.346313
0.755890 0.943115 0.441589
0.879852 0.955414 0.552521
0.967377 0.967377 0.675476
0.005463 0.029175 0.387177
0.129272 0.029907 0.387177
0.258240 0.031952 0.387177
0.387177 0.035614 0.387207
0.054230 0.052734 0.516266
0.090973 0.645203 0.258575
0.118561 0.774231 0.387512
0.146301 0.903259 0.516663
0.009216 0.129028 0.387085
0.081665 0.081665 0.392059
0.249023 0.082458 0.392059
0.392090 0.083862 0.392090
0.093506 0.518890 0.247131
0.107086 0.646271 0.383759
0.123444 0.774353 0.515778
0.148224 0.903229 0.645447
0.020813 0.258118 0.387115
0.077728 0.248322 0.392456
0.193756 0.193756 0.398682
0.399139 0.194611 0.399139
0.183502 0.526581 0.369568
0.183960 0.652039 0.509155
0.190063 0.777832 0.641266
0.199768 0.904388 0.771271
0.041351 0.387115 0.387146
0.085938 0.392212 0.392212
0.195526 0.399811 0.399811
0.387085 0.387085 0.387085
0.319733 0.530823 0.530884
0.297882 0.657990 0.658081
0.290131 0.782196 0.782288
0.289246 0.906097 0.906219
0.066559 0.516174 0.387207
0.094482 0.518890 0.384705
0.183502 0.526581 0.369476
0.319702 0.530365 0.319702
0.592682 0.592682 0.407318
0.703613 0.569031 0.426910
0.812500 0.549469 0.405762
0.906036 0.289642 0.786133
0.092438 0.645203 0.387177
0.107086 0.646271 0.383636
0.183197 0.651917 0.358337
0.298340 0.657471 0.298340
0.552704 0.704071 0.380737
0.749512 0.749512 0.470490
0.841766 0.726532 0.479248
0.931946 0.714661 0.481354
0.118561 0.774231 0.387329
0.122345 0.774384 0.385590
0.188446 0.777710 0.355225
0.291260 0.781708 0.291260
0.531097 0.811859 0.367493
0.720795 0.841217 0.453278
0.869690 0.869690 0.547241
0.944550 0.849243 0.541107
0.144867 0.903259 0.387299
0.144867 0.903229 0.387085
0.197144 0.904266 0.356354
0.291168 0.905762 0.291168
0.518616 0.918701 0.361176
0.701416 0.931366 0.442261
0.847565 0.943726 0.533630
0.955750 0.955750 0.633362
0.010162 0.052582 0.516266
0.129547 0.053192 0.516266
0.258331 0.054840 0.516266
0.387268 0.057678 0.516296
0.516266 0.061798 0.516296
0.646088 0.068909 0.527039
0.117371 0.774231 0.258545
0.144897 0.903259 0.387543
0.013489 0.129059 0.516144
0.088470 0.088470 0.518951
0.245636 0.089172 0.518921
0.384277 0.090454 0.518890
0.518860 0.092346 0.518860
0.163513 0.099213 0.646484
0.122345 0.774384 0.385742
0.146271 0.903229 0.516357
0.024902 0.258118 0.516174
0.076752 0.242493 0.519531
0.180847 0.180847 0.525787
0.368561 0.181549 0.525940
0.526123 0.182556 0.526123
0.183197 0.651917 0.358459
0.189117 0.777771 0.501556
0.198639 0.904327 0.636383
0.045166 0.387146 0.516174
0.084900 0.384003 0.519287
0.178650 0.368042 0.526337
0.318054 0.318054 0.529449
0.530029 0.318817 0.530029
0.297363 0.657928 0.491455
0.289520 0.782318 0.632294
0.288483 0.906311 0.764679
0.069458 0.516174 0.516205
0.095856 0.518799 0.518799
0.184265 0.526672 0.526672
0.319733 0.530884 0.530884
0.516144 0.516144 0.516144
0.454681 0.659332 0.659363
0.425903 0.785675 0.785767
0.411011 0.908051 0.908173
0.094604 0.645203 0.516296
0.108307 0.646240 0.515411
0.183960 0.652039 0.509033
0.297363 0.657928 0.491394
0.454468 0.658844 0.454468
0.703552 0.703552 0.528412
0.813263 0.681580 0.544617
0.920258 0.661652 0.523651
0.120270 0.774231 0.516357
0.123444 0.774353 0.515625
0.189117 0.777771 0.501434
0.288910 0.782043 0.472900
0.425964 0.785095 0.425964
0.664063 0.813812 0.498962
0.841980 0.841980 0.575562
0.932709 0.819580 0.580048
0.146301 0.903259 0.516449
0.146271 0.903229 0.516174
0.197784 0.904297 0.499146
0.287231 0.905945 0.463898
0.411499 0.907471 0.411499
0.639374 0.919952 0.481049
0.813660 0.932159 0.556335
0.944153 0.944153 0.635864
0.016693 0.076904 0.645325
0.129822 0.077362 0.645325
0.258392 0.078583 0.645325
0.387268 0.080811 0.645325
0.516357 0.083984 0.645355
0.645325 0.088196 0.645355
0.774902 0.093384 0.645325
0.097900 0.601807 0.903290
0.019104 0.129028 0.645172
0.098999 0.098999 0.646484
0.247162 0.099640 0.646454
0.382660 0.100800 0.646423
0.515137 0.102509 0.646393
0.646332 0.104767 0.646332
0.775238 0.108429 0.655457
0.144867 0.903229 0.387268
0.030518 0.258026 0.645203
0.077850 0.240417 0.647186
0.179291 0.179291 0.651459
0.356964 0.179932 0.651489
0.508270 0.180878 0.651550
0.651642 0.182159 0.651642
0.258575 0.183075 0.777405
0.197784 0.904297 0.499146
0.050201 0.387054 0.645203
0.085846 0.380707 0.646973
0.171997 0.354431 0.651978
0.295105 0.295105 0.656647
0.490204 0.295654 0.656860
0.657196 0.296448 0.657196
0.288910 0.782043 0.472900
0.287781 0.906097 0.618561
0.073212 0.516205 0.645233
0.096680 0.514984 0.646667
0.177612 0.508179 0.652008
0.293945 0.489929 0.657318
0.453217 0.453217 0.657867
0.658478 0.453857 0.658478
0.425568 0.785614 0.616547
0.410675 0.908173 0.755066
0.097504 0.645203 0.645264
0.110016 0.646179 0.646179
0.184906 0.652008 0.652008
0.297882 0.658051 0.658081
0.454681 0.659363 0.659363
0.645172 0.645172 0.645172
0.596649 0.785339 0.785370
0.565796 0.909332 0.909424
0.122620 0.774231 0.645233
0.124939 0.774323 0.645081
0.190063 0.777832 0.641144
0.289520 0.782318 0.632294
0.425568 0.785614 0.616455
0.596344 0.784912 0.596344
0.812775 0.812775 0.652679
0.920593 0.793335 0.662506
0.148224 0.903259 0.645416
0.148224 0.903229 0.645264
0.198639 0.904327 0.636383
0.287781 0.906097 0.618408
0.410217 0.907806 0.592438
0.565521 0.908722 0.565521
0.777374 0.920715 0.624084
0.932556 0.932556 0.683655
0.024933 0.101257 0.774384
0.130310 0.101624 0.774384
0.258575 0.102600 0.774384
0.387482 0.104279 0.774384
0.516479 0.106873 0.774384
0.645325 0.110321 0.774414
0.774384 0.114563 0.774414
0.903625 0.119720 0.774475
0.026367 0.129120 0.774200
0.112091 0.112091 0.774597
0.251251 0.112671 0.774597
0.383789 0.113678 0.774567
0.514801 0.115204 0.774536
0.644867 0.117249 0.774506
0.774445 0.119873 0.774445
0.903534 0.122986 0.773956
0.037933 0.258026 0.774231
0.080170 0.239868 0.775177
0.182861 0.182861 0.777405
0.353088 0.183472 0.777435
0.500275 0.184387 0.777466
0.640472 0.185638 0.777496
0.777527 0.187225 0.777527
0.904510 0.189423 0.781586
0.056183 0.387146 0.774231
0.087952 0.379181 0.775085
0.169312 0.347687 0.777893
0.285858 0.285858 0.781036
0.471466 0.286377 0.781158
0.631165 0.287079 0.781311
0.781525 0.287994 0.781525
0.361938 0.283295 0.905151
0.077759 0.516235 0.774261
0.098663 0.513336 0.774933
0.174866 0.498657 0.777893
0.281342 0.469543 0.781555
0.423706 0.423706 0.783997
0.615173 0.424164 0.784302
0.784698 0.424744 0.784698
0.410217 0.907806 0.592560
0.101166 0.645142 0.774261
0.111816 0.644745 0.774658
0.182190 0.640503 0.777863
0.285187 0.631287 0.781891
0.423370 0.615204 0.784790
0.595490 0.595490 0.784058
0.784576 0.595978 0.784576
0.565613 0.909241 0.744781
0.125641 0.774231 0.774292
0.126831 0.774261 0.774261
0.191223 0.777771 0.777771
0.290131 0.782288 0.782288
0.425903 0.785767 0.785767
0.596649 0.785370 0.785370
0.774200 0.774200 0.774200
0.741302 0.908783 0.908844
0.150696 0.903259 0.774384
0.150696 0.903229 0.774170
0.199768 0.904388 0.771118
0.288483 0.906311 0.764526
0.410675 0.908173 0.754944
0.565613 0.909241 0.744690
0.740997 0.908478 0.740997
0.920197 0.920197 0.777588
0.035400 0.125610 0.903442
0.130707 0.125854 0.903442
0.258820 0.126648 0.903442
0.387512 0.128082 0.903442
0.516602 0.130219 0.903442
0.645508 0.133026 0.903442
0.774475 0.136627 0.903473
0.903442 0.140991 0.903473
0.035583 0.129059 0.903259
0.126953 0.126953 0.903229
0.257416 0.127472 0.903229
0.386871 0.128387 0.903229
0.516144 0.130157 0.903229
0.645233 0.132996 0.903229
0.774170 0.136566 0.903259
0.903259 0.140930 0.903259
0.046570 0.258026 0.903259
0.083344 0.240295 0.903473
0.189667 0.189667 0.903992
0.353149 0.190216 0.903992
0.497345 0.191101 0.904022
0.635315 0.192261 0.904053
0.770508 0.193787 0.904083
0.904144 0.195648 0.904144
0.063141 0.387024 0.903259
0.090881 0.378754 0.903442
0.168610 0.344055 0.904205
0.283142 0.283112 0.905121
0.461914 0.283600 0.905182
0.617065 0.284271 0.905273
0.763458 0.285156 0.905396
0.905548 0.286224 0.905548
0.083282 0.516266 0.903259
0.101318 0.512543 0.903412
0.174133 0.493469 0.904236
0.274414 0.457764 0.905396
0.407959 0.407959 0.906403
0.591034 0.408356 0.906586
0.753571 0.408844 0.906799
0.907104 0.409454 0.907104
0.105591 0.645264 0.903290
0.114227 0.644165 0.903351
0.181427 0.634064 0.904297
0.278290 0.615845 0.905640
0.405579 0.589874 0.906891
0.564178 0.564178 0.907593
0.743500 0.564484 0.907898
0.908325 0.564880 0.908325
0.129242 0.774261 0.903320
0.129211 0.774139 0.903229
0.190491 0.770508 0.904327
0.283203 0.763672 0.905914
0.407990 0.753906 0.907471
0.564423 0.743744 0.908386
0.740509 0.740509 0.907806
0.908234 0.740814 0.908234
0.153717 0.903259 0.903351
0.153717 0.903229 0.903259
0.201141 0.904358 0.904358
0.289246 0.906219 0.906219
0.411011 0.908173 0.908173
0.565796 0.909424 0.909424
0.741302 0.908844 0.908844
0.903229 0.903229 0.903229
