manual/examples/resources/luts/test.3DL
#Created by: Adobe Photoshop Export Color Lookup Plugin
#Description: Screen Shot 2016-10-31 at 6.02.03 PM.png
0 33 66 99 132 165 198 231 264 297 330 363 396 429 462 495 528 561 594 627 660 693 726 759 792 825 858 891 924 957 990 1023
0 0 0
0 2 132
1 5 264
2 9 396
3 14 528
4 21 661
6 30 793
7 40 925
10 53 1057
12 66 1189
15 82 1321
19 100 1453
22 119 1585
26 142 1718
31 166 1850
36 191 1982
42 215 2114
48 240 2246
54 265 2378
61 290 2511
68 315 2643
76 340 2775
84 365 2907
93 390 3039
102 415 3171
112 440 3303
122 465 3435
133 489 3568
145 514 3700
157 539 3832
169 564 3964
175 575 4024
3 132 4
3 132 132
4 132 264
4 132 396
5 132 528
6 132 660
8 132 793
10 132 925
12 132 1057
14 132 1189
16 132 1321
19 132 1453
23 132 1585
26 142 1717
31 166 1849
36 191 1982
42 215 2114
48 240 2246
54 265 2378
61 290 2510
68 315 2642
76 340 2775
84 365 2907
93 390 3039
102 415 3171
112 440 3303
122 465 3435
133 489 3567
145 514 3699
157 539 3832
169 564 3964
175 575 4024
6 264 8
7 264 132
7 264 264
8 264 396
9 264 528
10 264 660
11 264 793
13 264 925
15 264 1057
17 264 1189
20 264 1321
23 264 1453
26 264 1585
30 264 1717
34 264 1849
38 264 1981
43 264 2114
48 264 2246
54 265 2378
61 290 2510
68 315 2642
76 340 2774
84 365 2906
93 390 3039
102 415 3171
112 440 3303
122 465 3435
133 489 3567
145 514 3699
157 539 3831
169 564 3964
175 575 4024
11 396 14
12 396 132
12 396 264
13 396 396
14 396 528
15 396 660
16 396 793
18 396 925
20 396 1057
22 396 1189
25 396 1321
28 396 1453
31 396 1585
35 396 1717
39 397 1849
43 396 1981
48 396 2114
54 397 2246
59 397 2378
65 397 2510
71 396 2642
78 396 2774
85 397 2906
93 396 3038
102 415 3170
112 440 3303
122 465 3435
133 489 3567
145 514 3699
157 539 3831
169 564 3963
175 575 4024
18 529 23
18 528 132
19 528 264
20 528 396
20 528 528
22 528 660
23 528 793
25 528 925
27 528 1057
29 528 1189
31 528 1321
34 528 1453
38 528 1585
42 528 1717
46 528 1849
50 528 1981
55 528 2114
60 529 2246
66 528 2378
72 528 2510
78 528 2642
85 528 2774
92 529 2906
100 528 3038
108 529 3170
116 528 3302
126 528 3435
135 529 3567
146 528 3699
157 539 3831
169 564 3963
175 575 4024
27 661 33
27 660 132
27 660 264
28 660 397
29 660 528
30 660 661
32 660 793
33 661 925
35 660 1057
37 661 1189
40 660 1321
43 661 1453
47 661 1585
51 660 1717
55 661 1849
59 660 1981
64 660 2114
69 661 2246
74 661 2378
80 661 2510
87 661 2642
93 660 2774
101 661 2906
108 660 3038
116 660 3170
125 660 3303
134 661 3435
144 660 3567
154 660 3699
165 660 3831
175 661 3963
179 649 4024
37 793 47
38 793 132
38 793 264
39 793 397
40 793 529
41 793 660
42 793 793
44 793 925
46 793 1057
49 793 1189
51 793 1321
54 792 1453
58 793 1585
61 792 1717
65 792 1849
70 792 1982
74 793 2114
79 793 2246
85 793 2378
91 792 2510
97 793 2642
104 793 2774
111 793 2906
119 792 3038
127 793 3170
136 793 3303
145 793 3435
155 793 3567
165 793 3699
175 792 3831
185 793 3963
189 783 4025
51 925 63
51 925 132
51 925 264
52 925 397
53 925 529
54 925 661
56 925 793
57 925 925
59 925 1057
61 925 1189
64 925 1321
67 925 1453
70 925 1585
74 925 1717
78 925 1849
82 925 1982
87 925 2114
92 925 2246
98 925 2378
104 925 2510
110 925 2642
117 925 2774
124 925 2906
132 925 3038
140 925 3170
149 925 3303
158 925 3435
167 925 3567
177 925 3699
187 925 3831
197 925 3963
201 917 4025
66 1057 82
66 1057 132
66 1057 265
67 1057 397
68 1057 529
69 1057 661
70 1057 793
72 1057 925
74 1057 1057
76 1057 1189
79 1057 1321
82 1057 1453
85 1057 1585
89 1057 1717
93 1057 1849
97 1057 1982
102 1057 2114
107 1057 2246
112 1057 2378
119 1057 2510
125 1057 2642
132 1057 2774
139 1057 2906
147 1057 3038
155 1057 3170
164 1057 3303
173 1057 3435
182 1057 3567
191 1057 3699
200 1057 3831
209 1057 3963
213 1050 4026
83 1189 103
83 1189 133
83 1189 265
84 1189 397
85 1189 529
86 1189 661
88 1189 793
89 1189 925
91 1189 1057
94 1189 1189
96 1189 1321
99 1189 1453
102 1189 1585
106 1189 1717
110 1189 1849
114 1189 1982
119 1189 2114
124 1189 2246
130 1189 2378
136 1189 2510
143 1189 2642
150 1189 2774
157 1189 2906
164 1189 3038
172 1189 3170
180 1189 3303
189 1189 3435
197 1189 3567
206 1189 3699
215 1189 3831
224 1189 3963
227 1183 4027
103 1321 128
103 1321 133
103 1321 265
104 1321 397
105 1321 529
106 1321 661
107 1321 793
109 1321 925
111 1321 1057
113 1321 1189
116 1321 1321
119 1321 1453
122 1321 1585
126 1321 1717
130 1321 1849
134 1321 1982
139 1321 2114
145 1321 2246
150 1321 2378
156 1321 2510
162 1321 2642
169 1321 2774
176 1321 2906
183 1321 3038
191 1321 3170
198 1321 3303
206 1321 3435
214 1321 3567
222 1321 3699
231 1321 3831
239 1321 3963
243 1316 4027
125 1453 156
125 1453 156
125 1453 265
126 1453 397
127 1453 529
128 1453 661
129 1453 793
131 1453 925
133 1453 1057
136 1453 1189
138 1453 1321
141 1453 1453
145 1453 1585
148 1453 1717
152 1453 1849
157 1453 1982
161 1453 2114
167 1453 2246
172 1453 2378
177 1453 2510
183 1453 2642
190 1453 2774
196 1453 2906
203 1453 3038
210 1453 3170
217 1453 3303
224 1453 3435
232 1453 3567
240 1453 3699
248 1454 3831
256 1453 3963
260 1448 4028
150 1586 186
150 1585 186
151 1585 266
151 1585 397
152 1585 529
153 1585 661
155 1585 793
156 1585 925
158 1585 1057
161 1585 1189
163 1585 1321
166 1585 1453
169 1585 1585
173 1585 1717
176 1585 1850
181 1585 1982
185 1585 2114
190 1585 2246
195 1585 2378
200 1585 2510
206 1585 2642
211 1585 2774
217 1585 2906
224 1585 3038
230 1585 3170
237 1585 3303
244 1585 3435
251 1585 3567
259 1585 3699
266 1585 3831
274 1585 3963
278 1582 4030
177 1718 216
177 1717 215
177 1717 266
178 1717 397
179 1717 529
180 1717 661
181 1717 793
183 1717 925
184 1717 1057
187 1717 1189
189 1717 1321
192 1717 1453
195 1717 1585
198 1717 1717
201 1717 1850
205 1717 1982
209 1717 2114
213 1717 2246
218 1717 2378
223 1717 2510
228 1717 2642
234 1718 2774
239 1717 2906
245 1717 3038
252 1718 3170
258 1717 3303
264 1717 3435
271 1717 3567
278 1718 3699
285 1717 3831
293 1717 3963
296 1714 4031
205 1850 246
205 1850 246
205 1849 266
205 1849 398
206 1849 529
207 1849 661
208 1849 793
209 1849 925
211 1849 1057
213 1849 1189
215 1849 1321
218 1849 1453
220 1849 1585
223 1849 1717
227 1849 1850
230 1849 1982
234 1850 2114
238 1849 2246
242 1850 2378
247 1849 2510
252 1849 2642
257 1850 2774
262 1849 2906
267 1849 3038
273 1849 3170
279 1850 3303
285 1849 3435
292 1850 3567
299 1850 3699
305 1849 3831
312 1849 3963
315 1847 4032
232 1982 276
232 1982 276
232 1982 276
232 1982 398
233 1982 529
234 1982 661
235 1982 793
236 1982 925
238 1982 1057
240 1982 1190
242 1982 1321
244 1982 1454
247 1982 1586
249 1982 1718
252 1982 1850
255 1982 1982
259 1982 2114
263 1982 2246
267 1981 2378
271 1982 2510
275 1982 2642
280 1982 2774
285 1982 2906
290 1981 3038
296 1982 3170
301 1982 3303
307 1982 3435
313 1981 3567
319 1981 3699
326 1982 3831
333 1982 3963
336 1979 4034
259 2114 306
259 2114 306
259 2114 306
260 2114 398
260 2114 530
261 2114 661
262 2114 793
263 2114 925
265 2114 1057
266 2114 1189
268 2114 1322
270 2114 1454
273 2114 1586
275 2114 1718
278 2114 1850
281 2114 1982
284 2114 2114
288 2114 2246
292 2114 2378
296 2114 2510
300 2114 2642
304 2114 2774
309 2114 2906
313 2113 3039
318 2114 3171
324 2113 3303
329 2114 3435
335 2113 3567
341 2114 3699
347 2114 3831
353 2114 3963
357 2111 4035
287 2246 336
287 2246 336
287 2246 336
287 2246 398
287 2246 530
288 2246 662
289 2246 794
290 2246 925
292 2246 1057
293 2246 1189
295 2246 1321
297 2246 1453
299 2246 1585
301 2246 1718
304 2246 1850
307 2246 1982
310 2246 2114
313 2246 2246
316 2246 2378
320 2246 2510
324 2246 2642
328 2246 2774
333 2246 2906
337 2246 3039
342 2246 3171
347 2246 3303
352 2246 3435
358 2246 3567
363 2246 3699
369 2246 3831
375 2246 3963
378 2243 4037
314 2378 366
314 2378 366
314 2378 366
314 2378 399
314 2378 530
315 2378 662
316 2378 794
317 2378 926
318 2378 1057
320 2378 1190
321 2378 1321
323 2378 1454
325 2378 1586
327 2378 1718
330 2378 1850
333 2378 1982
335 2378 2114
339 2378 2246
342 2378 2378
345 2378 2510
349 2378 2642
353 2378 2774
357 2378 2906
361 2378 3039
366 2378 3171
371 2378 3303
376 2378 3435
381 2378 3567
386 2378 3699
391 2378 3831
397 2378 3963
400 2376 4039
341 2511 396
341 2510 396
341 2510 396
341 2510 399
342 2510 530
342 2510 662
343 2510 794
344 2510 926
345 2510 1058
347 2510 1189
348 2510 1322
350 2510 1454
352 2510 1586
354 2510 1717
356 2510 1850
359 2510 1982
361 2510 2114
364 2510 2246
367 2510 2378
371 2510 2510
374 2510 2642
378 2510 2774
381 2510 2906
386 2510 3039
390 2510 3171
394 2510 3303
399 2510 3435
404 2510 3567
409 2510 3699
414 2510 3831
420 2510 3963
423 2509 4041
369 2643 426
369 2643 426
369 2642 426
369 2642 426
369 2642 530
370 2642 662
371 2642 794
371 2642 926
373 2642 1057
374 2642 1190
375 2642 1322
377 2642 1454
379 2642 1585
380 2642 1718
382 2642 1850
385 2642 1982
387 2642 2114
390 2642 2246
393 2642 2378
396 2642 2510
399 2642 2642
403 2642 2774
407 2642 2907
410 2642 3039
414 2642 3171
419 2642 3303
423 2642 3435
428 2642 3567
432 2642 3699
437 2642 3831
443 2642 3963
446 2641 4043
396 2775 456
396 2775 456
396 2775 456
396 2774 456
396 2774 531
397 2774 662
397 2774 794
398 2774 926
399 2774 1058
401 2774 1190
402 2774 1322
404 2774 1454
405 2774 1585
407 2774 1718
409 2774 1850
411 2774 1982
414 2774 2114
416 2774 2246
419 2774 2378
422 2774 2510
425 2774 2642
428 2774 2774
432 2774 2907
435 2774 3039
439 2774 3171
443 2774 3303
447 2774 3435
452 2774 3567
456 2774 3699
461 2774 3831
466 2774 3963
469 2773 4045
424 2907 486
423 2907 486
423 2907 486
423 2906 486
424 2906 531
424 2906 663
425 2906 794
426 2906 926
426 2906 1058
428 2906 1190
429 2906 1322
430 2906 1454
432 2906 1586
434 2906 1718
436 2906 1850
438 2906 1982
440 2906 2114
442 2906 2246
445 2906 2378
448 2906 2510
451 2906 2643
454 2906 2775
457 2906 2907
461 2906 3039
464 2907 3171
468 2906 3303
472 2906 3435
476 2907 3567
480 2906 3699
485 2906 3831
490 2907 3963
492 2905 4047
451 3039 516
451 3039 516
451 3039 516
451 3039 516
451 3038 531
451 3038 662
452 3038 794
453 3038 927
454 3038 1058
455 3038 1190
456 3038 1322
457 3038 1454
459 3038 1586
460 3038 1718
462 3038 1850
464 3038 1982
466 3038 2114
468 3038 2247
471 3038 2379
474 3038 2511
476 3038 2643
479 3038 2775
482 3038 2907
486 3038 3039
489 3038 3171
493 3038 3303
496 3038 3435
500 3038 3567
505 3039 3699
509 3039 3831
513 3038 3963
516 3037 4050
478 3171 546
478 3171 546
478 3171 546
478 3171 546
478 3170 546
479 3170 663
479 3170 795
480 3170 927
481 3170 1058
482 3170 1190
483 3170 1322
484 3170 1454
486 3170 1586
487 3170 1718
489 3170 1850
491 3170 1982
493 3170 2114
495 3170 2246
497 3170 2378
500 3170 2511
502 3170 2642
505 3170 2775
508 3170 2907
511 3170 3039
514 3170 3171
518 3170 3303
521 3170 3435
525 3171 3567
529 3171 3699
533 3171 3831
538 3171 3963
540 3169 4052
506 3303 576
505 3303 576
505 3303 576
505 3303 576
505 3303 576
506 3303 663
506 3303 795
507 3303 927
508 3303 1059
509 3303 1191
510 3303 1322
511 3303 1454
512 3303 1586
514 3303 1718
515 3303 1850
517 3303 1983
519 3303 2114
521 3303 2246
523 3303 2378
526 3303 2511
528 3303 2643
531 3303 2775
534 3303 2906
537 3303 3039
540 3303 3171
543 3303 3303
547 3302 3435
550 3303 3567
554 3302 3699
558 3303 3831
562 3302 3963
565 3301 4055
533 3435 606
533 3435 606
533 3435 606
533 3435 606
533 3435 605
533 3435 664
534 3435 795
534 3435 927
535 3435 1058
536 3435 1190
537 3435 1322
538 3435 1454
539 3435 1586
541 3435 1718
542 3435 1850
544 3435 1982
546 3435 2115
548 3435 2246
550 3435 2379
552 3435 2510
554 3435 2643
557 3435 2774
560 3435 2907
563 3435 3038
566 3435 3171
569 3435 3303
572 3435 3435
575 3434 3567
579 3434 3699
583 3434 3831
587 3435 3963
589 3434 4058
560 3568 636
560 3568 636
560 3567 636
560 3567 636
560 3567 635
560 3567 663
561 3567 795
561 3567 927
562 3567 1059
563 3567 1190
564 3567 1322
565 3567 1455
566 3567 1586
568 3567 1718
569 3567 1851
571 3567 1982
572 3567 2114
574 3567 2246
576 3567 2379
578 3567 2510
581 3567 2642
583 3567 2775
586 3567 2907
588 3567 3039
591 3567 3171
594 3567 3303
597 3567 3435
601 3567 3567
604 3567 3699
608 3567 3831
611 3566 3963
614 3567 4061
588 3700 666
588 3700 666
588 3699 666
588 3699 666
