manual/examples/resources/luts/test.CUBE
#Created by: Adobe Photoshop Export Color Lookup Plugin
TITLE "Screen Shot 2016-10-31 at 6.02.03 PM.png"
#LUT size
LUT_3D_SIZE 5
#data domain
#LUT data points
DOMAIN_MIN 0.000000 0.000000 0.000000
DOMAIN_MAX 0.903226 0.903226 0.903226
0.000000 0.000000 0.000000
0.013977 0.225739 0.225830
0.055298 0.451508 0.451660
0.104492 0.677307 0.677521
0.153687 0.903046 0.903351
0.012390 0.225861 0.015411
0.411499 0.411499 0.164734
0.584442 0.388885 0.171112
0.756195 0.380280 0.166412
0.903717 0.109863 0.712250
0.049957 0.451721 0.060059
0.387177 0.581879 0.163879
0.711823 0.711823 0.364136
0.831879 0.687897 0.374695
0.949371 0.674500 0.371552
0.096680 0.677612 0.111298
0.383057 0.752838 0.175446
0.683868 0.830383 0.352783
0.902252 0.902252 0.610352
0.970978 0.882935 0.602509
0.143524 0.903473 0.162567
0.387085 0.925415 0.193573
0.667969 0.948334 0.348541
0.881409 0.969971 0.596222
0.990875 0.990875 0.891663
0.001831 0.009766 0.225861
0.225861 0.011993 0.225861
0.051117 0.451630 0.226044
0.099854 0.677460 0.451996
0.148804 0.903259 0.677795
0.013977 0.225800 0.225830
0.225800 0.225800 0.225800
0.158783 0.461761 0.461823
0.164642 0.681763 0.681885
0.184204 0.903809 0.903961
0.051117 0.451630 0.225922
0.159607 0.461426 0.159607
0.589874 0.589874 0.324646
0.760254 0.558289 0.337402
0.927887 0.539124 0.318298
0.097260 0.677460 0.226074
0.167145 0.681549 0.167145
0.549164 0.759186 0.306366
0.832794 0.832794 0.492004
0.950012 0.807037 0.499268
0.143738 0.903259 0.226379
0.188782 0.903778 0.188782
0.533539 0.926971 0.304230
0.801575 0.949188 0.474731
0.970276 0.970276 0.693146
0.007568 0.040527 0.451721
0.226013 0.042511 0.451721
0.451721 0.048615 0.451721
0.097260 0.677460 0.226227
0.145538 0.903259 0.452118
0.019043 0.225830 0.451630
0.155731 0.155731 0.461029
0.461334 0.157257 0.461334
0.162811 0.681885 0.438843
0.181671 0.903961 0.673004
0.055328 0.451630 0.451660
0.158783 0.461823 0.461823
0.451599 0.451599 0.451599
0.364838 0.691101 0.691162
0.345795 0.907104 0.907227
0.099854 0.677460 0.451813
0.162811 0.681885 0.438751
0.364960 0.690521 0.364960
0.762665 0.762665 0.507080
0.929169 0.730164 0.518524
0.145538 0.903259 0.451904
0.179993 0.903931 0.436859
0.346924 0.906647 0.346924
0.715210 0.928711 0.476654
0.949951 0.949921 0.629059
0.018555 0.083038 0.677612
0.226257 0.084229 0.677582
0.451904 0.088043 0.677612
0.677582 0.094788 0.677612
0.095337 0.125732 0.903442
0.028503 0.225800 0.677460
0.157227 0.157227 0.681610
0.437744 0.158569 0.681641
0.681702 0.161072 0.681702
0.179993 0.903931 0.437012
0.062683 0.451691 0.677460
0.150146 0.436371 0.682129
0.362579 0.362579 0.689545
0.690186 0.363617 0.690186
0.344849 0.907074 0.645660
0.104523 0.677460 0.677521
0.164642 0.681885 0.681885
0.364838 0.691162 0.691162
0.677429 0.677429 0.677429
0.608643 0.909424 0.909515
0.148804 0.903259 0.677582
0.181671 0.903961 0.672821
0.344849 0.907074 0.645538
0.608307 0.908875 0.608307
0.929626 0.929626 0.702942
0.035400 0.125610 0.903442
0.226746 0.126404 0.903442
0.452057 0.129028 0.903442
0.677704 0.133881 0.903473
0.903442 0.140991 0.903473
0.043182 0.225830 0.903259
0.170990 0.170990 0.903748
0.434540 0.172211 0.903778
0.671967 0.174469 0.903809
0.903839 0.177948 0.903839
0.072906 0.451660 0.903259
0.149780 0.428680 0.903992
0.341492 0.341492 0.905762
0.644165 0.342316 0.905975
0.906342 0.343628 0.906342
0.111420 0.677460 0.903290
0.164215 0.671112 0.904022
0.338745 0.643463 0.906403
0.607239 0.607239 0.907806
0.908478 0.607849 0.908478
0.153717 0.903259 0.903351
0.184204 0.903961 0.903961
0.345795 0.907227 0.907227
0.608643 0.909515 0.909515
0.903229 0.903229 0.903229
