manual/examples/resources/luts/test.CUBE
#Created by: Adobe Photoshop Export Color Lookup Plugin
TITLE "Screen Shot 2016-10-31 at 6.02.03 PM.png"
#LUT size
LUT_3D_SIZE 32
#data domain
DOMAIN_MIN 0.0 0.0 0.0
DOMAIN_MAX 1.0 1.0 1.0
#LUT data points
0.000000 0.000000 0.000000
0.000824 0.032135 0.032166
0.001770 0.064484 0.064514
0.003143 0.096741 0.096802
0.005005 0.128998 0.129059
0.007355 0.161255 0.161316
0.010345 0.193481 0.193573
0.013977 0.225739 0.225830
0.018097 0.258026 0.258087
0.022827 0.290283 0.290344
0.028229 0.322479 0.322601
0.034515 0.354767 0.354889
0.041321 0.387024 0.387146
0.048309 0.419281 0.419403
0.055298 0.451508 0.451660
0.062378 0.483765 0.483917
0.069427 0.516052 0.516205
0.076355 0.548309 0.548462
0.083435 0.580536 0.580750
0.090485 0.612793 0.613007
0.097473 0.645050 0.645264
0.104492 0.677307 0.677521
0.111572 0.709534 0.709778
0.118561 0.741791 0.742035
0.125580 0.774048 0.774292
0.132629 0.806305 0.806549
0.139618 0.838531 0.838837
0.146667 0.870789 0.871094
0.153687 0.903046 0.903351
0.160706 0.935303 0.935608
0.167725 0.967560 0.967865
0.174347 0.998230 0.995087
0.000732 0.032166 0.000916
0.064117 0.064117 0.030731
0.096222 0.062958 0.029633
0.128387 0.061127 0.026978
0.129517 0.003174 0.101746
0.002045 0.051056 0.161285
0.007690 0.161224 0.193573
0.010773 0.193481 0.225830
0.014465 0.225739 0.258087
0.018646 0.258026 0.290344
0.023468 0.290222 0.322601
0.028961 0.322540 0.354858
0.035339 0.354797 0.387146
0.042175 0.387024 0.419403
0.049164 0.419220 0.451660
0.056152 0.451508 0.483917
0.063202 0.483795 0.516205
0.070251 0.516022 0.548462
0.077209 0.548218 0.580719
0.084259 0.580475 0.612976
0.091339 0.612762 0.645264
0.098358 0.645050 0.677521
0.105347 0.677307 0.709778
0.112427 0.709564 0.742035
0.119385 0.741730 0.774292
0.126434 0.773987 0.806549
0.133453 0.806183 0.838806
0.140472 0.838470 0.871063
0.147522 0.870850 0.903351
0.154541 0.903076 0.935608
0.161560 0.935181 0.967865
0.168427 0.967468 0.994232
0.001587 0.064545 0.001953
0.062561 0.095703 0.028595
0.127136 0.127136 0.056915
0.158386 0.124603 0.054230
0.189453 0.121979 0.049988
0.220276 0.118927 0.044189
0.250824 0.116333 0.039764
0.281067 0.114807 0.038147
0.258881 0.010834 0.203522
0.105225 0.016724 0.290405
0.006317 0.102142 0.322571
0.024170 0.290222 0.354858
0.029785 0.322479 0.387115
0.036224 0.354767 0.419373
0.043060 0.387024 0.451660
0.050110 0.419281 0.483917
0.057068 0.451538 0.516205
0.064117 0.483765 0.548462
0.071167 0.516052 0.580719
0.078125 0.548309 0.612976
0.085175 0.580475 0.645233
0.092224 0.612793 0.677490
0.099243 0.645081 0.709778
0.106262 0.677307 0.742035
0.113312 0.709595 0.774292
0.120270 0.741699 0.806549
0.127319 0.774048 0.838806
0.134369 0.806366 0.871063
0.141357 0.838440 0.903320
0.148407 0.870880 0.935577
0.155426 0.903046 0.967865
0.162231 0.935211 0.993347
0.002808 0.096802 0.003479
0.060699 0.127228 0.026245
0.124146 0.157898 0.051636
0.188965 0.188965 0.076508
0.219238 0.184570 0.071289
0.248810 0.181671 0.071747
0.278137 0.178436 0.067261
0.307159 0.176086 0.065369
0.336212 0.174500 0.064301
0.365234 0.173248 0.063782
0.394287 0.172546 0.063812
0.358917 0.005981 0.033813
0.388123 0.024200 0.305237
0.261322 0.037445 0.419464
0.056366 0.040741 0.451721
0.013855 0.153229 0.483856
0.040283 0.359680 0.516174
0.058075 0.451508 0.548462
0.065094 0.483734 0.580719
0.072144 0.515991 0.612976
0.079102 0.548340 0.645233
0.086121 0.580536 0.677490
0.093140 0.612701 0.709747
0.100159 0.645050 0.742004
0.107178 0.677277 0.774292
0.114166 0.709412 0.806549
0.121185 0.741699 0.838806
0.128235 0.774048 0.871063
0.135254 0.806244 0.903320
0.142273 0.838440 0.935577
0.149292 0.870667 0.967834
0.156097 0.902954 0.992523
0.004425 0.129089 0.005524
0.058868 0.158569 0.024170
0.121033 0.188385 0.046448
0.184296 0.218658 0.069061
0.248871 0.248871 0.091217
0.277679 0.242920 0.085785
0.305420 0.239563 0.094055
0.333313 0.236908 0.094910
0.361237 0.234253 0.092651
0.389191 0.232178 0.091095
0.417114 0.230591 0.090088
0.445068 0.229340 0.089539
0.472931 0.228455 0.089355
0.500854 0.227783 0.089539
0.528748 0.227325 0.089996
0.487396 0.014343 0.136353
0.517273 0.044006 0.407013
0.419342 0.064270 0.548553
0.210480 0.066071 0.580811
0.014923 0.070892 0.613068
0.024750 0.204315 0.645203
0.055695 0.411530 0.677460
0.087128 0.580475 0.709747
0.094147 0.612823 0.742004
0.101135 0.644958 0.774261
0.108185 0.677338 0.806519
0.115173 0.709534 0.838806
0.122131 0.741730 0.871063
0.129211 0.774048 0.903320
0.136200 0.806244 0.935577
0.143250 0.838531 0.967834
0.149933 0.870453 0.991730
0.006531 0.161316 0.008148
0.057526 0.189697 0.022858
0.118286 0.218597 0.042267
0.180176 0.247864 0.063538
0.242828 0.276886 0.086487
0.305573 0.305573 0.113098
0.332947 0.299408 0.110870
0.359619 0.295532 0.117645
0.386292 0.292938 0.121613
0.413177 0.290344 0.120392
0.440063 0.287994 0.118469
0.466919 0.286102 0.117065
0.493713 0.284515 0.116058
0.520477 0.283173 0.115356
0.547302 0.282227 0.115082
0.574036 0.281342 0.114990
0.600861 0.280792 0.115234
0.627594 0.280426 0.115692
0.600128 0.070374 0.048248
0.615814 0.027924 0.236572
0.646210 0.065948 0.508759
0.573578 0.091339 0.677612
0.368164 0.092194 0.709869
0.158661 0.095734 0.742126
0.024933 0.101257 0.774323
0.039703 0.255402 0.806488
0.071014 0.459534 0.838745
0.109283 0.671967 0.871033
0.123169 0.741852 0.903320
0.130249 0.774048 0.935577
0.137207 0.806183 0.967834
0.143890 0.838226 0.990967
0.009125 0.193604 0.011475
0.057251 0.220734 0.022797
0.116486 0.248566 0.040375
0.177155 0.276581 0.061798
0.238403 0.304443 0.086060
0.299286 0.332092 0.111694
0.359650 0.359650 0.138702
0.385986 0.353790 0.136566
0.411652 0.349365 0.141022
0.437256 0.346588 0.146576
0.462891 0.344299 0.148651
0.488678 0.341675 0.146362
0.514435 0.339569 0.144653
0.540131 0.337555 0.143188
0.565826 0.335999 0.142151
0.591522 0.334656 0.141418
0.617249 0.333679 0.140991
0.642914 0.332855 0.140808
0.668518 0.331970 0.140717
0.694092 0.331299 0.140869
0.719696 0.330994 0.141296
0.745239 0.330597 0.141754
0.713379 0.025208 0.067932
0.744019 0.048126 0.341644
0.775055 0.087921 0.610504
0.730835 0.118561 0.806671
0.522644 0.118622 0.838928
0.315735 0.121185 0.871185
0.113281 0.125793 0.903442
0.038269 0.131683 0.935577
0.056488 0.306458 0.967773
0.086151 0.509888 0.985291
0.012390 0.225861 0.015411
0.058014 0.251617 0.024231
0.115967 0.278229 0.041473
0.175446 0.305023 0.063080
0.235291 0.331879 0.086426
0.294739 0.358551 0.111237
0.353577 0.385132 0.137329
0.411499 0.411499 0.164734
0.436890 0.405823 0.162628
0.461548 0.401123 0.164246
0.485931 0.398010 0.171234
0.510529 0.395752 0.174805
0.535126 0.393341 0.174866
0.559845 0.391083 0.172882
0.584442 0.388885 0.171112
0.609009 0.386963 0.169678
0.633636 0.385468 0.168610
0.658173 0.384003 0.167694
0.682739 0.382965 0.167175
0.707214 0.381897 0.166718
0.731750 0.381134 0.166534
0.756195 0.380280 0.166412
0.780609 0.379700 0.166534
0.805084 0.379395 0.166870
0.829498 0.378967 0.167236
0.829346 0.191895 0.093842
0.840881 0.040192 0.167633
0.872131 0.069000 0.440155
0.903717 0.109863 0.712250
0.889557 0.145935 0.935730
0.682404 0.145447 0.967987
0.473999 0.144135 0.983612
0.016052 0.258148 0.019958
0.060028 0.282440 0.027069
0.116486 0.307892 0.044312
0.174622 0.333588 0.064972
0.233032 0.359283 0.087372
0.291229 0.384949 0.111328
0.348846 0.410553 0.136627
0.405548 0.435974 0.163300
0.461182 0.461182 0.191223
0.485504 0.455658 0.189117
0.509186 0.450623 0.187531
0.532501 0.447388 0.195892
0.555908 0.444916 0.200500
0.579407 0.442841 0.203033
0.602997 0.440521 0.201752
0.626495 0.438232 0.199738
0.650024 0.436127 0.198029
0.673462 0.434174 0.196533
0.696899 0.432587 0.195343
0.720367 0.431335 0.194489
0.743713 0.429901 0.193604
0.767090 0.428802 0.193024
0.790466 0.427826 0.192596
0.813812 0.427185 0.192444
0.837097 0.426270 0.192230
0.860413 0.425842 0.192322
0.883667 0.425140 0.192383
0.906891 0.424927 0.192749
0.930115 0.424377 0.192993
0.936829 0.046051 0.098999
0.968262 0.058807 0.272705
0.989014 0.089722 0.542206
0.020264 0.290405 0.025208
0.062469 0.313324 0.030670
0.117310 0.337616 0.047546
0.174255 0.362122 0.067230
0.231537 0.386719 0.088776
0.288666 0.411377 0.111938
0.345123 0.435944 0.136475
0.400787 0.460358 0.162445
0.455322 0.484558 0.189667
0.508606 0.508606 0.218231
0.531891 0.503235 0.216095
0.554474 0.498108 0.214050
0.576813 0.494568 0.220551
0.599121 0.492004 0.226227
0.621429 0.489685 0.229492
0.643860 0.487854 0.231293
0.666321 0.485382 0.229034
0.688690 0.483002 0.226990
0.711121 0.481171 0.225372
0.733429 0.479279 0.223846
0.755737 0.477631 0.222565
0.778015 0.476105 0.221466
0.800323 0.474976 0.220673
0.822540 0.473755 0.219940
0.844727 0.472626 0.219269
0.866943 0.471832 0.218903
0.889069 0.470917 0.218536
0.911194 0.470001 0.218231
0.933350 0.469604 0.218262
0.955414 0.468872 0.218201
0.977509 0.468506 0.218384
0.990509 0.468170 0.218048
0.025055 0.322662 0.031219
0.063538 0.344452 0.036285
0.118591 0.367310 0.051025
0.174500 0.390747 0.069916
0.230621 0.414185 0.090576
0.286713 0.437744 0.112946
0.342194 0.461273 0.136780
0.396759 0.484619 0.161987
0.450500 0.507904 0.188629
0.502808 0.530914 0.216553
0.553772 0.553772 0.245819
0.576050 0.548676 0.243713
0.597534 0.543457 0.241547
0.618896 0.539612 0.245361
0.640106 0.536865 0.252014
0.661316 0.534576 0.256165
0.682587 0.532562 0.258728
0.703827 0.530426 0.258972
0.725159 0.528046 0.256805
0.746490 0.526062 0.255005
0.767700 0.524048 0.253235
0.788879 0.522095 0.251617
0.810089 0.520538 0.250336
0.831268 0.519043 0.249146
0.852386 0.517670 0.248138
0.873413 0.516266 0.247131
0.894501 0.515106 0.246368
0.915527 0.514130 0.245789
0.936554 0.513245 0.245300
0.957550 0.512207 0.244781
0.978485 0.511505 0.244507
0.990906 0.511108 0.244049
0.030518 0.354919 0.038116
0.063416 0.375641 0.043091
0.120209 0.397186 0.054840
0.174927 0.419373 0.072815
0.230164 0.441711 0.092682
0.285339 0.464203 0.114319
0.339813 0.486572 0.137421
0.393677 0.508972 0.162048
0.446381 0.531158 0.187988
0.497955 0.553162 0.215271
0.548218 0.575043 0.244049
0.596680 0.596680 0.274170
0.617981 0.591766 0.272003
0.638397 0.586670 0.269806
0.658661 0.582275 0.270508
0.678802 0.579529 0.278107
0.698914 0.577179 0.283020
0.719025 0.575012 0.286194
0.739227 0.573181 0.288269
0.759399 0.571014 0.287415
0.779602 0.568878 0.285400
0.799713 0.566589 0.283356
0.819855 0.564758 0.281708
0.839905 0.562958 0.280090
0.859924 0.561127 0.278595
0.879913 0.559601 0.277313
0.899933 0.558228 0.276245
0.919861 0.556946 0.275238
0.939758 0.555573 0.274231
0.959656 0.554596 0.273560
0.979523 0.553497 0.272797
0.991364 0.552765 0.272034
0.036713 0.387207 0.045349
0.063446 0.406860 0.050110
0.122040 0.427032 0.058899
0.175720 0.448090 0.075928
0.230072 0.469299 0.095093
0.284424 0.490662 0.115997
0.338074 0.511963 0.138428
0.390961 0.533203 0.162323
0.443024 0.554413 0.187744
0.493774 0.575439 0.214447
0.543213 0.596222 0.242584
0.591248 0.616913 0.272247
0.637329 0.637329 0.303284
0.657562 0.632507 0.301086
0.676941 0.627533 0.298828
0.696198 0.623016 0.296814
0.715240 0.619995 0.304596
0.734222 0.617493 0.310211
0.753326 0.615509 0.314117
0.772339 0.613586 0.316681
0.791351 0.611755 0.318298
0.810425 0.609467 0.316559
0.829529 0.607361 0.314575
0.848511 0.605286 0.312622
0.867462 0.603363 0.310883
0.886414 0.601501 0.309204
0.905273 0.599701 0.307587
0.924133 0.598083 0.306244
0.942963 0.596588 0.304962
0.961792 0.595306 0.303925
0.980560 0.593903 0.302765
0.991821 0.593384 0.302124
0.043243 0.419464 0.052643
0.063538 0.438141 0.057068
0.124054 0.456879 0.063049
0.176727 0.476807 0.079315
0.230286 0.496887 0.097687
0.283752 0.517090 0.117859
0.336609 0.537292 0.139618
0.388977 0.557556 0.163025
0.440125 0.577667 0.187775
0.490265 0.597626 0.213959
0.539063 0.617432 0.241577
0.586365 0.637085 0.270691
0.631927 0.656494 0.301208
0.675720 0.675720 0.333252
0.694885 0.670990 0.330963
0.713196 0.666199 0.328705
0.731415 0.661682 0.326569
0.749390 0.658295 0.331512
0.767334 0.655823 0.337860
0.785248 0.653564 0.342255
0.803223 0.651733 0.345367
0.821198 0.650116 0.347626
0.839081 0.648315 0.348755
0.857056 0.646057 0.346588
0.874969 0.643982 0.344604
0.892822 0.641876 0.342621
0.910645 0.639923 0.340790
0.928406 0.638031 0.339050
0.946198 0.636444 0.337585
0.963898 0.634674 0.335999
0.981598 0.633209 0.334717
0.992310 0.632355 0.333771
0.049957 0.451721 0.060059
0.063660 0.469391 0.064117
0.124817 0.486969 0.069031
0.178162 0.505615 0.082947
0.230804 0.524567 0.100555
0.283600 0.543671 0.120056
0.335632 0.562744 0.141174
0.387177 0.581879 0.163879
0.437805 0.600922 0.188110
0.487091 0.619781 0.213654
0.535309 0.638580 0.240784
0.581940 0.657166 0.269348
0.627167 0.675598 0.299530
0.670380 0.693756 0.331024
0.711823 0.711823 0.364136
0.729980 0.707428 0.361969
0.747223 0.702606 0.359558
0.764313 0.698120 0.357330
0.781311 0.694489 0.359192
0.798126 0.691925 0.366089
0.815002 0.689758 0.371063
0.831879 0.687897 0.374695
0.848694 0.686035 0.377167
0.865540 0.684418 0.378998
0.882355 0.682709 0.379456
0.899170 0.680573 0.377411
0.915924 0.678314 0.375183
0.932678 0.676453 0.373413
0.949371 0.674500 0.371552
0.966003 0.672577 0.369720
0.982635 0.670807 0.368073
0.992828 0.669891 0.367065
0.056580 0.483978 0.067352
0.063568 0.500580 0.071167
0.124847 0.517181 0.075684
0.179535 0.534424 0.086700
0.231506 0.552246 0.103607
0.283508 0.570160 0.122375
0.334961 0.588165 0.142883
0.385742 0.606171 0.164948
0.435791 0.624176 0.188629
0.484558 0.641998 0.213715
0.532043 0.659698 0.240265
0.578217 0.677277 0.268372
0.622833 0.694641 0.298035
0.665741 0.711884 0.329224
0.706757 0.728851 0.361908
0.745667 0.745667 0.396088
0.762817 0.741516 0.393921
0.778931 0.736755 0.391418
0.794952 0.732361 0.389099
0.810974 0.728516 0.387665
0.826721 0.725891 0.395081
0.842499 0.723785 0.400543
0.858276 0.721863 0.404541
0.874023 0.720001 0.407440
0.889771 0.718475 0.409668
0.905518 0.717072 0.411285
0.921204 0.715179 0.411072
0.936859 0.712921 0.408875
0.952515 0.710876 0.406860
0.968140 0.709106 0.405121
0.983704 0.707092 0.403229
0.993378 0.705902 0.401917
0.063324 0.516296 0.074646
0.066528 0.531830 0.078156
0.124908 0.547394 0.082458
0.181274 0.563293 0.090637
0.232452 0.580017 0.106842
0.283813 0.596832 0.124969
0.334686 0.613708 0.144867
0.384796 0.630585 0.166321
0.434052 0.647461 0.189362
0.482239 0.664185 0.213928
0.529205 0.680847 0.239960
0.574799 0.697357 0.267609
0.618927 0.713715 0.296814
0.661438 0.729889 0.327576
0.702118 0.745880 0.359894
0.740784 0.761688 0.393768
0.777283 0.777283 0.429108
0.793365 0.773346 0.426941
0.808441 0.768799 0.424438
0.823364 0.764526 0.422058
0.838318 0.760620 0.419952
0.853058 0.757782 0.424927
0.867767 0.755585 0.430725
0.882416 0.753632 0.434998
0.897156 0.752045 0.438446
0.911804 0.750336 0.440796
0.926483 0.748962 0.442810
0.941040 0.747467 0.444031
0.955688 0.745850 0.443695
0.970215 0.743683 0.441559
0.984741 0.741730 0.439667
0.993927 0.740326 0.438141
0.070038 0.548553 0.081970
0.073029 0.563049 0.085266
0.124969 0.577606 0.089203
0.183197 0.592224 0.094727
0.233612 0.607819 0.110260
0.284332 0.623505 0.127747
0.334595 0.639252 0.147003
0.383942 0.654938 0.167786
0.432587 0.670685 0.190247
0.480133 0.686371 0.214264
0.526611 0.701935 0.239838
0.571686 0.717377 0.266998
0.615326 0.732697 0.295746
0.657471 0.747833 0.326111
0.697784 0.762817 0.358093
0.736206 0.777618 0.391632
0.772583 0.792236 0.426697
0.806671 0.806671 0.463165
0.821655 0.802917 0.460968
0.835663 0.798676 0.458588
0.849609 0.794586 0.456238
0.863464 0.790680 0.454010
0.877167 0.787476 0.455750
0.890839 0.785461 0.461853
0.904419 0.783447 0.466370
0.918060 0.781769 0.469971
0.931641 0.780243 0.472748
0.945221 0.778839 0.474915
0.958801 0.777496 0.476563
0.972290 0.776154 0.477692
0.985779 0.774414 0.476959
0.994476 0.773041 0.475464
0.076630 0.580811 0.089325
0.079437 0.594330 0.092377
0.124939 0.607758 0.095947
0.184296 0.621277 0.100006
0.234833 0.635590 0.113739
0.284912 0.650177 0.130615
0.334503 0.664734 0.149200
0.383545 0.679413 0.169556
0.431488 0.694000 0.191376
0.478638 0.708618 0.214935
0.524384 0.723053 0.239929
0.569000 0.737457 0.266663
0.612305 0.751740 0.295013
0.653870 0.765808 0.324890
0.693939 0.779755 0.356537
0.731995 0.793488 0.389648
0.768188 0.807098 0.424500
0.802124 0.820526 0.460663
0.833832 0.833832 0.498352
0.847748 0.830353 0.496246
0.860687 0.826233 0.493744
0.873596 0.822418 0.491516
0.886353 0.818604 0.489166
0.899109 0.815247 0.487885
0.911682 0.813141 0.493958
0.924255 0.811279 0.498718
0.936829 0.809692 0.502594
0.949371 0.808197 0.505554
0.961853 0.806763 0.507813
0.974365 0.805389 0.509583
0.986847 0.804291 0.511139
0.995026 0.803314 0.511566
0.083374 0.613098 0.096588
0.085938 0.625549 0.099457
0.124908 0.637939 0.102722
0.184265 0.650421 0.106476
0.236267 0.663391 0.117371
0.285706 0.676849 0.133636
0.334656 0.690308 0.151581
0.383179 0.703857 0.171356
0.430786 0.717407 0.192780
0.477173 0.730804 0.215698
0.522614 0.744232 0.240295
0.566589 0.757507 0.266449
0.609375 0.770721 0.294373
0.650513 0.783722 0.323792
0.690247 0.796631 0.355072
0.728210 0.809387 0.388000
0.764069 0.821930 0.422424
0.798035 0.834381 0.458496
0.829559 0.846619 0.495850
0.858765 0.858765 0.534668
0.871674 0.855621 0.532684
0.883575 0.851776 0.530243
0.895355 0.848022 0.527802
0.907166 0.844635 0.525787
0.918823 0.841278 0.523682
0.930389 0.838867 0.527313
0.941925 0.837067 0.532074
0.953430 0.835449 0.535919
0.964935 0.834015 0.539001
0.976410 0.832855 0.541656
0.987854 0.831482 0.543518
0.995575 0.830811 0.544678
0.090057 0.645355 0.103943
0.092407 0.656738 0.106567
0.125092 0.668182 0.109497
0.184113 0.679504 0.112976
0.237823 0.691284 0.121155
0.286621 0.703583 0.136749
0.335205 0.715973 0.154205
0.383118 0.728363 0.173370
0.429962 0.740723 0.194153
0.476013 0.753052 0.216614
0.520935 0.765381 0.240723
0.564575 0.777588 0.266510
0.606689 0.789673 0.293823
0.647583 0.801636 0.322968
0.686890 0.813507 0.353821
0.724518 0.825195 0.386383
0.760284 0.836792 0.420593
0.794098 0.848206 0.456421
0.825562 0.859436 0.493561
0.854828 0.870575 0.532227
0.881592 0.881592 0.572021
0.893433 0.878784 0.570160
0.904297 0.875275 0.567871
0.915070 0.871796 0.565582
0.925751 0.868408 0.563293
0.936432 0.865326 0.561310
0.946991 0.862701 0.561981
0.957489 0.860962 0.566650
0.967987 0.859528 0.570587
0.978455 0.858124 0.573700
0.988892 0.856903 0.576263
0.996063 0.856110 0.577667
0.096680 0.677612 0.111298
0.098877 0.687988 0.113647
0.125000 0.698334 0.116272
0.184174 0.708710 0.119446
0.239532 0.719208 0.125092
0.287689 0.730347 0.140015
0.335663 0.741577 0.156860
0.383057 0.752838 0.175446
0.429504 0.764099 0.195740
0.475006 0.775330 0.217682
0.519379 0.786530 0.241241
0.562531 0.797638 0.266510
0.604340 0.808655 0.293488
0.644989 0.819580 0.322357
0.683868 0.830383 0.352783
0.721191 0.841034 0.384979
0.756683 0.851563 0.418854
0.790314 0.861969 0.454407
0.821869 0.872223 0.491516
0.851105 0.882355 0.529968
0.877960 0.892365 0.569672
0.902252 0.902252 0.610352
0.913086 0.899811 0.608704
0.922882 0.896545 0.606445
0.932617 0.893372 0.604248
0.942322 0.890411 0.602234
0.951935 0.887360 0.600067
0.961487 0.884613 0.598236
0.970978 0.882935 0.602509
0.980469 0.881531 0.606171
0.989899 0.880219 0.609192
0.996582 0.879456 0.611084
0.103424 0.709869 0.118622
0.105347 0.719208 0.120697
0.124908 0.728485 0.122986
0.184418 0.737854 0.125946
0.241516 0.747162 0.129120
0.289001 0.757202 0.143463
0.336426 0.767273 0.159698
0.383240 0.777405 0.177734
0.429199 0.787506 0.197449
0.474396 0.797668 0.218964
0.518280 0.807739 0.242035
0.560974 0.817749 0.266846
0.602325 0.827637 0.293396
0.642365 0.837494 0.321655
0.680908 0.847168 0.351685
0.718048 0.856842 0.383667
0.753296 0.866333 0.417236
0.786713 0.875702 0.452484
0.818146 0.884918 0.489349
0.847443 0.894043 0.527679
0.874573 0.903107 0.567535
0.899017 0.912048 0.608185
0.920868 0.920868 0.649628
0.930573 0.918732 0.648071
0.939423 0.915833 0.646057
0.948120 0.912964 0.643829
0.956787 0.910278 0.642029
0.965424 0.907684 0.640198
0.973969 0.904999 0.638153
0.982452 0.903076 0.639587
0.990936 0.901825 0.643188
0.997040 0.900940 0.645233
0.110107 0.742157 0.125946
0.111847 0.750427 0.127808
0.125000 0.758698 0.129822
0.184204 0.766968 0.132477
0.241302 0.775238 0.135376
0.290222 0.783997 0.146942
0.337097 0.792969 0.162598
0.383728 0.802002 0.180145
0.429260 0.811005 0.199341
0.473816 0.819977 0.220306
0.517242 0.828949 0.242889
0.559509 0.837860 0.267242
0.600433 0.846649 0.293365
0.640137 0.855408 0.321259
0.678314 0.864044 0.350922
0.714996 0.872589 0.382416
0.750061 0.881042 0.415680
0.783508 0.889435 0.450897
0.814819 0.897675 0.487549
0.844147 0.905792 0.525787
0.871185 0.913818 0.565338
0.895844 0.921783 0.606018
0.917969 0.929626 0.647522
0.937439 0.937439 0.689606
0.946075 0.935577 0.688141
0.953857 0.933044 0.686249
0.961609 0.930542 0.684357
0.969299 0.928162 0.682648
0.976898 0.925903 0.681030
0.984467 0.923615 0.679321
0.991974 0.921448 0.678162
0.997498 0.920563 0.680511
0.116791 0.774414 0.133270
0.118286 0.781677 0.134918
0.124969 0.788879 0.136597
0.184265 0.796143 0.138977
0.241547 0.803375 0.141602
0.291718 0.810913 0.150543
0.338196 0.818756 0.165649
0.384155 0.826630 0.182617
0.429077 0.834473 0.201233
0.473297 0.842346 0.221680
0.516388 0.850189 0.243866
0.558105 0.857941 0.267670
0.598785 0.865692 0.293457
0.638123 0.873352 0.321014
0.675873 0.880890 0.350220
0.712341 0.888397 0.381439
0.747223 0.895813 0.414490
0.780182 0.903076 0.449097
0.811554 0.910309 0.485657
0.840881 0.917450 0.523804
0.867889 0.924469 0.563171
0.892761 0.931458 0.603912
0.915161 0.938354 0.645599
0.934906 0.945190 0.687622
0.951996 0.951996 0.730133
0.959564 0.950500 0.728912
0.966339 0.948364 0.727295
0.973083 0.946289 0.725708
0.979797 0.944244 0.724091
0.986420 0.942261 0.722534
0.992981 0.940308 0.721008
0.997955 0.938782 0.719727
0.123444 0.806671 0.140594
0.124725 0.812897 0.141998
0.126038 0.819092 0.143402
0.184479 0.825287 0.145538
0.241333 0.831451 0.147827
0.293335 0.837830 0.154266
0.339264 0.844513 0.168823
0.384705 0.851257 0.185211
0.429413 0.858002 0.203369
0.473145 0.864746 0.223328
0.515533 0.871399 0.244873
0.557007 0.878082 0.268341
0.597229 0.884705 0.293640
0.636169 0.891296 0.320740
0.673737 0.897766 0.349701
0.709900 0.904175 0.380554
0.744293 0.910522 0.413086
0.777222 0.916779 0.447601
0.808411 0.922974 0.483887
0.837646 0.929077 0.521851
0.864868 0.935150 0.561279
0.889862 0.941132 0.601959
0.912354 0.947021 0.643433
0.932434 0.952911 0.685791
0.949860 0.958771 0.728424
0.964600 0.964600 0.770935
0.971039 0.963348 0.769836
0.976898 0.961731 0.768677
0.982635 0.959961 0.767151
0.988373 0.958344 0.765839
0.994019 0.956604 0.764374
0.998413 0.955383 0.763336
0.130157 0.838928 0.147919
0.131226 0.844116 0.149078
0.132294 0.849274 0.150269
0.184479 0.854431 0.152008
0.241394 0.859589 0.154083
0.295166 0.864807 0.158112
0.340393 0.870361 0.172028
0.385437 0.875977 0.187927
0.429504 0.881561 0.205475
0.472900 0.887115 0.224915
0.514984 0.892670 0.246063
0.556122 0.898224 0.269135
0.595795 0.903717 0.293854
0.634460 0.909210 0.320648
0.671509 0.914581 0.349091
0.707397 0.919952 0.379639
0.741791 0.925232 0.412109
0.774414 0.930450 0.446228
0.805511 0.935638 0.482391
0.834625 0.940704 0.519958
0.861877 0.945770 0.559357
0.886871 0.950745 0.599854
0.909729 0.955719 0.641663
0.929962 0.960632 0.683929
0.947784 0.965515 0.726837
0.962830 0.970398 0.769409
0.975250 0.975250 0.811707
0.980621 0.974365 0.810883
0.985474 0.973053 0.809753
0.990295 0.971741 0.808685
0.995026 0.970490 0.807709
0.998810 0.969421 0.806671
0.136810 0.871216 0.155243
0.137695 0.875366 0.156189
0.138519 0.879425 0.157104
0.184265 0.883575 0.158569
0.241516 0.887695 0.160339
0.296417 0.891785 0.162384
0.341675 0.896210 0.175385
0.386230 0.900665 0.190674
0.430084 0.905121 0.207825
0.472717 0.909546 0.226654
0.514587 0.914032 0.247406
0.555328 0.918427 0.269989
0.594574 0.922791 0.294250
0.632813 0.927155 0.320587
0.669769 0.931488 0.348846
0.705078 0.935699 0.378845
0.739227 0.939941 0.410950
